C:\Users\ebrig\Documents\College\Fall2019\ECESeniorProject\ECESeniorProject\Image_Processor_Files\mickey.png
C:\Users\ebrig\Documents\College\Fall2019\ECESeniorProject\ECESeniorProject\Image_Processor_Files\mickey.png
C:\Users\ebrig\Documents\College\Fall2019\ECESeniorProject\ECESeniorProject\Image_Processor_Files\mickey.png
C:\Users\ebrig\Documents\College\Fall2019\ECESeniorProject\ECESeniorProject\Image_Processor_Files\mickey.png
C:\Users\ebrig\Documents\College\Fall2019\ECESeniorProject\ECESeniorProject\Image_Processor_Files\mickey.png
H5 S0 
F100
G0 Z0 ( for some grbl senders compatibility )
 
G0 X0.0 Y0.0
M3 S255
G1 X399.0 Y0.0
M5 S0
G0 X399.0 Y0.5
M3 S255
G1 X0.0 Y0.5
M5 S0
G0 X0.0 Y1.0
M3 S255
G1 X399.0 Y1.0
M5 S0
G0 X399.0 Y1.5
M3 S255
G1 X0.0 Y1.5
M5 S0
G0 X0.0 Y2.0
M3 S255
G1 X399.0 Y2.0
M5 S0
G0 X399.0 Y2.5
M3 S255
G1 X0.0 Y2.5
M5 S0
G0 X0.0 Y3.0
M3 S255
G1 X399.0 Y3.0
M5 S0
G0 X399.0 Y3.5
M3 S255
G1 X0.0 Y3.5
M5 S0
G0 X0.0 Y4.0
M3 S255
G1 X399.0 Y4.0
M5 S0
G0 X399.0 Y4.5
M3 S255
G1 X0.0 Y4.5
M5 S0
G0 X0.0 Y5.0
M3 S255
G1 X399.0 Y5.0
M5 S0
G0 X399.0 Y5.5
M3 S255
G1 X0.0 Y5.5
M5 S0
G0 X0.0 Y6.0
M3 S255
G1 X399.0 Y6.0
M5 S0
G0 X399.0 Y6.5
M3 S255
G1 X0.0 Y6.5
M5 S0
G0 X0.0 Y7.0
M3 S255
G1 X399.0 Y7.0
M5 S0
G0 X399.0 Y7.5
M3 S255
G1 X0.0 Y7.5
M5 S0
G0 X0.0 Y8.0
M3 S255
G1 X399.0 Y8.0
M5 S0
G0 X399.0 Y8.5
M3 S255
G1 X0.0 Y8.5
M5 S0
G0 X0.0 Y9.0
M3 S255
G1 X399.0 Y9.0
M5 S0
G0 X399.0 Y9.5
M3 S255
G1 X0.0 Y9.5
M5 S0
G0 X0.0 Y10.0
M3 S255
G1 X399.0 Y10.0
M5 S0
G0 X399.0 Y10.5
M3 S255
G1 X0.0 Y10.5
M5 S0
G0 X0.0 Y11.0
M3 S255
G1 X399.0 Y11.0
M5 S0
G0 X399.0 Y11.5
M3 S255
G1 X0.0 Y11.5
M5 S0
G0 X0.0 Y12.0
M3 S255
G1 X399.0 Y12.0
M5 S0
M5 S0
M5 S0
M5 S0
M5 S0
M5 S0
M5 S0
M5 S0
M5 S0
M5 S0
M5 S0
M5 S0
M5 S0
M5 S0
M5 S0
M5 S0
M5 S0
M5 S0
M5 S0
M5 S0
M5 S0
M5 S0
M5 S0
M5 S0
M5 S0
M5 S0
M5 S0
M5 S0
M5 S0
M5 S0
M5 S0
M5 S0
M5 S0
M5 S0
M5 S0
M5 S0
M5 S0
M5 S0
M5 S0
M5 S0
M5 S0
M5 S0
M5 S0
M5 S0
M5 S0
M5 S0
M5 S0
M5 S0
M5 S0
M5 S0
M5 S0
M5 S0
M5 S0
M5 S0
M5 S0
M5 S0
M5 S0
M5 S0
M5 S0
M5 S0
M5 S0
M5 S0
M5 S0
M5 S0
M5 S0
M5 S0
M5 S0
M5 S0
M5 S0
M5 S0
M5 S0
M5 S0
M5 S0
M5 S0
M5 S0
M5 S0
M5 S0
M5 S0
M5 S0
M5 S0
M5 S0
M5 S0
M5 S0
M5 S0
M5 S0
M5 S0
M5 S0
M5 S0
M5 S0
M5 S0
M5 S0
M5 S0
M5 S0
M5 S0
M5 S0
M5 S0
M5 S0
M5 S0
M5 S0
M5 S0
M5 S0
M5 S0
M5 S0
M5 S0
M5 S0
M5 S0
M5 S0
M5 S0
M5 S0
M5 S0
M5 S0
M5 S0
M5 S0
M5 S0
M5 S0
M5 S0
M5 S0
M5 S0
M5 S0
M5 S0
M5 S0
M5 S0
M5 S0
M5 S0
M5 S0
M5 S0
M5 S0
M5 S0
M5 S0
M5 S0
M5 S0
M5 S0
M5 S0
M5 S0
M5 S0
M5 S0
M5 S0
M5 S0
M5 S0
M5 S0
M5 S0
M5 S0
M5 S0
M5 S0
M5 S0
M5 S0
M5 S0
M5 S0
M5 S0
M5 S0
M5 S0
M5 S0
M5 S0
M5 S0
M5 S0
M5 S0
M5 S0
M5 S0
M5 S0
M5 S0
M5 S0
M5 S0
M5 S0
M5 S0
M5 S0
M5 S0
M5 S0
M5 S0
M5 S0
M5 S0
M5 S0
M5 S0
M5 S0
M5 S0
M5 S0
M5 S0
M5 S0
M5 S0
M5 S0
M5 S0
M5 S0
M5 S0
M5 S0
M5 S0
M5 S0
M5 S0
M5 S0
M5 S0
M5 S0
M5 S0
M5 S0
M5 S0
M5 S0
M5 S0
M5 S0
M5 S0
M5 S0
M5 S0
M5 S0
M5 S0
M5 S0
M5 S0
M5 S0
M5 S0
M5 S0
M5 S0
M5 S0
M5 S0
M5 S0
M5 S0
M5 S0
M5 S0
M5 S0
M5 S0
M5 S0
M5 S0
M5 S0
M5 S0
M5 S0
M5 S0
M5 S0
M5 S0
M5 S0
M5 S0
M5 S0
M5 S0
M5 S0
M5 S0
M5 S0
M5 S0
M5 S0
M5 S0
M5 S0
M5 S0
M5 S0
M5 S0
M5 S0
M5 S0
M5 S0
M5 S0
M5 S0
M5 S0
M5 S0
M5 S0
M5 S0
M5 S0
M5 S0
M5 S0
M5 S0
M5 S0
M5 S0
M5 S0
M5 S0
M5 S0
M5 S0
M5 S0
M5 S0
M5 S0
M5 S0
M5 S0
M5 S0
M5 S0
M5 S0
M5 S0
M5 S0
M5 S0
M5 S0
M5 S0
M5 S0
M5 S0
M5 S0
M5 S0
M5 S0
M5 S0
M5 S0
M5 S0
M5 S0
M5 S0
M5 S0
M5 S0
M5 S0
M5 S0
M5 S0
M5 S0
M5 S0
M5 S0
M5 S0
M5 S0
M5 S0
M5 S0
M5 S0
M5 S0
M5 S0
M5 S0
M5 S0
M5 S0
M5 S0
M5 S0
M5 S0
M5 S0
M5 S0
M5 S0
M5 S0
M5 S0
M5 S0
M5 S0
M5 S0
M5 S0
M5 S0
M5 S0
M5 S0
M5 S0
M5 S0
M5 S0
M5 S0
M5 S0
G0 X0.0 Y170.0
M3 S255
G1 X399.0 Y170.0
M5 S0
G0 X399.0 Y170.5
M3 S255
G1 X0.0 Y170.5
M5 S0
G0 X0.0 Y171.0
M3 S255
G1 X399.0 Y171.0
M5 S0
G0 X399.0 Y171.5
M3 S255
G1 X0.0 Y171.5
M5 S0
G0 X0.0 Y172.0
M3 S255
G1 X399.0 Y172.0
M5 S0
G0 X399.0 Y172.5
M3 S255
G1 X0.0 Y172.5
M5 S0
G0 X0.0 Y173.0
M3 S255
G1 X399.0 Y173.0
M5 S0
G0 X399.0 Y173.5
M3 S255
G1 X0.0 Y173.5
M5 S0
G0 X0.0 Y174.0
M3 S255
G1 X399.0 Y174.0
M5 S0
G0 X399.0 Y174.5
M3 S255
G1 X0.0 Y174.5
M5 S0
G0 X0.0 Y175.0
M3 S255
G1 X399.0 Y175.0
M5 S0
G0 X399.0 Y175.5
M3 S255
G1 X0.0 Y175.5
M5 S0
G0 X0.0 Y176.0
M3 S255
G1 X399.0 Y176.0
M5 S0
G0 X399.0 Y176.5
M3 S255
G1 X0.0 Y176.5
M5 S0
G0 X0.0 Y177.0
M3 S255
G1 X399.0 Y177.0
M5 S0
G0 X399.0 Y177.5
M3 S255
G1 X0.0 Y177.5
M5 S0
G0 X0.0 Y178.0
M3 S255
G1 X399.0 Y178.0
M5 S0
G0 X399.0 Y178.5
M3 S255
G1 X0.0 Y178.5
M5 S0
G0 X0.0 Y179.0
M3 S255
G1 X399.0 Y179.0
M5 S0
G0 X399.0 Y179.5
M3 S255
G1 X0.0 Y179.5
M5 S0
G0 X0.0 Y180.0
M3 S255
G1 X399.0 Y180.0
M5 S0
G0 X399.0 Y180.5
M3 S255
G1 X0.0 Y180.5
M5 S0
G0 X0.0 Y181.0
M3 S255
G1 X399.0 Y181.0
M5 S0
G0 X399.0 Y181.5
M3 S255
G1 X0.0 Y181.5
M5 S0
G0 X0.0 Y182.0
M3 S255
G1 X399.0 Y182.0
M5 S0
G0 X399.0 Y182.5
M3 S255
G1 X0.0 Y182.5
M5 S0
G0 X0.0 Y183.0
M3 S255
G1 X399.0 Y183.0
M5 S0
G0 X399.0 Y183.5
M3 S255
G1 X0.0 Y183.5
M5 S0
G0 X0.0 Y184.0
M3 S255
G1 X399.0 Y184.0
M5 S0
G0 X399.0 Y184.5
M3 S255
G1 X0.0 Y184.5
M5 S0
G0 X0.0 Y185.0
M3 S255
G1 X399.0 Y185.0
M5 S0
G0 X399.0 Y185.5
M3 S255
G1 X0.0 Y185.5
M5 S0
G0 X0.0 Y186.0
M3 S255
G1 X399.0 Y186.0
M5 S0
M5 S0
M5 S0
M5 S0
M5 S0
M5 S0
M5 S0
M5 S0
M5 S0
M5 S0
M5 S0
M5 S0
M5 S0
M5 S0
M5 S0
M5 S0
M5 S0
M5 S0
M5 S0
M5 S0
M5 S0
M5 S0
M5 S0
M5 S0
M5 S0
M5 S0
M5 S0
M5 S0
M5 S0
M5 S0
M5 S0
M5 S0
M5 S0
M5 S0
M5 S0
M5 S0
M5 S0
M5 S0
M5 S0
M5 S0
M5 S0
M5 S0
M5 S0
M5 S0
M5 S0
M5 S0
M5 S0
M5 S0
M5 S0
M5 S0
M5 S0
M5 S0
M5 S0
M5 S0
M5 S0
M5 S0
M5 S0
M5 S0
M5 S0
M5 S0
M5 S0
M5 S0
M5 S0
M5 S0
M5 S0
M5 S0
M5 S0
M5 S0
M5 S0
M5 S0
M5 S0
M5 S0
M5 S0
M5 S0
M5 S0
M5 S0
M5 S0
M5 S0
M5 S0
M5 S0
M5 S0
M5 S0
M5 S0
M5 S0
M5 S0
M5 S0
M5 S0
M5 S0
M5 S0
M5 S0
M5 S0
M5 S0
M5 S0
M5 S0
M5 S0
M5 S0
M5 S0
M5 S0
M5 S0
M5 S0
M5 S0
M5 S0
M5 S0
M5 S0
M5 S0
M5 S0
M5 S0
M5 S0
M5 S0
M5 S0
M5 S0
M5 S0
M5 S0
M5 S0
M5 S0
M5 S0
M5 S0
M5 S0
M5 S0
M5 S0
M5 S0
M5 S0
M5 S0
M5 S0
M5 S0
M5 S0
M5 S0
M5 S0
M5 S0
M5 S0
M5 S0
M5 S0
M5 S0
M5 S0
M5 S0
M5 S0
M5 S0
M5 S0
M5 S0
M5 S0
M5 S0
M5 S0
M5 S0
M5 S0
M5 S0
M5 S0
M5 S0
M5 S0
M5 S0
M5 S0
M5 S0
M5 S0
M5 S0
M5 S0
M5 S0
M5 S0
M5 S0
M5 S0
M5 S0
M5 S0
M5 S0
M5 S0
M5 S0
M5 S0
M5 S0
M5 S0
M5 S0
M5 S0
M5 S0
M5 S0
M5 S0
M5 S0
M5 S0
M5 S0
M5 S0
M5 S0
M5 S0
M5 S0
M5 S0
M5 S0
M5 S0
M5 S0
M5 S0
M5 S0
M5 S0
M5 S0
M5 S0
M5 S0
M5 S0
M5 S0
M5 S0
M5 S0
M5 S0
M5 S0
M5 S0
M5 S0
M5 S0
M5 S0
M5 S0
M5 S0
M5 S0
M5 S0
M5 S0
M5 S0
M5 S0
M5 S0
M5 S0
M5 S0
M5 S0
M5 S0
M5 S0
M5 S0
M5 S0
M5 S0
M5 S0
M5 S0
M5 S0
M5 S0
M5 S0
M5 S0
M5 S0
M5 S0
M5 S0
M5 S0
M5 S0
M5 S0
M5 S0
M5 S0
M5 S0
M5 S0
M5 S0
M5 S0
M5 S0
M5 S0
M5 S0
M5 S0
M5 S0
M5 S0
M5 S0
M5 S0
M5 S0
M5 S0
M5 S0
M5 S0
M5 S0
M5 S0
M5 S0
M5 S0
M5 S0
M5 S0
M5 S0
M5 S0
M5 S0
M5 S0
M5 S0
M5 S0
M5 S0
M5 S0
M5 S0
M5 S0
M5 S0
M5 S0
M5 S0
M5 S0
M5 S0
M5 S0
M5 S0
M5 S0
M5 S0
M5 S0
M5 S0
M5 S0
M5 S0
M5 S0
M5 S0
M5 S0
M5 S0
M5 S0
M5 S0
M5 S0
M5 S0
M5 S0
M5 S0
M5 S0
M5 S0
M5 S0
M5 S0
M5 S0
M5 S0
M5 S0
M5 S0
M5 S0
M5 S0
M5 S0
M5 S0
M5 S0
M5 S0
M5 S0
M5 S0
M5 S0
M5 S0
M5 S0
M5 S0
M5 S0
M5 S0
M5 S0
M5 S0
M5 S0
M5 S0
M5 S0
M5 S0
M5 S0
M5 S0
M5 S0
M5 S0
M5 S0
M5 S0
M5 S0
M5 S0
M5 S0
M5 S0
M5 S0
M5 S0
M5 S0
M5 S0
M5 S0
M5 S0
M5 S0
M5 S0
M5 S0
M5 S0
M5 S0
M5 S0
M5 S0
M5 S0
M5 S0
M5 S0
M5 S0
M5 S0
M5 S0
M5 S0
M5 S0
M5 S0
M5 S0
M5 S0
M5 S0
M5 S0
M5 S0
M5 S0
M5 S0
M5 S0
M5 S0
M5 S0
M5 S0
M5 S0
M5 S0
M5 S0
M5 S0
M5 S0
M5 S0
M5 S0
M5 S0
M5 S0
M5 S0
M5 S0
M5 S0
G0 X0.0 Y369.0
M3 S255
G1 X399.0 Y369.0
M5 S0
G0 X399.0 Y369.5
M3 S255
G1 X0.0 Y369.5
M5 S0
G0 X0.0 Y370.0
M3 S255
G1 X399.0 Y370.0
M5 S0
G0 X399.0 Y370.5
M3 S255
G1 X0.0 Y370.5
M5 S0
G0 X0.0 Y371.0
M3 S255
G1 X399.0 Y371.0
M5 S0
G0 X399.0 Y371.5
M3 S255
G1 X0.0 Y371.5
M5 S0
G0 X0.0 Y372.0
M3 S255
G1 X399.0 Y372.0
M5 S0
G0 X399.0 Y372.5
M3 S255
G1 X0.0 Y372.5
M5 S0
G0 X0.0 Y373.0
M3 S255
G1 X399.0 Y373.0
M5 S0
G0 X399.0 Y373.5
M3 S255
G1 X0.0 Y373.5
M5 S0
G0 X0.0 Y374.0
M3 S255
G1 X399.0 Y374.0
M5 S0
G0 X399.0 Y374.5
M3 S255
G1 X0.0 Y374.5
M5 S0
G0 X0.0 Y375.0
M3 S255
G1 X399.0 Y375.0
M5 S0
G0 X399.0 Y375.5
M3 S255
G1 X0.0 Y375.5
M5 S0
G0 X0.0 Y376.0
M3 S255
G1 X399.0 Y376.0
M5 S0
G0 X399.0 Y376.5
M3 S255
G1 X0.0 Y376.5
M5 S0
G0 X0.0 Y377.0
M3 S255
G1 X399.0 Y377.0
M5 S0
G0 X399.0 Y377.5
M3 S255
G1 X0.0 Y377.5
M5 S0
G0 X0.0 Y378.0
M3 S255
G1 X399.0 Y378.0
M5 S0
G0 X399.0 Y378.5
M3 S255
G1 X0.0 Y378.5
M5 S0
G0 X0.0 Y379.0
M3 S255
G1 X399.0 Y379.0
M5 S0
G0 X399.0 Y379.5
M3 S255
G1 X0.0 Y379.5
M5 S0
G0 X0.0 Y380.0
M3 S255
G1 X399.0 Y380.0
M5 S0
G0 X399.0 Y380.5
M3 S255
G1 X0.0 Y380.5
M5 S0
G0 X0.0 Y381.0
M3 S255
G1 X399.0 Y381.0
M5 S0
G0 X399.0 Y381.5
M3 S255
G1 X0.0 Y381.5
M5 S0
G0 X0.0 Y382.0
M3 S255
G1 X399.0 Y382.0
M5 S0
G0 X399.0 Y382.5
M3 S255
G1 X0.0 Y382.5
M5 S0
G0 X0.0 Y383.0
M3 S255
G1 X399.0 Y383.0
M5 S0
G0 X399.0 Y383.5
M3 S255
G1 X3.5 Y383.5
M3 S0
M5 S0
G0 X3.5 Y384.0
M3 S255
G1 X3.5 Y384.0
M3 S255
G1 X399.0 Y384.0
M5 S0
G0 X399.0 Y384.5
M3 S255
G1 X3.5 Y384.5
M3 S0
M5 S0
G0 X3.5 Y385.0
M3 S255
G1 X3.5 Y385.0
M3 S255
G1 X399.0 Y385.0
M5 S0
H5 S0 
F100
G0 Z0 ( for some grbl senders compatibility )
 
G0 X0.0 Y0.0
M3 S255
G1 X399.0 Y0.0
M5 S0
G0 X399.0 Y0.5
M3 S255
G1 X0.0 Y0.5
M5 S0
G0 X0.0 Y1.0
M3 S255
G1 X399.0 Y1.0
M5 S0
G0 X399.0 Y1.5
M3 S255
G1 X0.0 Y1.5
M5 S0
G0 X0.0 Y2.0
M3 S255
G1 X399.0 Y2.0
M5 S0
G0 X399.0 Y2.5
M3 S255
G1 X0.0 Y2.5
M5 S0
G0 X0.0 Y3.0
M3 S255
G1 X399.0 Y3.0
M5 S0
G0 X399.0 Y3.5
M3 S255
G1 X0.0 Y3.5
M5 S0
G0 X0.0 Y4.0
M3 S255
G1 X399.0 Y4.0
M5 S0
G0 X399.0 Y4.5
M3 S255
G1 X0.0 Y4.5
M5 S0
G0 X0.0 Y5.0
M3 S255
G1 X399.0 Y5.0
M5 S0
G0 X399.0 Y5.5
M3 S255
G1 X0.0 Y5.5
M5 S0
G0 X0.0 Y6.0
M3 S255
G1 X399.0 Y6.0
M5 S0
G0 X399.0 Y6.5
M3 S255
G1 X0.0 Y6.5
M5 S0
G0 X0.0 Y7.0
M3 S255
G1 X399.0 Y7.0
M5 S0
G0 X399.0 Y7.5
M3 S255
G1 X0.0 Y7.5
M5 S0
G0 X0.0 Y8.0
M3 S255
G1 X399.0 Y8.0
M5 S0
G0 X399.0 Y8.5
M3 S255
G1 X0.0 Y8.5
M5 S0
G0 X0.0 Y9.0
M3 S255
G1 X399.0 Y9.0
M5 S0
G0 X399.0 Y9.5
M3 S255
G1 X0.0 Y9.5
M5 S0
G0 X0.0 Y10.0
M3 S255
G1 X399.0 Y10.0
M5 S0
G0 X399.0 Y10.5
M3 S255
G1 X0.0 Y10.5
M5 S0
G0 X0.0 Y11.0
M3 S255
G1 X399.0 Y11.0
M5 S0
G0 X399.0 Y11.5
M3 S255
G1 X0.0 Y11.5
M5 S0
G0 X0.0 Y12.0
M3 S255
G1 X399.0 Y12.0
M5 S0
M5 S0
M5 S0
M5 S0
M5 S0
M5 S0
M5 S0
M5 S0
M5 S0
M5 S0
M5 S0
M5 S0
M5 S0
M5 S0
M5 S0
M5 S0
M5 S0
M5 S0
M5 S0
M5 S0
M5 S0
M5 S0
M5 S0
M5 S0
M5 S0
M5 S0
M5 S0
M5 S0
M5 S0
M5 S0
M5 S0
M5 S0
M5 S0
M5 S0
M5 S0
M5 S0
M5 S0
M5 S0
M5 S0
M5 S0
M5 S0
M5 S0
M5 S0
M5 S0
M5 S0
M5 S0
M5 S0
M5 S0
M5 S0
M5 S0
M5 S0
M5 S0
M5 S0
M5 S0
M5 S0
M5 S0
M5 S0
M5 S0
M5 S0
M5 S0
M5 S0
M5 S0
M5 S0
M5 S0
M5 S0
M5 S0
M5 S0
M5 S0
M5 S0
M5 S0
M5 S0
M5 S0
M5 S0
M5 S0
M5 S0
M5 S0
M5 S0
M5 S0
M5 S0
M5 S0
M5 S0
M5 S0
M5 S0
M5 S0
M5 S0
M5 S0
M5 S0
M5 S0
M5 S0
M5 S0
M5 S0
M5 S0
M5 S0
M5 S0
M5 S0
M5 S0
M5 S0
M5 S0
M5 S0
M5 S0
M5 S0
M5 S0
M5 S0
M5 S0
M5 S0
M5 S0
M5 S0
M5 S0
M5 S0
M5 S0
M5 S0
M5 S0
M5 S0
M5 S0
M5 S0
M5 S0
M5 S0
M5 S0
M5 S0
M5 S0
M5 S0
M5 S0
M5 S0
M5 S0
M5 S0
M5 S0
M5 S0
M5 S0
M5 S0
M5 S0
M5 S0
M5 S0
M5 S0
M5 S0
M5 S0
M5 S0
M5 S0
M5 S0
M5 S0
M5 S0
M5 S0
M5 S0
M5 S0
M5 S0
M5 S0
M5 S0
M5 S0
M5 S0
M5 S0
M5 S0
M5 S0
M5 S0
M5 S0
M5 S0
M5 S0
M5 S0
M5 S0
M5 S0
M5 S0
M5 S0
M5 S0
M5 S0
M5 S0
M5 S0
M5 S0
M5 S0
M5 S0
M5 S0
M5 S0
M5 S0
M5 S0
M5 S0
M5 S0
M5 S0
M5 S0
M5 S0
M5 S0
M5 S0
M5 S0
M5 S0
M5 S0
M5 S0
M5 S0
M5 S0
M5 S0
M5 S0
M5 S0
M5 S0
M5 S0
M5 S0
M5 S0
M5 S0
M5 S0
M5 S0
M5 S0
M5 S0
M5 S0
M5 S0
M5 S0
M5 S0
M5 S0
M5 S0
M5 S0
M5 S0
M5 S0
M5 S0
M5 S0
M5 S0
M5 S0
M5 S0
M5 S0
M5 S0
M5 S0
M5 S0
M5 S0
M5 S0
M5 S0
M5 S0
M5 S0
M5 S0
M5 S0
M5 S0
M5 S0
M5 S0
M5 S0
M5 S0
M5 S0
M5 S0
M5 S0
M5 S0
M5 S0
M5 S0
M5 S0
M5 S0
M5 S0
M5 S0
M5 S0
M5 S0
M5 S0
M5 S0
M5 S0
M5 S0
M5 S0
M5 S0
M5 S0
M5 S0
M5 S0
M5 S0
M5 S0
M5 S0
M5 S0
M5 S0
M5 S0
M5 S0
M5 S0
M5 S0
M5 S0
M5 S0
M5 S0
M5 S0
M5 S0
M5 S0
M5 S0
M5 S0
M5 S0
M5 S0
M5 S0
M5 S0
M5 S0
M5 S0
M5 S0
M5 S0
M5 S0
M5 S0
M5 S0
M5 S0
M5 S0
M5 S0
M5 S0
M5 S0
M5 S0
M5 S0
M5 S0
M5 S0
M5 S0
M5 S0
M5 S0
M5 S0
M5 S0
M5 S0
M5 S0
M5 S0
M5 S0
M5 S0
M5 S0
M5 S0
M5 S0
M5 S0
M5 S0
M5 S0
M5 S0
M5 S0
M5 S0
M5 S0
M5 S0
M5 S0
M5 S0
M5 S0
M5 S0
M5 S0
M5 S0
M5 S0
M5 S0
M5 S0
M5 S0
M5 S0
G0 X0.0 Y170.0
M3 S255
G1 X399.0 Y170.0
M5 S0
G0 X399.0 Y170.5
M3 S255
G1 X0.0 Y170.5
M5 S0
G0 X0.0 Y171.0
M3 S255
G1 X399.0 Y171.0
M5 S0
G0 X399.0 Y171.5
M3 S255
G1 X0.0 Y171.5
M5 S0
G0 X0.0 Y172.0
M3 S255
G1 X399.0 Y172.0
M5 S0
G0 X399.0 Y172.5
M3 S255
G1 X0.0 Y172.5
M5 S0
G0 X0.0 Y173.0
M3 S255
G1 X399.0 Y173.0
M5 S0
G0 X399.0 Y173.5
M3 S255
G1 X0.0 Y173.5
M5 S0
G0 X0.0 Y174.0
M3 S255
G1 X399.0 Y174.0
M5 S0
G0 X399.0 Y174.5
M3 S255
G1 X0.0 Y174.5
M5 S0
G0 X0.0 Y175.0
M3 S255
G1 X399.0 Y175.0
M5 S0
G0 X399.0 Y175.5
M3 S255
G1 X0.0 Y175.5
M5 S0
G0 X0.0 Y176.0
M3 S255
G1 X399.0 Y176.0
M5 S0
G0 X399.0 Y176.5
M3 S255
G1 X0.0 Y176.5
M5 S0
G0 X0.0 Y177.0
M3 S255
G1 X399.0 Y177.0
M5 S0
G0 X399.0 Y177.5
M3 S255
G1 X0.0 Y177.5
M5 S0
G0 X0.0 Y178.0
M3 S255
G1 X399.0 Y178.0
M5 S0
G0 X399.0 Y178.5
M3 S255
G1 X0.0 Y178.5
M5 S0
G0 X0.0 Y179.0
M3 S255
G1 X399.0 Y179.0
M5 S0
G0 X399.0 Y179.5
M3 S255
G1 X0.0 Y179.5
M5 S0
G0 X0.0 Y180.0
M3 S255
G1 X399.0 Y180.0
M5 S0
G0 X399.0 Y180.5
M3 S255
G1 X0.0 Y180.5
M5 S0
G0 X0.0 Y181.0
M3 S255
G1 X399.0 Y181.0
M5 S0
G0 X399.0 Y181.5
M3 S255
G1 X0.0 Y181.5
M5 S0
G0 X0.0 Y182.0
M3 S255
G1 X399.0 Y182.0
M5 S0
G0 X399.0 Y182.5
M3 S255
G1 X0.0 Y182.5
M5 S0
G0 X0.0 Y183.0
M3 S255
G1 X399.0 Y183.0
M5 S0
G0 X399.0 Y183.5
M3 S255
G1 X0.0 Y183.5
M5 S0
G0 X0.0 Y184.0
M3 S255
G1 X399.0 Y184.0
M5 S0
G0 X399.0 Y184.5
M3 S255
G1 X0.0 Y184.5
M5 S0
G0 X0.0 Y185.0
M3 S255
G1 X399.0 Y185.0
M5 S0
G0 X399.0 Y185.5
M3 S255
G1 X0.0 Y185.5
M5 S0
G0 X0.0 Y186.0
M3 S255
G1 X399.0 Y186.0
M5 S0
M5 S0
M5 S0
M5 S0
M5 S0
M5 S0
M5 S0
M5 S0
M5 S0
M5 S0
M5 S0
M5 S0
M5 S0
M5 S0
M5 S0
M5 S0
M5 S0
M5 S0
M5 S0
M5 S0
M5 S0
M5 S0
M5 S0
M5 S0
M5 S0
M5 S0
M5 S0
M5 S0
M5 S0
M5 S0
M5 S0
M5 S0
M5 S0
M5 S0
M5 S0
M5 S0
M5 S0
M5 S0
M5 S0
M5 S0
M5 S0
M5 S0
M5 S0
M5 S0
M5 S0
M5 S0
M5 S0
M5 S0
M5 S0
M5 S0
M5 S0
M5 S0
M5 S0
M5 S0
M5 S0
M5 S0
M5 S0
M5 S0
M5 S0
M5 S0
M5 S0
M5 S0
M5 S0
M5 S0
M5 S0
M5 S0
M5 S0
M5 S0
M5 S0
M5 S0
M5 S0
M5 S0
M5 S0
M5 S0
M5 S0
M5 S0
M5 S0
M5 S0
M5 S0
M5 S0
M5 S0
M5 S0
M5 S0
M5 S0
M5 S0
M5 S0
M5 S0
M5 S0
M5 S0
M5 S0
M5 S0
M5 S0
M5 S0
M5 S0
M5 S0
M5 S0
M5 S0
M5 S0
M5 S0
M5 S0
M5 S0
M5 S0
M5 S0
M5 S0
M5 S0
M5 S0
M5 S0
M5 S0
M5 S0
M5 S0
M5 S0
M5 S0
M5 S0
M5 S0
M5 S0
M5 S0
M5 S0
M5 S0
M5 S0
M5 S0
M5 S0
M5 S0
M5 S0
M5 S0
M5 S0
M5 S0
M5 S0
M5 S0
M5 S0
M5 S0
M5 S0
M5 S0
M5 S0
M5 S0
M5 S0
M5 S0
M5 S0
M5 S0
M5 S0
M5 S0
M5 S0
M5 S0
M5 S0
M5 S0
M5 S0
M5 S0
M5 S0
M5 S0
M5 S0
M5 S0
M5 S0
M5 S0
M5 S0
M5 S0
M5 S0
M5 S0
M5 S0
M5 S0
M5 S0
M5 S0
M5 S0
M5 S0
M5 S0
M5 S0
M5 S0
M5 S0
M5 S0
M5 S0
M5 S0
M5 S0
M5 S0
M5 S0
M5 S0
M5 S0
M5 S0
M5 S0
M5 S0
M5 S0
M5 S0
M5 S0
M5 S0
M5 S0
M5 S0
M5 S0
M5 S0
M5 S0
M5 S0
M5 S0
M5 S0
M5 S0
M5 S0
M5 S0
M5 S0
M5 S0
M5 S0
M5 S0
M5 S0
M5 S0
M5 S0
M5 S0
M5 S0
M5 S0
M5 S0
M5 S0
M5 S0
M5 S0
M5 S0
M5 S0
M5 S0
M5 S0
M5 S0
M5 S0
M5 S0
M5 S0
M5 S0
M5 S0
M5 S0
M5 S0
M5 S0
M5 S0
M5 S0
M5 S0
M5 S0
M5 S0
M5 S0
M5 S0
M5 S0
M5 S0
M5 S0
M5 S0
M5 S0
M5 S0
M5 S0
M5 S0
M5 S0
M5 S0
M5 S0
M5 S0
M5 S0
M5 S0
M5 S0
M5 S0
M5 S0
M5 S0
M5 S0
M5 S0
M5 S0
M5 S0
M5 S0
M5 S0
M5 S0
M5 S0
M5 S0
M5 S0
M5 S0
M5 S0
M5 S0
M5 S0
M5 S0
M5 S0
M5 S0
M5 S0
M5 S0
M5 S0
M5 S0
M5 S0
M5 S0
M5 S0
M5 S0
M5 S0
M5 S0
M5 S0
M5 S0
M5 S0
M5 S0
M5 S0
M5 S0
M5 S0
M5 S0
M5 S0
M5 S0
M5 S0
M5 S0
M5 S0
M5 S0
M5 S0
M5 S0
M5 S0
M5 S0
M5 S0
M5 S0
M5 S0
M5 S0
M5 S0
M5 S0
M5 S0
M5 S0
M5 S0
M5 S0
M5 S0
M5 S0
M5 S0
M5 S0
M5 S0
M5 S0
M5 S0
M5 S0
M5 S0
M5 S0
M5 S0
M5 S0
M5 S0
M5 S0
M5 S0
M5 S0
M5 S0
M5 S0
M5 S0
M5 S0
M5 S0
M5 S0
M5 S0
M5 S0
M5 S0
M5 S0
M5 S0
M5 S0
M5 S0
M5 S0
M5 S0
M5 S0
M5 S0
M5 S0
M5 S0
M5 S0
M5 S0
M5 S0
M5 S0
M5 S0
M5 S0
M5 S0
M5 S0
M5 S0
M5 S0
M5 S0
M5 S0
M5 S0
M5 S0
M5 S0
M5 S0
M5 S0
M5 S0
M5 S0
M5 S0
M5 S0
M5 S0
M5 S0
M5 S0
M5 S0
M5 S0
M5 S0
M5 S0
M5 S0
M5 S0
M5 S0
M5 S0
G0 X0.0 Y369.0
M3 S255
G1 X399.0 Y369.0
M5 S0
G0 X399.0 Y369.5
M3 S255
G1 X0.0 Y369.5
M5 S0
G0 X0.0 Y370.0
M3 S255
G1 X399.0 Y370.0
M5 S0
G0 X399.0 Y370.5
M3 S255
G1 X0.0 Y370.5
M5 S0
G0 X0.0 Y371.0
M3 S255
G1 X399.0 Y371.0
M5 S0
G0 X399.0 Y371.5
M3 S255
G1 X0.0 Y371.5
M5 S0
G0 X0.0 Y372.0
M3 S255
G1 X399.0 Y372.0
M5 S0
G0 X399.0 Y372.5
M3 S255
G1 X0.0 Y372.5
M5 S0
G0 X0.0 Y373.0
M3 S255
G1 X399.0 Y373.0
M5 S0
G0 X399.0 Y373.5
M3 S255
G1 X0.0 Y373.5
M5 S0
G0 X0.0 Y374.0
M3 S255
G1 X399.0 Y374.0
M5 S0
G0 X399.0 Y374.5
M3 S255
G1 X0.0 Y374.5
M5 S0
G0 X0.0 Y375.0
M3 S255
G1 X399.0 Y375.0
M5 S0
G0 X399.0 Y375.5
M3 S255
G1 X0.0 Y375.5
M5 S0
G0 X0.0 Y376.0
M3 S255
G1 X399.0 Y376.0
M5 S0
G0 X399.0 Y376.5
M3 S255
G1 X0.0 Y376.5
M5 S0
G0 X0.0 Y377.0
M3 S255
G1 X399.0 Y377.0
M5 S0
G0 X399.0 Y377.5
M3 S255
G1 X0.0 Y377.5
M5 S0
G0 X0.0 Y378.0
M3 S255
G1 X399.0 Y378.0
M5 S0
G0 X399.0 Y378.5
M3 S255
G1 X0.0 Y378.5
M5 S0
G0 X0.0 Y379.0
M3 S255
G1 X399.0 Y379.0
M5 S0
G0 X399.0 Y379.5
M3 S255
G1 X0.0 Y379.5
M5 S0
G0 X0.0 Y380.0
M3 S255
G1 X399.0 Y380.0
M5 S0
G0 X399.0 Y380.5
M3 S255
G1 X0.0 Y380.5
M5 S0
G0 X0.0 Y381.0
M3 S255
G1 X399.0 Y381.0
M5 S0
G0 X399.0 Y381.5
M3 S255
G1 X0.0 Y381.5
M5 S0
G0 X0.0 Y382.0
M3 S255
G1 X399.0 Y382.0
M5 S0
G0 X399.0 Y382.5
M3 S255
G1 X0.0 Y382.5
M5 S0
G0 X0.0 Y383.0
M3 S255
G1 X399.0 Y383.0
M5 S0
G0 X399.0 Y383.5
M3 S255
G1 X3.5 Y383.5
M3 S0
M5 S0
G0 X3.5 Y384.0
M3 S255
G1 X3.5 Y384.0
M3 S255
G1 X399.0 Y384.0
M5 S0
G0 X399.0 Y384.5
M3 S255
G1 X3.5 Y384.5
M3 S0
M5 S0
G0 X3.5 Y385.0
M3 S255
G1 X3.5 Y385.0
M3 S255
G1 X399.0 Y385.0
M5 S0
H5 S0 
F100
G0 Z0 ( for some grbl senders compatibility )
 
G0 X0.0 Y0.0
M3 S255
G1 X399.0 Y0.0
M5 S0
G0 X399.0 Y0.5
M3 S255
G1 X0.0 Y0.5
M5 S0
G0 X0.0 Y1.0
M3 S255
G1 X399.0 Y1.0
M5 S0
G0 X399.0 Y1.5
M3 S255
G1 X0.0 Y1.5
M5 S0
G0 X0.0 Y2.0
M3 S255
G1 X399.0 Y2.0
M5 S0
G0 X399.0 Y2.5
M3 S255
G1 X0.0 Y2.5
M5 S0
G0 X0.0 Y3.0
M3 S255
G1 X399.0 Y3.0
M5 S0
G0 X399.0 Y3.5
M3 S255
G1 X0.0 Y3.5
M5 S0
G0 X0.0 Y4.0
M3 S255
G1 X399.0 Y4.0
M5 S0
G0 X399.0 Y4.5
M3 S255
G1 X0.0 Y4.5
M5 S0
G0 X0.0 Y5.0
M3 S255
G1 X399.0 Y5.0
M5 S0
G0 X399.0 Y5.5
M3 S255
G1 X0.0 Y5.5
M5 S0
G0 X0.0 Y6.0
M3 S255
G1 X399.0 Y6.0
M5 S0
G0 X399.0 Y6.5
M3 S255
G1 X0.0 Y6.5
M5 S0
G0 X0.0 Y7.0
M3 S255
G1 X399.0 Y7.0
M5 S0
G0 X399.0 Y7.5
M3 S255
G1 X0.0 Y7.5
M5 S0
G0 X0.0 Y8.0
M3 S255
G1 X399.0 Y8.0
M5 S0
G0 X399.0 Y8.5
M3 S255
G1 X0.0 Y8.5
M5 S0
G0 X0.0 Y9.0
M3 S255
G1 X399.0 Y9.0
M5 S0
G0 X399.0 Y9.5
M3 S255
G1 X0.0 Y9.5
M5 S0
G0 X0.0 Y10.0
M3 S255
G1 X399.0 Y10.0
M5 S0
G0 X399.0 Y10.5
M3 S255
G1 X0.0 Y10.5
M5 S0
G0 X0.0 Y11.0
M3 S255
G1 X399.0 Y11.0
M5 S0
G0 X399.0 Y11.5
M3 S255
G1 X0.0 Y11.5
M5 S0
G0 X0.0 Y12.0
M3 S255
G1 X399.0 Y12.0
M5 S0
M5 S0
M5 S0
M5 S0
M5 S0
M5 S0
M5 S0
M5 S0
M5 S0
M5 S0
M5 S0
M5 S0
M5 S0
M5 S0
M5 S0
M5 S0
M5 S0
M5 S0
M5 S0
M5 S0
M5 S0
M5 S0
M5 S0
M5 S0
M5 S0
M5 S0
M5 S0
M5 S0
M5 S0
M5 S0
M5 S0
M5 S0
M5 S0
M5 S0
M5 S0
M5 S0
M5 S0
M5 S0
M5 S0
M5 S0
M5 S0
M5 S0
M5 S0
M5 S0
M5 S0
M5 S0
M5 S0
M5 S0
M5 S0
M5 S0
M5 S0
M5 S0
M5 S0
M5 S0
M5 S0
M5 S0
M5 S0
M5 S0
M5 S0
M5 S0
M5 S0
M5 S0
M5 S0
M5 S0
M5 S0
M5 S0
M5 S0
M5 S0
M5 S0
M5 S0
M5 S0
M5 S0
M5 S0
M5 S0
M5 S0
M5 S0
M5 S0
M5 S0
M5 S0
M5 S0
M5 S0
M5 S0
M5 S0
M5 S0
M5 S0
M5 S0
M5 S0
M5 S0
M5 S0
M5 S0
M5 S0
M5 S0
M5 S0
M5 S0
M5 S0
M5 S0
M5 S0
M5 S0
M5 S0
M5 S0
M5 S0
M5 S0
M5 S0
M5 S0
M5 S0
M5 S0
M5 S0
M5 S0
M5 S0
M5 S0
M5 S0
M5 S0
M5 S0
M5 S0
M5 S0
M5 S0
M5 S0
M5 S0
M5 S0
M5 S0
M5 S0
M5 S0
M5 S0
M5 S0
M5 S0
M5 S0
M5 S0
M5 S0
M5 S0
M5 S0
M5 S0
M5 S0
M5 S0
M5 S0
M5 S0
M5 S0
M5 S0
M5 S0
M5 S0
M5 S0
M5 S0
M5 S0
M5 S0
M5 S0
M5 S0
M5 S0
M5 S0
M5 S0
M5 S0
M5 S0
M5 S0
M5 S0
M5 S0
M5 S0
M5 S0
M5 S0
M5 S0
M5 S0
M5 S0
M5 S0
M5 S0
M5 S0
M5 S0
M5 S0
M5 S0
M5 S0
M5 S0
M5 S0
M5 S0
M5 S0
M5 S0
M5 S0
M5 S0
M5 S0
M5 S0
M5 S0
M5 S0
M5 S0
M5 S0
M5 S0
M5 S0
M5 S0
M5 S0
M5 S0
M5 S0
M5 S0
M5 S0
M5 S0
M5 S0
M5 S0
M5 S0
M5 S0
M5 S0
M5 S0
M5 S0
M5 S0
M5 S0
M5 S0
M5 S0
M5 S0
M5 S0
M5 S0
M5 S0
M5 S0
M5 S0
M5 S0
M5 S0
M5 S0
M5 S0
M5 S0
M5 S0
M5 S0
M5 S0
M5 S0
M5 S0
M5 S0
M5 S0
M5 S0
M5 S0
M5 S0
M5 S0
M5 S0
M5 S0
M5 S0
M5 S0
M5 S0
M5 S0
M5 S0
M5 S0
M5 S0
M5 S0
M5 S0
M5 S0
M5 S0
M5 S0
M5 S0
M5 S0
M5 S0
M5 S0
M5 S0
M5 S0
M5 S0
M5 S0
M5 S0
M5 S0
M5 S0
M5 S0
M5 S0
M5 S0
M5 S0
M5 S0
M5 S0
M5 S0
M5 S0
M5 S0
M5 S0
M5 S0
M5 S0
M5 S0
M5 S0
M5 S0
M5 S0
M5 S0
M5 S0
M5 S0
M5 S0
M5 S0
M5 S0
M5 S0
M5 S0
M5 S0
M5 S0
M5 S0
M5 S0
M5 S0
M5 S0
M5 S0
M5 S0
M5 S0
M5 S0
M5 S0
M5 S0
M5 S0
M5 S0
M5 S0
M5 S0
M5 S0
M5 S0
M5 S0
M5 S0
M5 S0
M5 S0
M5 S0
M5 S0
M5 S0
M5 S0
M5 S0
M5 S0
M5 S0
M5 S0
M5 S0
M5 S0
M5 S0
M5 S0
M5 S0
M5 S0
M5 S0
M5 S0
M5 S0
M5 S0
M5 S0
M5 S0
M5 S0
M5 S0
M5 S0
M5 S0
G0 X0.0 Y170.0
M3 S255
G1 X399.0 Y170.0
M5 S0
G0 X399.0 Y170.5
M3 S255
G1 X0.0 Y170.5
M5 S0
G0 X0.0 Y171.0
M3 S255
G1 X399.0 Y171.0
M5 S0
G0 X399.0 Y171.5
M3 S255
G1 X0.0 Y171.5
M5 S0
G0 X0.0 Y172.0
M3 S255
G1 X399.0 Y172.0
M5 S0
G0 X399.0 Y172.5
M3 S255
G1 X0.0 Y172.5
M5 S0
G0 X0.0 Y173.0
M3 S255
G1 X399.0 Y173.0
M5 S0
G0 X399.0 Y173.5
M3 S255
G1 X0.0 Y173.5
M5 S0
G0 X0.0 Y174.0
M3 S255
G1 X399.0 Y174.0
M5 S0
G0 X399.0 Y174.5
M3 S255
G1 X0.0 Y174.5
M5 S0
G0 X0.0 Y175.0
M3 S255
G1 X399.0 Y175.0
M5 S0
G0 X399.0 Y175.5
M3 S255
G1 X0.0 Y175.5
M5 S0
G0 X0.0 Y176.0
M3 S255
G1 X399.0 Y176.0
M5 S0
G0 X399.0 Y176.5
M3 S255
G1 X0.0 Y176.5
M5 S0
G0 X0.0 Y177.0
M3 S255
G1 X399.0 Y177.0
M5 S0
G0 X399.0 Y177.5
M3 S255
G1 X0.0 Y177.5
M5 S0
G0 X0.0 Y178.0
M3 S255
G1 X399.0 Y178.0
M5 S0
G0 X399.0 Y178.5
M3 S255
G1 X0.0 Y178.5
M5 S0
G0 X0.0 Y179.0
M3 S255
G1 X399.0 Y179.0
M5 S0
G0 X399.0 Y179.5
M3 S255
G1 X0.0 Y179.5
M5 S0
G0 X0.0 Y180.0
M3 S255
G1 X399.0 Y180.0
M5 S0
G0 X399.0 Y180.5
M3 S255
G1 X0.0 Y180.5
M5 S0
G0 X0.0 Y181.0
M3 S255
G1 X399.0 Y181.0
M5 S0
G0 X399.0 Y181.5
M3 S255
G1 X0.0 Y181.5
M5 S0
G0 X0.0 Y182.0
M3 S255
G1 X399.0 Y182.0
M5 S0
G0 X399.0 Y182.5
M3 S255
G1 X0.0 Y182.5
M5 S0
G0 X0.0 Y183.0
M3 S255
G1 X399.0 Y183.0
M5 S0
G0 X399.0 Y183.5
M3 S255
G1 X0.0 Y183.5
M5 S0
G0 X0.0 Y184.0
M3 S255
G1 X399.0 Y184.0
M5 S0
G0 X399.0 Y184.5
M3 S255
G1 X0.0 Y184.5
M5 S0
G0 X0.0 Y185.0
M3 S255
G1 X399.0 Y185.0
M5 S0
G0 X399.0 Y185.5
M3 S255
G1 X0.0 Y185.5
M5 S0
G0 X0.0 Y186.0
M3 S255
G1 X399.0 Y186.0
M5 S0
M5 S0
M5 S0
M5 S0
M5 S0
M5 S0
M5 S0
M5 S0
M5 S0
M5 S0
M5 S0
M5 S0
M5 S0
M5 S0
M5 S0
M5 S0
M5 S0
M5 S0
M5 S0
M5 S0
M5 S0
M5 S0
M5 S0
M5 S0
M5 S0
M5 S0
M5 S0
M5 S0
M5 S0
M5 S0
M5 S0
M5 S0
M5 S0
M5 S0
M5 S0
M5 S0
M5 S0
M5 S0
M5 S0
M5 S0
M5 S0
M5 S0
M5 S0
M5 S0
M5 S0
M5 S0
M5 S0
M5 S0
M5 S0
M5 S0
M5 S0
M5 S0
M5 S0
M5 S0
M5 S0
M5 S0
M5 S0
M5 S0
M5 S0
M5 S0
M5 S0
M5 S0
M5 S0
M5 S0
M5 S0
M5 S0
M5 S0
M5 S0
M5 S0
M5 S0
M5 S0
M5 S0
M5 S0
M5 S0
M5 S0
M5 S0
M5 S0
M5 S0
M5 S0
M5 S0
M5 S0
M5 S0
M5 S0
M5 S0
M5 S0
M5 S0
M5 S0
M5 S0
M5 S0
M5 S0
M5 S0
M5 S0
M5 S0
M5 S0
M5 S0
M5 S0
M5 S0
M5 S0
M5 S0
M5 S0
M5 S0
M5 S0
M5 S0
M5 S0
M5 S0
M5 S0
M5 S0
M5 S0
M5 S0
M5 S0
M5 S0
M5 S0
M5 S0
M5 S0
M5 S0
M5 S0
M5 S0
M5 S0
M5 S0
M5 S0
M5 S0
M5 S0
M5 S0
M5 S0
M5 S0
M5 S0
M5 S0
M5 S0
M5 S0
M5 S0
M5 S0
M5 S0
M5 S0
M5 S0
M5 S0
M5 S0
M5 S0
M5 S0
M5 S0
M5 S0
M5 S0
M5 S0
M5 S0
M5 S0
M5 S0
M5 S0
M5 S0
M5 S0
M5 S0
M5 S0
M5 S0
M5 S0
M5 S0
M5 S0
M5 S0
M5 S0
M5 S0
M5 S0
M5 S0
M5 S0
M5 S0
M5 S0
M5 S0
M5 S0
M5 S0
M5 S0
M5 S0
M5 S0
M5 S0
M5 S0
M5 S0
M5 S0
M5 S0
M5 S0
M5 S0
M5 S0
M5 S0
M5 S0
M5 S0
M5 S0
M5 S0
M5 S0
M5 S0
M5 S0
M5 S0
M5 S0
M5 S0
M5 S0
M5 S0
M5 S0
M5 S0
M5 S0
M5 S0
M5 S0
M5 S0
M5 S0
M5 S0
M5 S0
M5 S0
M5 S0
M5 S0
M5 S0
M5 S0
M5 S0
M5 S0
M5 S0
M5 S0
M5 S0
M5 S0
M5 S0
M5 S0
M5 S0
M5 S0
M5 S0
M5 S0
M5 S0
M5 S0
M5 S0
M5 S0
M5 S0
M5 S0
M5 S0
M5 S0
M5 S0
M5 S0
M5 S0
M5 S0
M5 S0
M5 S0
M5 S0
M5 S0
M5 S0
M5 S0
M5 S0
M5 S0
M5 S0
M5 S0
M5 S0
M5 S0
M5 S0
M5 S0
M5 S0
M5 S0
M5 S0
M5 S0
M5 S0
M5 S0
M5 S0
M5 S0
M5 S0
M5 S0
M5 S0
M5 S0
M5 S0
M5 S0
M5 S0
M5 S0
M5 S0
M5 S0
M5 S0
M5 S0
M5 S0
M5 S0
M5 S0
M5 S0
M5 S0
M5 S0
M5 S0
M5 S0
M5 S0
M5 S0
M5 S0
M5 S0
M5 S0
M5 S0
M5 S0
M5 S0
M5 S0
M5 S0
M5 S0
M5 S0
M5 S0
M5 S0
M5 S0
M5 S0
M5 S0
M5 S0
M5 S0
M5 S0
M5 S0
M5 S0
M5 S0
M5 S0
M5 S0
M5 S0
M5 S0
M5 S0
M5 S0
M5 S0
M5 S0
M5 S0
M5 S0
M5 S0
M5 S0
M5 S0
M5 S0
M5 S0
M5 S0
M5 S0
M5 S0
M5 S0
M5 S0
M5 S0
M5 S0
M5 S0
M5 S0
M5 S0
M5 S0
M5 S0
M5 S0
M5 S0
M5 S0
M5 S0
M5 S0
M5 S0
M5 S0
M5 S0
M5 S0
M5 S0
M5 S0
M5 S0
M5 S0
M5 S0
M5 S0
M5 S0
M5 S0
M5 S0
M5 S0
M5 S0
M5 S0
M5 S0
M5 S0
M5 S0
M5 S0
M5 S0
M5 S0
M5 S0
M5 S0
M5 S0
M5 S0
M5 S0
M5 S0
M5 S0
M5 S0
M5 S0
M5 S0
M5 S0
M5 S0
M5 S0
M5 S0
M5 S0
M5 S0
M5 S0
M5 S0
M5 S0
M5 S0
G0 X0.0 Y369.0
M3 S255
G1 X399.0 Y369.0
M5 S0
G0 X399.0 Y369.5
M3 S255
G1 X0.0 Y369.5
M5 S0
G0 X0.0 Y370.0
M3 S255
G1 X399.0 Y370.0
M5 S0
G0 X399.0 Y370.5
M3 S255
G1 X0.0 Y370.5
M5 S0
G0 X0.0 Y371.0
M3 S255
G1 X399.0 Y371.0
M5 S0
G0 X399.0 Y371.5
M3 S255
G1 X0.0 Y371.5
M5 S0
G0 X0.0 Y372.0
M3 S255
G1 X399.0 Y372.0
M5 S0
G0 X399.0 Y372.5
M3 S255
G1 X0.0 Y372.5
M5 S0
G0 X0.0 Y373.0
M3 S255
G1 X399.0 Y373.0
M5 S0
G0 X399.0 Y373.5
M3 S255
G1 X0.0 Y373.5
M5 S0
G0 X0.0 Y374.0
M3 S255
G1 X399.0 Y374.0
M5 S0
G0 X399.0 Y374.5
M3 S255
G1 X0.0 Y374.5
M5 S0
G0 X0.0 Y375.0
M3 S255
G1 X399.0 Y375.0
M5 S0
G0 X399.0 Y375.5
M3 S255
G1 X0.0 Y375.5
M5 S0
G0 X0.0 Y376.0
M3 S255
G1 X399.0 Y376.0
M5 S0
G0 X399.0 Y376.5
M3 S255
G1 X0.0 Y376.5
M5 S0
G0 X0.0 Y377.0
M3 S255
G1 X399.0 Y377.0
M5 S0
G0 X399.0 Y377.5
M3 S255
G1 X0.0 Y377.5
M5 S0
G0 X0.0 Y378.0
M3 S255
G1 X399.0 Y378.0
M5 S0
G0 X399.0 Y378.5
M3 S255
G1 X0.0 Y378.5
M5 S0
G0 X0.0 Y379.0
M3 S255
G1 X399.0 Y379.0
M5 S0
G0 X399.0 Y379.5
M3 S255
G1 X0.0 Y379.5
M5 S0
G0 X0.0 Y380.0
M3 S255
G1 X399.0 Y380.0
M5 S0
G0 X399.0 Y380.5
M3 S255
G1 X0.0 Y380.5
M5 S0
G0 X0.0 Y381.0
M3 S255
G1 X399.0 Y381.0
M5 S0
G0 X399.0 Y381.5
M3 S255
G1 X0.0 Y381.5
M5 S0
G0 X0.0 Y382.0
M3 S255
G1 X399.0 Y382.0
M5 S0
G0 X399.0 Y382.5
M3 S255
G1 X0.0 Y382.5
M5 S0
G0 X0.0 Y383.0
M3 S255
G1 X399.0 Y383.0
M5 S0
G0 X399.0 Y383.5
M3 S255
G1 X3.5 Y383.5
M3 S0
M5 S0
G0 X3.5 Y384.0
M3 S255
G1 X3.5 Y384.0
M3 S255
G1 X399.0 Y384.0
M5 S0
G0 X399.0 Y384.5
M3 S255
G1 X3.5 Y384.5
M3 S0
M5 S0
G0 X3.5 Y385.0
M3 S255
G1 X3.5 Y385.0
M3 S255
G1 X399.0 Y385.0
M5 S0
H5 S0 
F100
G0 Z0 ( for some grbl senders compatibility )
 
G0 X0.0 Y0.0
M3 S255
G1 X399.0 Y0.0
M5 S0
G0 X399.0 Y0.5
M3 S255
G1 X0.0 Y0.5
M5 S0
G0 X0.0 Y1.0
M3 S255
G1 X399.0 Y1.0
M5 S0
G0 X399.0 Y1.5
M3 S255
G1 X0.0 Y1.5
M5 S0
G0 X0.0 Y2.0
M3 S255
G1 X399.0 Y2.0
M5 S0
G0 X399.0 Y2.5
M3 S255
G1 X0.0 Y2.5
M5 S0
G0 X0.0 Y3.0
M3 S255
G1 X399.0 Y3.0
M5 S0
G0 X399.0 Y3.5
M3 S255
G1 X0.0 Y3.5
M5 S0
G0 X0.0 Y4.0
M3 S255
G1 X399.0 Y4.0
M5 S0
G0 X399.0 Y4.5
M3 S255
G1 X0.0 Y4.5
M5 S0
G0 X0.0 Y5.0
M3 S255
G1 X399.0 Y5.0
M5 S0
G0 X399.0 Y5.5
M3 S255
G1 X0.0 Y5.5
M5 S0
G0 X0.0 Y6.0
M3 S255
G1 X399.0 Y6.0
M5 S0
G0 X399.0 Y6.5
M3 S255
G1 X0.0 Y6.5
M5 S0
G0 X0.0 Y7.0
M3 S255
G1 X399.0 Y7.0
M5 S0
G0 X399.0 Y7.5
M3 S255
G1 X0.0 Y7.5
M5 S0
G0 X0.0 Y8.0
M3 S255
G1 X399.0 Y8.0
M5 S0
G0 X399.0 Y8.5
M3 S255
G1 X0.0 Y8.5
M5 S0
G0 X0.0 Y9.0
M3 S255
G1 X399.0 Y9.0
M5 S0
G0 X399.0 Y9.5
M3 S255
G1 X0.0 Y9.5
M5 S0
G0 X0.0 Y10.0
M3 S255
G1 X399.0 Y10.0
M5 S0
G0 X399.0 Y10.5
M3 S255
G1 X0.0 Y10.5
M5 S0
G0 X0.0 Y11.0
M3 S255
G1 X399.0 Y11.0
M5 S0
G0 X399.0 Y11.5
M3 S255
G1 X0.0 Y11.5
M5 S0
G0 X0.0 Y12.0
M3 S255
G1 X399.0 Y12.0
M5 S0
M5 S0
M5 S0
M5 S0
M5 S0
M5 S0
M5 S0
M5 S0
M5 S0
M5 S0
M5 S0
M5 S0
M5 S0
M5 S0
M5 S0
M5 S0
M5 S0
M5 S0
M5 S0
M5 S0
M5 S0
M5 S0
M5 S0
M5 S0
M5 S0
M5 S0
M5 S0
M5 S0
M5 S0
M5 S0
M5 S0
M5 S0
M5 S0
M5 S0
M5 S0
M5 S0
M5 S0
M5 S0
M5 S0
M5 S0
M5 S0
M5 S0
M5 S0
M5 S0
M5 S0
M5 S0
M5 S0
M5 S0
M5 S0
M5 S0
M5 S0
M5 S0
M5 S0
M5 S0
M5 S0
M5 S0
M5 S0
M5 S0
M5 S0
M5 S0
M5 S0
M5 S0
M5 S0
M5 S0
M5 S0
M5 S0
M5 S0
M5 S0
M5 S0
M5 S0
M5 S0
M5 S0
M5 S0
M5 S0
M5 S0
M5 S0
M5 S0
M5 S0
M5 S0
M5 S0
M5 S0
M5 S0
M5 S0
M5 S0
M5 S0
M5 S0
M5 S0
M5 S0
M5 S0
M5 S0
M5 S0
M5 S0
M5 S0
M5 S0
M5 S0
M5 S0
M5 S0
M5 S0
M5 S0
M5 S0
M5 S0
M5 S0
M5 S0
M5 S0
M5 S0
M5 S0
M5 S0
M5 S0
M5 S0
M5 S0
M5 S0
M5 S0
M5 S0
M5 S0
M5 S0
M5 S0
M5 S0
M5 S0
M5 S0
M5 S0
M5 S0
M5 S0
M5 S0
M5 S0
M5 S0
M5 S0
M5 S0
M5 S0
M5 S0
M5 S0
M5 S0
M5 S0
M5 S0
M5 S0
M5 S0
M5 S0
M5 S0
M5 S0
M5 S0
M5 S0
M5 S0
M5 S0
M5 S0
M5 S0
M5 S0
M5 S0
M5 S0
M5 S0
M5 S0
M5 S0
M5 S0
M5 S0
M5 S0
M5 S0
M5 S0
M5 S0
M5 S0
M5 S0
M5 S0
M5 S0
M5 S0
M5 S0
M5 S0
M5 S0
M5 S0
M5 S0
M5 S0
M5 S0
M5 S0
M5 S0
M5 S0
M5 S0
M5 S0
M5 S0
M5 S0
M5 S0
M5 S0
M5 S0
M5 S0
M5 S0
M5 S0
M5 S0
M5 S0
M5 S0
M5 S0
M5 S0
M5 S0
M5 S0
M5 S0
M5 S0
M5 S0
M5 S0
M5 S0
M5 S0
M5 S0
M5 S0
M5 S0
M5 S0
M5 S0
M5 S0
M5 S0
M5 S0
M5 S0
M5 S0
M5 S0
M5 S0
M5 S0
M5 S0
M5 S0
M5 S0
M5 S0
M5 S0
M5 S0
M5 S0
M5 S0
M5 S0
M5 S0
M5 S0
M5 S0
M5 S0
M5 S0
M5 S0
M5 S0
M5 S0
M5 S0
M5 S0
M5 S0
M5 S0
M5 S0
M5 S0
M5 S0
M5 S0
M5 S0
M5 S0
M5 S0
M5 S0
M5 S0
M5 S0
M5 S0
M5 S0
M5 S0
M5 S0
M5 S0
M5 S0
M5 S0
M5 S0
M5 S0
M5 S0
M5 S0
M5 S0
M5 S0
M5 S0
M5 S0
M5 S0
M5 S0
M5 S0
M5 S0
M5 S0
M5 S0
M5 S0
M5 S0
M5 S0
M5 S0
M5 S0
M5 S0
M5 S0
M5 S0
M5 S0
M5 S0
M5 S0
M5 S0
M5 S0
M5 S0
M5 S0
M5 S0
M5 S0
M5 S0
M5 S0
M5 S0
M5 S0
M5 S0
M5 S0
M5 S0
M5 S0
M5 S0
M5 S0
M5 S0
M5 S0
M5 S0
M5 S0
M5 S0
M5 S0
M5 S0
M5 S0
M5 S0
M5 S0
M5 S0
M5 S0
M5 S0
M5 S0
M5 S0
M5 S0
M5 S0
M5 S0
M5 S0
M5 S0
M5 S0
M5 S0
M5 S0
M5 S0
M5 S0
M5 S0
M5 S0
M5 S0
M5 S0
M5 S0
G0 X0.0 Y170.0
M3 S255
G1 X399.0 Y170.0
M5 S0
G0 X399.0 Y170.5
M3 S255
G1 X0.0 Y170.5
M5 S0
G0 X0.0 Y171.0
M3 S255
G1 X399.0 Y171.0
M5 S0
G0 X399.0 Y171.5
M3 S255
G1 X0.0 Y171.5
M5 S0
G0 X0.0 Y172.0
M3 S255
G1 X399.0 Y172.0
M5 S0
G0 X399.0 Y172.5
M3 S255
G1 X0.0 Y172.5
M5 S0
G0 X0.0 Y173.0
M3 S255
G1 X399.0 Y173.0
M5 S0
G0 X399.0 Y173.5
M3 S255
G1 X0.0 Y173.5
M5 S0
G0 X0.0 Y174.0
M3 S255
G1 X399.0 Y174.0
M5 S0
G0 X399.0 Y174.5
M3 S255
G1 X0.0 Y174.5
M5 S0
G0 X0.0 Y175.0
M3 S255
G1 X399.0 Y175.0
M5 S0
G0 X399.0 Y175.5
M3 S255
G1 X0.0 Y175.5
M5 S0
G0 X0.0 Y176.0
M3 S255
G1 X399.0 Y176.0
M5 S0
G0 X399.0 Y176.5
M3 S255
G1 X0.0 Y176.5
M5 S0
G0 X0.0 Y177.0
M3 S255
G1 X399.0 Y177.0
M5 S0
G0 X399.0 Y177.5
M3 S255
G1 X0.0 Y177.5
M5 S0
G0 X0.0 Y178.0
M3 S255
G1 X399.0 Y178.0
M5 S0
G0 X399.0 Y178.5
M3 S255
G1 X0.0 Y178.5
M5 S0
G0 X0.0 Y179.0
M3 S255
G1 X399.0 Y179.0
M5 S0
G0 X399.0 Y179.5
M3 S255
G1 X0.0 Y179.5
M5 S0
G0 X0.0 Y180.0
M3 S255
G1 X399.0 Y180.0
M5 S0
G0 X399.0 Y180.5
M3 S255
G1 X0.0 Y180.5
M5 S0
G0 X0.0 Y181.0
M3 S255
G1 X399.0 Y181.0
M5 S0
G0 X399.0 Y181.5
M3 S255
G1 X0.0 Y181.5
M5 S0
G0 X0.0 Y182.0
M3 S255
G1 X399.0 Y182.0
M5 S0
G0 X399.0 Y182.5
M3 S255
G1 X0.0 Y182.5
M5 S0
G0 X0.0 Y183.0
M3 S255
G1 X399.0 Y183.0
M5 S0
G0 X399.0 Y183.5
M3 S255
G1 X0.0 Y183.5
M5 S0
G0 X0.0 Y184.0
M3 S255
G1 X399.0 Y184.0
M5 S0
G0 X399.0 Y184.5
M3 S255
G1 X0.0 Y184.5
M5 S0
G0 X0.0 Y185.0
M3 S255
G1 X399.0 Y185.0
M5 S0
G0 X399.0 Y185.5
M3 S255
G1 X0.0 Y185.5
M5 S0
G0 X0.0 Y186.0
M3 S255
G1 X399.0 Y186.0
M5 S0
M5 S0
M5 S0
M5 S0
M5 S0
M5 S0
M5 S0
M5 S0
M5 S0
M5 S0
M5 S0
M5 S0
M5 S0
M5 S0
M5 S0
M5 S0
M5 S0
M5 S0
M5 S0
M5 S0
M5 S0
M5 S0
M5 S0
M5 S0
M5 S0
M5 S0
M5 S0
M5 S0
M5 S0
M5 S0
M5 S0
M5 S0
M5 S0
M5 S0
M5 S0
M5 S0
M5 S0
M5 S0
M5 S0
M5 S0
M5 S0
M5 S0
M5 S0
M5 S0
M5 S0
M5 S0
M5 S0
M5 S0
M5 S0
M5 S0
M5 S0
M5 S0
M5 S0
M5 S0
M5 S0
M5 S0
M5 S0
M5 S0
M5 S0
M5 S0
M5 S0
M5 S0
M5 S0
M5 S0
M5 S0
M5 S0
M5 S0
M5 S0
M5 S0
M5 S0
M5 S0
M5 S0
M5 S0
M5 S0
M5 S0
M5 S0
M5 S0
M5 S0
M5 S0
M5 S0
M5 S0
M5 S0
M5 S0
M5 S0
M5 S0
M5 S0
M5 S0
M5 S0
M5 S0
M5 S0
M5 S0
M5 S0
M5 S0
M5 S0
M5 S0
M5 S0
M5 S0
M5 S0
M5 S0
M5 S0
M5 S0
M5 S0
M5 S0
M5 S0
M5 S0
M5 S0
M5 S0
M5 S0
M5 S0
M5 S0
M5 S0
M5 S0
M5 S0
M5 S0
M5 S0
M5 S0
M5 S0
M5 S0
M5 S0
M5 S0
M5 S0
M5 S0
M5 S0
M5 S0
M5 S0
M5 S0
M5 S0
M5 S0
M5 S0
M5 S0
M5 S0
M5 S0
M5 S0
M5 S0
M5 S0
M5 S0
M5 S0
M5 S0
M5 S0
M5 S0
M5 S0
M5 S0
M5 S0
M5 S0
M5 S0
M5 S0
M5 S0
M5 S0
M5 S0
M5 S0
M5 S0
M5 S0
M5 S0
M5 S0
M5 S0
M5 S0
M5 S0
M5 S0
M5 S0
M5 S0
M5 S0
M5 S0
M5 S0
M5 S0
M5 S0
M5 S0
M5 S0
M5 S0
M5 S0
M5 S0
M5 S0
M5 S0
M5 S0
M5 S0
M5 S0
M5 S0
M5 S0
M5 S0
M5 S0
M5 S0
M5 S0
M5 S0
M5 S0
M5 S0
M5 S0
M5 S0
M5 S0
M5 S0
M5 S0
M5 S0
M5 S0
M5 S0
M5 S0
M5 S0
M5 S0
M5 S0
M5 S0
M5 S0
M5 S0
M5 S0
M5 S0
M5 S0
M5 S0
M5 S0
M5 S0
M5 S0
M5 S0
M5 S0
M5 S0
M5 S0
M5 S0
M5 S0
M5 S0
M5 S0
M5 S0
M5 S0
M5 S0
M5 S0
M5 S0
M5 S0
M5 S0
M5 S0
M5 S0
M5 S0
M5 S0
M5 S0
M5 S0
M5 S0
M5 S0
M5 S0
M5 S0
M5 S0
M5 S0
M5 S0
M5 S0
M5 S0
M5 S0
M5 S0
M5 S0
M5 S0
M5 S0
M5 S0
M5 S0
M5 S0
M5 S0
M5 S0
M5 S0
M5 S0
M5 S0
M5 S0
M5 S0
M5 S0
M5 S0
M5 S0
M5 S0
M5 S0
M5 S0
M5 S0
M5 S0
M5 S0
M5 S0
M5 S0
M5 S0
M5 S0
M5 S0
M5 S0
M5 S0
M5 S0
M5 S0
M5 S0
M5 S0
M5 S0
M5 S0
M5 S0
M5 S0
M5 S0
M5 S0
M5 S0
M5 S0
M5 S0
M5 S0
M5 S0
M5 S0
M5 S0
M5 S0
M5 S0
M5 S0
M5 S0
M5 S0
M5 S0
M5 S0
M5 S0
M5 S0
M5 S0
M5 S0
M5 S0
M5 S0
M5 S0
M5 S0
M5 S0
M5 S0
M5 S0
M5 S0
M5 S0
M5 S0
M5 S0
M5 S0
M5 S0
M5 S0
M5 S0
M5 S0
M5 S0
M5 S0
M5 S0
M5 S0
M5 S0
M5 S0
M5 S0
M5 S0
M5 S0
M5 S0
M5 S0
M5 S0
M5 S0
M5 S0
M5 S0
M5 S0
M5 S0
M5 S0
M5 S0
M5 S0
M5 S0
M5 S0
M5 S0
M5 S0
M5 S0
M5 S0
M5 S0
M5 S0
M5 S0
M5 S0
M5 S0
M5 S0
M5 S0
M5 S0
M5 S0
M5 S0
M5 S0
M5 S0
M5 S0
M5 S0
M5 S0
M5 S0
M5 S0
M5 S0
M5 S0
M5 S0
M5 S0
M5 S0
M5 S0
M5 S0
M5 S0
M5 S0
M5 S0
M5 S0
M5 S0
G0 X0.0 Y369.0
M3 S255
G1 X399.0 Y369.0
M5 S0
G0 X399.0 Y369.5
M3 S255
G1 X0.0 Y369.5
M5 S0
G0 X0.0 Y370.0
M3 S255
G1 X399.0 Y370.0
M5 S0
G0 X399.0 Y370.5
M3 S255
G1 X0.0 Y370.5
M5 S0
G0 X0.0 Y371.0
M3 S255
G1 X399.0 Y371.0
M5 S0
G0 X399.0 Y371.5
M3 S255
G1 X0.0 Y371.5
M5 S0
G0 X0.0 Y372.0
M3 S255
G1 X399.0 Y372.0
M5 S0
G0 X399.0 Y372.5
M3 S255
G1 X0.0 Y372.5
M5 S0
G0 X0.0 Y373.0
M3 S255
G1 X399.0 Y373.0
M5 S0
G0 X399.0 Y373.5
M3 S255
G1 X0.0 Y373.5
M5 S0
G0 X0.0 Y374.0
M3 S255
G1 X399.0 Y374.0
M5 S0
G0 X399.0 Y374.5
M3 S255
G1 X0.0 Y374.5
M5 S0
G0 X0.0 Y375.0
M3 S255
G1 X399.0 Y375.0
M5 S0
G0 X399.0 Y375.5
M3 S255
G1 X0.0 Y375.5
M5 S0
G0 X0.0 Y376.0
M3 S255
G1 X399.0 Y376.0
M5 S0
G0 X399.0 Y376.5
M3 S255
G1 X0.0 Y376.5
M5 S0
G0 X0.0 Y377.0
M3 S255
G1 X399.0 Y377.0
M5 S0
G0 X399.0 Y377.5
M3 S255
G1 X0.0 Y377.5
M5 S0
G0 X0.0 Y378.0
M3 S255
G1 X399.0 Y378.0
M5 S0
G0 X399.0 Y378.5
M3 S255
G1 X0.0 Y378.5
M5 S0
G0 X0.0 Y379.0
M3 S255
G1 X399.0 Y379.0
M5 S0
G0 X399.0 Y379.5
M3 S255
G1 X0.0 Y379.5
M5 S0
G0 X0.0 Y380.0
M3 S255
G1 X399.0 Y380.0
M5 S0
G0 X399.0 Y380.5
M3 S255
G1 X0.0 Y380.5
M5 S0
G0 X0.0 Y381.0
M3 S255
G1 X399.0 Y381.0
M5 S0
G0 X399.0 Y381.5
M3 S255
G1 X0.0 Y381.5
M5 S0
G0 X0.0 Y382.0
M3 S255
G1 X399.0 Y382.0
M5 S0
G0 X399.0 Y382.5
M3 S255
G1 X0.0 Y382.5
M5 S0
G0 X0.0 Y383.0
M3 S255
G1 X399.0 Y383.0
M5 S0
G0 X399.0 Y383.5
M3 S255
G1 X3.5 Y383.5
M3 S0
M5 S0
G0 X3.5 Y384.0
M3 S255
G1 X3.5 Y384.0
M3 S255
G1 X399.0 Y384.0
M5 S0
G0 X399.0 Y384.5
M3 S255
G1 X3.5 Y384.5
M3 S0
M5 S0
G0 X3.5 Y385.0
M3 S255
G1 X3.5 Y385.0
M3 S255
G1 X399.0 Y385.0
M5 S0
H5 S0 
F100
G0 Z0 ( for some grbl senders compatibility )
 
G0 X0.0 Y0.0
M3 S255
G1 X399.0 Y0.0
M5 S0
G0 X399.0 Y0.5
M3 S255
G1 X0.0 Y0.5
M5 S0
G0 X0.0 Y1.0
M3 S255
G1 X399.0 Y1.0
M5 S0
G0 X399.0 Y1.5
M3 S255
G1 X0.0 Y1.5
M5 S0
G0 X0.0 Y2.0
M3 S255
G1 X399.0 Y2.0
M5 S0
G0 X399.0 Y2.5
M3 S255
G1 X0.0 Y2.5
M5 S0
G0 X0.0 Y3.0
M3 S255
G1 X399.0 Y3.0
M5 S0
G0 X399.0 Y3.5
M3 S255
G1 X0.0 Y3.5
M5 S0
G0 X0.0 Y4.0
M3 S255
G1 X399.0 Y4.0
M5 S0
G0 X399.0 Y4.5
M3 S255
G1 X0.0 Y4.5
M5 S0
G0 X0.0 Y5.0
M3 S255
G1 X399.0 Y5.0
M5 S0
G0 X399.0 Y5.5
M3 S255
G1 X0.0 Y5.5
M5 S0
G0 X0.0 Y6.0
M3 S255
G1 X399.0 Y6.0
M5 S0
G0 X399.0 Y6.5
M3 S255
G1 X0.0 Y6.5
M5 S0
G0 X0.0 Y7.0
M3 S255
G1 X399.0 Y7.0
M5 S0
G0 X399.0 Y7.5
M3 S255
G1 X0.0 Y7.5
M5 S0
G0 X0.0 Y8.0
M3 S255
G1 X399.0 Y8.0
M5 S0
G0 X399.0 Y8.5
M3 S255
G1 X0.0 Y8.5
M5 S0
G0 X0.0 Y9.0
M3 S255
G1 X399.0 Y9.0
M5 S0
G0 X399.0 Y9.5
M3 S255
G1 X0.0 Y9.5
M5 S0
G0 X0.0 Y10.0
M3 S255
G1 X399.0 Y10.0
M5 S0
G0 X399.0 Y10.5
M3 S255
G1 X0.0 Y10.5
M5 S0
G0 X0.0 Y11.0
M3 S255
G1 X399.0 Y11.0
M5 S0
G0 X399.0 Y11.5
M3 S255
G1 X0.0 Y11.5
M5 S0
G0 X0.0 Y12.0
M3 S255
G1 X399.0 Y12.0
M5 S0
M5 S0
M5 S0
M5 S0
M5 S0
M5 S0
M5 S0
M5 S0
M5 S0
M5 S0
M5 S0
M5 S0
M5 S0
M5 S0
M5 S0
M5 S0
M5 S0
M5 S0
M5 S0
M5 S0
M5 S0
M5 S0
M5 S0
M5 S0
M5 S0
M5 S0
M5 S0
M5 S0
M5 S0
M5 S0
M5 S0
M5 S0
M5 S0
M5 S0
M5 S0
M5 S0
M5 S0
M5 S0
M5 S0
M5 S0
M5 S0
M5 S0
M5 S0
M5 S0
M5 S0
M5 S0
M5 S0
M5 S0
M5 S0
M5 S0
M5 S0
M5 S0
M5 S0
M5 S0
M5 S0
M5 S0
M5 S0
M5 S0
M5 S0
M5 S0
M5 S0
M5 S0
M5 S0
M5 S0
M5 S0
M5 S0
M5 S0
M5 S0
M5 S0
M5 S0
M5 S0
M5 S0
M5 S0
M5 S0
M5 S0
M5 S0
M5 S0
M5 S0
M5 S0
M5 S0
M5 S0
M5 S0
M5 S0
M5 S0
M5 S0
M5 S0
M5 S0
M5 S0
M5 S0
M5 S0
M5 S0
M5 S0
M5 S0
M5 S0
M5 S0
M5 S0
M5 S0
M5 S0
M5 S0
M5 S0
M5 S0
M5 S0
M5 S0
M5 S0
M5 S0
M5 S0
M5 S0
M5 S0
M5 S0
M5 S0
M5 S0
M5 S0
M5 S0
M5 S0
M5 S0
M5 S0
M5 S0
M5 S0
M5 S0
M5 S0
M5 S0
M5 S0
M5 S0
M5 S0
M5 S0
M5 S0
M5 S0
M5 S0
M5 S0
M5 S0
M5 S0
M5 S0
M5 S0
M5 S0
M5 S0
M5 S0
M5 S0
M5 S0
M5 S0
M5 S0
M5 S0
M5 S0
M5 S0
M5 S0
M5 S0
M5 S0
M5 S0
M5 S0
M5 S0
M5 S0
M5 S0
M5 S0
M5 S0
M5 S0
M5 S0
M5 S0
M5 S0
M5 S0
M5 S0
M5 S0
M5 S0
M5 S0
M5 S0
M5 S0
M5 S0
M5 S0
M5 S0
M5 S0
M5 S0
M5 S0
M5 S0
M5 S0
M5 S0
M5 S0
M5 S0
M5 S0
M5 S0
M5 S0
M5 S0
M5 S0
M5 S0
M5 S0
M5 S0
M5 S0
M5 S0
M5 S0
M5 S0
M5 S0
M5 S0
M5 S0
M5 S0
M5 S0
M5 S0
M5 S0
M5 S0
M5 S0
M5 S0
M5 S0
M5 S0
M5 S0
M5 S0
M5 S0
M5 S0
M5 S0
M5 S0
M5 S0
M5 S0
M5 S0
M5 S0
M5 S0
M5 S0
M5 S0
M5 S0
M5 S0
M5 S0
M5 S0
M5 S0
M5 S0
M5 S0
M5 S0
M5 S0
M5 S0
M5 S0
M5 S0
M5 S0
M5 S0
M5 S0
M5 S0
M5 S0
M5 S0
M5 S0
M5 S0
M5 S0
M5 S0
M5 S0
M5 S0
M5 S0
M5 S0
M5 S0
M5 S0
M5 S0
M5 S0
M5 S0
M5 S0
M5 S0
M5 S0
M5 S0
M5 S0
M5 S0
M5 S0
M5 S0
M5 S0
M5 S0
M5 S0
M5 S0
M5 S0
M5 S0
M5 S0
M5 S0
M5 S0
M5 S0
M5 S0
M5 S0
M5 S0
M5 S0
M5 S0
M5 S0
M5 S0
M5 S0
M5 S0
M5 S0
M5 S0
M5 S0
M5 S0
M5 S0
M5 S0
M5 S0
M5 S0
M5 S0
M5 S0
M5 S0
M5 S0
M5 S0
M5 S0
M5 S0
M5 S0
M5 S0
M5 S0
M5 S0
M5 S0
M5 S0
M5 S0
M5 S0
M5 S0
M5 S0
M5 S0
M5 S0
M5 S0
M5 S0
M5 S0
M5 S0
M5 S0
M5 S0
M5 S0
M5 S0
M5 S0
M5 S0
M5 S0
M5 S0
M5 S0
M5 S0
M5 S0
M5 S0
M5 S0
M5 S0
M5 S0
G0 X0.0 Y170.0
M3 S255
G1 X399.0 Y170.0
M5 S0
G0 X399.0 Y170.5
M3 S255
G1 X0.0 Y170.5
M5 S0
G0 X0.0 Y171.0
M3 S255
G1 X399.0 Y171.0
M5 S0
G0 X399.0 Y171.5
M3 S255
G1 X0.0 Y171.5
M5 S0
G0 X0.0 Y172.0
M3 S255
G1 X399.0 Y172.0
M5 S0
G0 X399.0 Y172.5
M3 S255
G1 X0.0 Y172.5
M5 S0
G0 X0.0 Y173.0
M3 S255
G1 X399.0 Y173.0
M5 S0
G0 X399.0 Y173.5
M3 S255
G1 X0.0 Y173.5
M5 S0
G0 X0.0 Y174.0
M3 S255
G1 X399.0 Y174.0
M5 S0
G0 X399.0 Y174.5
M3 S255
G1 X0.0 Y174.5
M5 S0
G0 X0.0 Y175.0
M3 S255
G1 X399.0 Y175.0
M5 S0
G0 X399.0 Y175.5
M3 S255
G1 X0.0 Y175.5
M5 S0
G0 X0.0 Y176.0
M3 S255
G1 X399.0 Y176.0
M5 S0
G0 X399.0 Y176.5
M3 S255
G1 X0.0 Y176.5
M5 S0
G0 X0.0 Y177.0
M3 S255
G1 X399.0 Y177.0
M5 S0
G0 X399.0 Y177.5
M3 S255
G1 X0.0 Y177.5
M5 S0
G0 X0.0 Y178.0
M3 S255
G1 X399.0 Y178.0
M5 S0
G0 X399.0 Y178.5
M3 S255
G1 X0.0 Y178.5
M5 S0
G0 X0.0 Y179.0
M3 S255
G1 X399.0 Y179.0
M5 S0
G0 X399.0 Y179.5
M3 S255
G1 X0.0 Y179.5
M5 S0
G0 X0.0 Y180.0
M3 S255
G1 X399.0 Y180.0
M5 S0
G0 X399.0 Y180.5
M3 S255
G1 X0.0 Y180.5
M5 S0
G0 X0.0 Y181.0
M3 S255
G1 X399.0 Y181.0
M5 S0
G0 X399.0 Y181.5
M3 S255
G1 X0.0 Y181.5
M5 S0
G0 X0.0 Y182.0
M3 S255
G1 X399.0 Y182.0
M5 S0
G0 X399.0 Y182.5
M3 S255
G1 X0.0 Y182.5
M5 S0
G0 X0.0 Y183.0
M3 S255
G1 X399.0 Y183.0
M5 S0
G0 X399.0 Y183.5
M3 S255
G1 X0.0 Y183.5
M5 S0
G0 X0.0 Y184.0
M3 S255
G1 X399.0 Y184.0
M5 S0
G0 X399.0 Y184.5
M3 S255
G1 X0.0 Y184.5
M5 S0
G0 X0.0 Y185.0
M3 S255
G1 X399.0 Y185.0
M5 S0
G0 X399.0 Y185.5
M3 S255
G1 X0.0 Y185.5
M5 S0
G0 X0.0 Y186.0
M3 S255
G1 X399.0 Y186.0
M5 S0
M5 S0
M5 S0
M5 S0
M5 S0
M5 S0
M5 S0
M5 S0
M5 S0
M5 S0
M5 S0
M5 S0
M5 S0
M5 S0
M5 S0
M5 S0
M5 S0
M5 S0
M5 S0
M5 S0
M5 S0
M5 S0
M5 S0
M5 S0
M5 S0
M5 S0
M5 S0
M5 S0
M5 S0
M5 S0
M5 S0
M5 S0
M5 S0
M5 S0
M5 S0
M5 S0
M5 S0
M5 S0
M5 S0
M5 S0
M5 S0
M5 S0
M5 S0
M5 S0
M5 S0
M5 S0
M5 S0
M5 S0
M5 S0
M5 S0
M5 S0
M5 S0
M5 S0
M5 S0
M5 S0
M5 S0
M5 S0
M5 S0
M5 S0
M5 S0
M5 S0
M5 S0
M5 S0
M5 S0
M5 S0
M5 S0
M5 S0
M5 S0
M5 S0
M5 S0
M5 S0
M5 S0
M5 S0
M5 S0
M5 S0
M5 S0
M5 S0
M5 S0
M5 S0
M5 S0
M5 S0
M5 S0
M5 S0
M5 S0
M5 S0
M5 S0
M5 S0
M5 S0
M5 S0
M5 S0
M5 S0
M5 S0
M5 S0
M5 S0
M5 S0
M5 S0
M5 S0
M5 S0
M5 S0
M5 S0
M5 S0
M5 S0
M5 S0
M5 S0
M5 S0
M5 S0
M5 S0
M5 S0
M5 S0
M5 S0
M5 S0
M5 S0
M5 S0
M5 S0
M5 S0
M5 S0
M5 S0
M5 S0
M5 S0
M5 S0
M5 S0
M5 S0
M5 S0
M5 S0
M5 S0
M5 S0
M5 S0
M5 S0
M5 S0
M5 S0
M5 S0
M5 S0
M5 S0
M5 S0
M5 S0
M5 S0
M5 S0
M5 S0
M5 S0
M5 S0
M5 S0
M5 S0
M5 S0
M5 S0
M5 S0
M5 S0
M5 S0
M5 S0
M5 S0
M5 S0
M5 S0
M5 S0
M5 S0
M5 S0
M5 S0
M5 S0
M5 S0
M5 S0
M5 S0
M5 S0
M5 S0
M5 S0
M5 S0
M5 S0
M5 S0
M5 S0
M5 S0
M5 S0
M5 S0
M5 S0
M5 S0
M5 S0
M5 S0
M5 S0
M5 S0
M5 S0
M5 S0
M5 S0
M5 S0
M5 S0
M5 S0
M5 S0
M5 S0
M5 S0
M5 S0
M5 S0
M5 S0
M5 S0
M5 S0
M5 S0
M5 S0
M5 S0
M5 S0
M5 S0
M5 S0
M5 S0
M5 S0
M5 S0
M5 S0
M5 S0
M5 S0
M5 S0
M5 S0
M5 S0
M5 S0
M5 S0
M5 S0
M5 S0
M5 S0
M5 S0
M5 S0
M5 S0
M5 S0
M5 S0
M5 S0
M5 S0
M5 S0
M5 S0
M5 S0
M5 S0
M5 S0
M5 S0
M5 S0
M5 S0
M5 S0
M5 S0
M5 S0
M5 S0
M5 S0
M5 S0
M5 S0
M5 S0
M5 S0
M5 S0
M5 S0
M5 S0
M5 S0
M5 S0
M5 S0
M5 S0
M5 S0
M5 S0
M5 S0
M5 S0
M5 S0
M5 S0
M5 S0
M5 S0
M5 S0
M5 S0
M5 S0
M5 S0
M5 S0
M5 S0
M5 S0
M5 S0
M5 S0
M5 S0
M5 S0
M5 S0
M5 S0
M5 S0
M5 S0
M5 S0
M5 S0
M5 S0
M5 S0
M5 S0
M5 S0
M5 S0
M5 S0
M5 S0
M5 S0
M5 S0
M5 S0
M5 S0
M5 S0
M5 S0
M5 S0
M5 S0
M5 S0
M5 S0
M5 S0
M5 S0
M5 S0
M5 S0
M5 S0
M5 S0
M5 S0
M5 S0
M5 S0
M5 S0
M5 S0
M5 S0
M5 S0
M5 S0
M5 S0
M5 S0
M5 S0
M5 S0
M5 S0
M5 S0
M5 S0
M5 S0
M5 S0
M5 S0
M5 S0
M5 S0
M5 S0
M5 S0
M5 S0
M5 S0
M5 S0
M5 S0
M5 S0
M5 S0
M5 S0
M5 S0
M5 S0
M5 S0
M5 S0
M5 S0
M5 S0
M5 S0
M5 S0
M5 S0
M5 S0
M5 S0
M5 S0
M5 S0
M5 S0
M5 S0
M5 S0
M5 S0
M5 S0
M5 S0
M5 S0
M5 S0
M5 S0
M5 S0
M5 S0
M5 S0
M5 S0
M5 S0
M5 S0
M5 S0
M5 S0
M5 S0
M5 S0
M5 S0
M5 S0
M5 S0
M5 S0
M5 S0
M5 S0
M5 S0
M5 S0
M5 S0
M5 S0
M5 S0
M5 S0
M5 S0
M5 S0
M5 S0
M5 S0
M5 S0
G0 X0.0 Y369.0
M3 S255
G1 X399.0 Y369.0
M5 S0
G0 X399.0 Y369.5
M3 S255
G1 X0.0 Y369.5
M5 S0
G0 X0.0 Y370.0
M3 S255
G1 X399.0 Y370.0
M5 S0
G0 X399.0 Y370.5
M3 S255
G1 X0.0 Y370.5
M5 S0
G0 X0.0 Y371.0
M3 S255
G1 X399.0 Y371.0
M5 S0
G0 X399.0 Y371.5
M3 S255
G1 X0.0 Y371.5
M5 S0
G0 X0.0 Y372.0
M3 S255
G1 X399.0 Y372.0
M5 S0
G0 X399.0 Y372.5
M3 S255
G1 X0.0 Y372.5
M5 S0
G0 X0.0 Y373.0
M3 S255
G1 X399.0 Y373.0
M5 S0
G0 X399.0 Y373.5
M3 S255
G1 X0.0 Y373.5
M5 S0
G0 X0.0 Y374.0
M3 S255
G1 X399.0 Y374.0
M5 S0
G0 X399.0 Y374.5
M3 S255
G1 X0.0 Y374.5
M5 S0
G0 X0.0 Y375.0
M3 S255
G1 X399.0 Y375.0
M5 S0
G0 X399.0 Y375.5
M3 S255
G1 X0.0 Y375.5
M5 S0
G0 X0.0 Y376.0
M3 S255
G1 X399.0 Y376.0
M5 S0
G0 X399.0 Y376.5
M3 S255
G1 X0.0 Y376.5
M5 S0
G0 X0.0 Y377.0
M3 S255
G1 X399.0 Y377.0
M5 S0
G0 X399.0 Y377.5
M3 S255
G1 X0.0 Y377.5
M5 S0
G0 X0.0 Y378.0
M3 S255
G1 X399.0 Y378.0
M5 S0
G0 X399.0 Y378.5
M3 S255
G1 X0.0 Y378.5
M5 S0
G0 X0.0 Y379.0
M3 S255
G1 X399.0 Y379.0
M5 S0
G0 X399.0 Y379.5
M3 S255
G1 X0.0 Y379.5
M5 S0
G0 X0.0 Y380.0
M3 S255
G1 X399.0 Y380.0
M5 S0
G0 X399.0 Y380.5
M3 S255
G1 X0.0 Y380.5
M5 S0
G0 X0.0 Y381.0
M3 S255
G1 X399.0 Y381.0
M5 S0
G0 X399.0 Y381.5
M3 S255
G1 X0.0 Y381.5
M5 S0
G0 X0.0 Y382.0
M3 S255
G1 X399.0 Y382.0
M5 S0
G0 X399.0 Y382.5
M3 S255
G1 X0.0 Y382.5
M5 S0
G0 X0.0 Y383.0
M3 S255
G1 X399.0 Y383.0
M5 S0
G0 X399.0 Y383.5
M3 S255
G1 X3.5 Y383.5
M3 S0
M5 S0
G0 X3.5 Y384.0
M3 S255
G1 X3.5 Y384.0
M3 S255
G1 X399.0 Y384.0
M5 S0
G0 X399.0 Y384.5
M3 S255
G1 X3.5 Y384.5
M3 S0
M5 S0
G0 X3.5 Y385.0
M3 S255
G1 X3.5 Y385.0
M3 S255
G1 X399.0 Y385.0
M5 S0
H5 S0 
F100
G0 Z0 ( for some grbl senders compatibility )
 
G0 X0.0 Y0.0
M3 S255
G1 X399.0 Y0.0
M5 S0
G0 X399.0 Y0.5
M3 S255
G1 X0.0 Y0.5
M5 S0
G0 X0.0 Y1.0
M3 S255
G1 X399.0 Y1.0
M5 S0
G0 X399.0 Y1.5
M3 S255
G1 X0.0 Y1.5
M5 S0
G0 X0.0 Y2.0
M3 S255
G1 X399.0 Y2.0
M5 S0
G0 X399.0 Y2.5
M3 S255
G1 X0.0 Y2.5
M5 S0
G0 X0.0 Y3.0
M3 S255
G1 X399.0 Y3.0
M5 S0
G0 X399.0 Y3.5
M3 S255
G1 X0.0 Y3.5
M5 S0
G0 X0.0 Y4.0
M3 S255
G1 X399.0 Y4.0
M5 S0
G0 X399.0 Y4.5
M3 S255
G1 X0.0 Y4.5
M5 S0
G0 X0.0 Y5.0
M3 S255
G1 X399.0 Y5.0
M5 S0
G0 X399.0 Y5.5
M3 S255
G1 X0.0 Y5.5
M5 S0
G0 X0.0 Y6.0
M3 S255
G1 X399.0 Y6.0
M5 S0
G0 X399.0 Y6.5
M3 S255
G1 X0.0 Y6.5
M5 S0
G0 X0.0 Y7.0
M3 S255
G1 X399.0 Y7.0
M5 S0
G0 X399.0 Y7.5
M3 S255
G1 X0.0 Y7.5
M5 S0
G0 X0.0 Y8.0
M3 S255
G1 X399.0 Y8.0
M5 S0
G0 X399.0 Y8.5
M3 S255
G1 X0.0 Y8.5
M5 S0
G0 X0.0 Y9.0
M3 S255
G1 X399.0 Y9.0
M5 S0
G0 X399.0 Y9.5
M3 S255
G1 X0.0 Y9.5
M5 S0
G0 X0.0 Y10.0
M3 S255
G1 X399.0 Y10.0
M5 S0
G0 X399.0 Y10.5
M3 S255
G1 X0.0 Y10.5
M5 S0
G0 X0.0 Y11.0
M3 S255
G1 X399.0 Y11.0
M5 S0
G0 X399.0 Y11.5
M3 S255
G1 X0.0 Y11.5
M5 S0
G0 X0.0 Y12.0
M3 S255
G1 X399.0 Y12.0
M5 S0
M5 S0
M5 S0
M5 S0
M5 S0
M5 S0
M5 S0
M5 S0
M5 S0
M5 S0
M5 S0
M5 S0
M5 S0
M5 S0
M5 S0
M5 S0
M5 S0
M5 S0
M5 S0
M5 S0
M5 S0
M5 S0
M5 S0
M5 S0
M5 S0
M5 S0
M5 S0
M5 S0
M5 S0
M5 S0
M5 S0
M5 S0
M5 S0
M5 S0
M5 S0
M5 S0
M5 S0
M5 S0
M5 S0
M5 S0
M5 S0
M5 S0
M5 S0
M5 S0
M5 S0
M5 S0
M5 S0
M5 S0
M5 S0
M5 S0
M5 S0
M5 S0
M5 S0
M5 S0
M5 S0
M5 S0
M5 S0
M5 S0
M5 S0
M5 S0
M5 S0
M5 S0
M5 S0
M5 S0
M5 S0
M5 S0
M5 S0
M5 S0
M5 S0
M5 S0
M5 S0
M5 S0
M5 S0
M5 S0
M5 S0
M5 S0
M5 S0
M5 S0
M5 S0
M5 S0
M5 S0
M5 S0
M5 S0
M5 S0
M5 S0
M5 S0
M5 S0
M5 S0
M5 S0
M5 S0
M5 S0
M5 S0
M5 S0
M5 S0
M5 S0
M5 S0
M5 S0
M5 S0
M5 S0
M5 S0
M5 S0
M5 S0
M5 S0
M5 S0
M5 S0
M5 S0
M5 S0
M5 S0
M5 S0
M5 S0
M5 S0
M5 S0
M5 S0
M5 S0
M5 S0
M5 S0
M5 S0
M5 S0
M5 S0
M5 S0
M5 S0
M5 S0
M5 S0
M5 S0
M5 S0
M5 S0
M5 S0
M5 S0
M5 S0
M5 S0
M5 S0
M5 S0
M5 S0
M5 S0
M5 S0
M5 S0
M5 S0
M5 S0
M5 S0
M5 S0
M5 S0
M5 S0
M5 S0
M5 S0
M5 S0
M5 S0
M5 S0
M5 S0
M5 S0
M5 S0
M5 S0
M5 S0
M5 S0
M5 S0
M5 S0
M5 S0
M5 S0
M5 S0
M5 S0
M5 S0
M5 S0
M5 S0
M5 S0
M5 S0
M5 S0
M5 S0
M5 S0
M5 S0
M5 S0
M5 S0
M5 S0
M5 S0
M5 S0
M5 S0
M5 S0
M5 S0
M5 S0
M5 S0
M5 S0
M5 S0
M5 S0
M5 S0
M5 S0
M5 S0
M5 S0
M5 S0
M5 S0
M5 S0
M5 S0
M5 S0
M5 S0
M5 S0
M5 S0
M5 S0
M5 S0
M5 S0
M5 S0
M5 S0
M5 S0
M5 S0
M5 S0
M5 S0
M5 S0
M5 S0
M5 S0
M5 S0
M5 S0
M5 S0
M5 S0
M5 S0
M5 S0
M5 S0
M5 S0
M5 S0
M5 S0
M5 S0
M5 S0
M5 S0
M5 S0
M5 S0
M5 S0
M5 S0
M5 S0
M5 S0
M5 S0
M5 S0
M5 S0
M5 S0
M5 S0
M5 S0
M5 S0
M5 S0
M5 S0
M5 S0
M5 S0
M5 S0
M5 S0
M5 S0
M5 S0
M5 S0
M5 S0
M5 S0
M5 S0
M5 S0
M5 S0
M5 S0
M5 S0
M5 S0
M5 S0
M5 S0
M5 S0
M5 S0
M5 S0
M5 S0
M5 S0
M5 S0
M5 S0
M5 S0
M5 S0
M5 S0
M5 S0
M5 S0
M5 S0
M5 S0
M5 S0
M5 S0
M5 S0
M5 S0
M5 S0
M5 S0
M5 S0
M5 S0
M5 S0
M5 S0
M5 S0
M5 S0
M5 S0
M5 S0
M5 S0
M5 S0
M5 S0
M5 S0
M5 S0
M5 S0
M5 S0
M5 S0
M5 S0
M5 S0
M5 S0
M5 S0
M5 S0
M5 S0
M5 S0
M5 S0
M5 S0
M5 S0
M5 S0
M5 S0
M5 S0
M5 S0
M5 S0
M5 S0
M5 S0
M5 S0
M5 S0
M5 S0
M5 S0
M5 S0
M5 S0
M5 S0
M5 S0
M5 S0
M5 S0
M5 S0
M5 S0
M5 S0
G0 X0.0 Y170.0
M3 S255
G1 X399.0 Y170.0
M5 S0
G0 X399.0 Y170.5
M3 S255
G1 X0.0 Y170.5
M5 S0
G0 X0.0 Y171.0
M3 S255
G1 X399.0 Y171.0
M5 S0
G0 X399.0 Y171.5
M3 S255
G1 X0.0 Y171.5
M5 S0
G0 X0.0 Y172.0
M3 S255
G1 X399.0 Y172.0
M5 S0
G0 X399.0 Y172.5
M3 S255
G1 X0.0 Y172.5
M5 S0
G0 X0.0 Y173.0
M3 S255
G1 X399.0 Y173.0
M5 S0
G0 X399.0 Y173.5
M3 S255
G1 X0.0 Y173.5
M5 S0
G0 X0.0 Y174.0
M3 S255
G1 X399.0 Y174.0
M5 S0
G0 X399.0 Y174.5
M3 S255
G1 X0.0 Y174.5
M5 S0
G0 X0.0 Y175.0
M3 S255
G1 X399.0 Y175.0
M5 S0
G0 X399.0 Y175.5
M3 S255
G1 X0.0 Y175.5
M5 S0
G0 X0.0 Y176.0
M3 S255
G1 X399.0 Y176.0
M5 S0
G0 X399.0 Y176.5
M3 S255
G1 X0.0 Y176.5
M5 S0
G0 X0.0 Y177.0
M3 S255
G1 X399.0 Y177.0
M5 S0
G0 X399.0 Y177.5
M3 S255
G1 X0.0 Y177.5
M5 S0
G0 X0.0 Y178.0
M3 S255
G1 X399.0 Y178.0
M5 S0
G0 X399.0 Y178.5
M3 S255
G1 X0.0 Y178.5
M5 S0
G0 X0.0 Y179.0
M3 S255
G1 X399.0 Y179.0
M5 S0
G0 X399.0 Y179.5
M3 S255
G1 X0.0 Y179.5
M5 S0
G0 X0.0 Y180.0
M3 S255
G1 X399.0 Y180.0
M5 S0
G0 X399.0 Y180.5
M3 S255
G1 X0.0 Y180.5
M5 S0
G0 X0.0 Y181.0
M3 S255
G1 X399.0 Y181.0
M5 S0
G0 X399.0 Y181.5
M3 S255
G1 X0.0 Y181.5
M5 S0
G0 X0.0 Y182.0
M3 S255
G1 X399.0 Y182.0
M5 S0
G0 X399.0 Y182.5
M3 S255
G1 X0.0 Y182.5
M5 S0
G0 X0.0 Y183.0
M3 S255
G1 X399.0 Y183.0
M5 S0
G0 X399.0 Y183.5
M3 S255
G1 X0.0 Y183.5
M5 S0
G0 X0.0 Y184.0
M3 S255
G1 X399.0 Y184.0
M5 S0
G0 X399.0 Y184.5
M3 S255
G1 X0.0 Y184.5
M5 S0
G0 X0.0 Y185.0
M3 S255
G1 X399.0 Y185.0
M5 S0
G0 X399.0 Y185.5
M3 S255
G1 X0.0 Y185.5
M5 S0
G0 X0.0 Y186.0
M3 S255
G1 X399.0 Y186.0
M5 S0
M5 S0
M5 S0
M5 S0
M5 S0
M5 S0
M5 S0
M5 S0
M5 S0
M5 S0
M5 S0
M5 S0
M5 S0
M5 S0
M5 S0
M5 S0
M5 S0
M5 S0
M5 S0
M5 S0
M5 S0
M5 S0
M5 S0
M5 S0
M5 S0
M5 S0
M5 S0
M5 S0
M5 S0
M5 S0
M5 S0
M5 S0
M5 S0
M5 S0
M5 S0
M5 S0
M5 S0
M5 S0
M5 S0
M5 S0
M5 S0
M5 S0
M5 S0
M5 S0
M5 S0
M5 S0
M5 S0
M5 S0
M5 S0
M5 S0
M5 S0
M5 S0
M5 S0
M5 S0
M5 S0
M5 S0
M5 S0
M5 S0
M5 S0
M5 S0
M5 S0
M5 S0
M5 S0
M5 S0
M5 S0
M5 S0
M5 S0
M5 S0
M5 S0
M5 S0
M5 S0
M5 S0
M5 S0
M5 S0
M5 S0
M5 S0
M5 S0
M5 S0
M5 S0
M5 S0
M5 S0
M5 S0
M5 S0
M5 S0
M5 S0
M5 S0
M5 S0
M5 S0
M5 S0
M5 S0
M5 S0
M5 S0
M5 S0
M5 S0
M5 S0
M5 S0
M5 S0
M5 S0
M5 S0
M5 S0
M5 S0
M5 S0
M5 S0
M5 S0
M5 S0
M5 S0
M5 S0
M5 S0
M5 S0
M5 S0
M5 S0
M5 S0
M5 S0
M5 S0
M5 S0
M5 S0
M5 S0
M5 S0
M5 S0
M5 S0
M5 S0
M5 S0
M5 S0
M5 S0
M5 S0
M5 S0
M5 S0
M5 S0
M5 S0
M5 S0
M5 S0
M5 S0
M5 S0
M5 S0
M5 S0
M5 S0
M5 S0
M5 S0
M5 S0
M5 S0
M5 S0
M5 S0
M5 S0
M5 S0
M5 S0
M5 S0
M5 S0
M5 S0
M5 S0
M5 S0
M5 S0
M5 S0
M5 S0
M5 S0
M5 S0
M5 S0
M5 S0
M5 S0
M5 S0
M5 S0
M5 S0
M5 S0
M5 S0
M5 S0
M5 S0
M5 S0
M5 S0
M5 S0
M5 S0
M5 S0
M5 S0
M5 S0
M5 S0
M5 S0
M5 S0
M5 S0
M5 S0
M5 S0
M5 S0
M5 S0
M5 S0
M5 S0
M5 S0
M5 S0
M5 S0
M5 S0
M5 S0
M5 S0
M5 S0
M5 S0
M5 S0
M5 S0
M5 S0
M5 S0
M5 S0
M5 S0
M5 S0
M5 S0
M5 S0
M5 S0
M5 S0
M5 S0
M5 S0
M5 S0
M5 S0
M5 S0
M5 S0
M5 S0
M5 S0
M5 S0
M5 S0
M5 S0
M5 S0
M5 S0
M5 S0
M5 S0
M5 S0
M5 S0
M5 S0
M5 S0
M5 S0
M5 S0
M5 S0
M5 S0
M5 S0
M5 S0
M5 S0
M5 S0
M5 S0
M5 S0
M5 S0
M5 S0
M5 S0
M5 S0
M5 S0
M5 S0
M5 S0
M5 S0
M5 S0
M5 S0
M5 S0
M5 S0
M5 S0
M5 S0
M5 S0
M5 S0
M5 S0
M5 S0
M5 S0
M5 S0
M5 S0
M5 S0
M5 S0
M5 S0
M5 S0
M5 S0
M5 S0
M5 S0
M5 S0
M5 S0
M5 S0
M5 S0
M5 S0
M5 S0
M5 S0
M5 S0
M5 S0
M5 S0
M5 S0
M5 S0
M5 S0
M5 S0
M5 S0
M5 S0
M5 S0
M5 S0
M5 S0
M5 S0
M5 S0
M5 S0
M5 S0
M5 S0
M5 S0
M5 S0
M5 S0
M5 S0
M5 S0
M5 S0
M5 S0
M5 S0
M5 S0
M5 S0
M5 S0
M5 S0
M5 S0
M5 S0
M5 S0
M5 S0
M5 S0
M5 S0
M5 S0
M5 S0
M5 S0
M5 S0
M5 S0
M5 S0
M5 S0
M5 S0
M5 S0
M5 S0
M5 S0
M5 S0
M5 S0
M5 S0
M5 S0
M5 S0
M5 S0
M5 S0
M5 S0
M5 S0
M5 S0
M5 S0
M5 S0
M5 S0
M5 S0
M5 S0
M5 S0
M5 S0
M5 S0
M5 S0
M5 S0
M5 S0
M5 S0
M5 S0
M5 S0
M5 S0
M5 S0
M5 S0
M5 S0
M5 S0
M5 S0
M5 S0
M5 S0
M5 S0
M5 S0
M5 S0
M5 S0
M5 S0
M5 S0
M5 S0
M5 S0
M5 S0
M5 S0
M5 S0
M5 S0
M5 S0
M5 S0
M5 S0
M5 S0
M5 S0
M5 S0
M5 S0
M5 S0
M5 S0
M5 S0
M5 S0
G0 X0.0 Y369.0
M3 S255
G1 X399.0 Y369.0
M5 S0
G0 X399.0 Y369.5
M3 S255
G1 X0.0 Y369.5
M5 S0
G0 X0.0 Y370.0
M3 S255
G1 X399.0 Y370.0
M5 S0
G0 X399.0 Y370.5
M3 S255
G1 X0.0 Y370.5
M5 S0
G0 X0.0 Y371.0
M3 S255
G1 X399.0 Y371.0
M5 S0
G0 X399.0 Y371.5
M3 S255
G1 X0.0 Y371.5
M5 S0
G0 X0.0 Y372.0
M3 S255
G1 X399.0 Y372.0
M5 S0
G0 X399.0 Y372.5
M3 S255
G1 X0.0 Y372.5
M5 S0
G0 X0.0 Y373.0
M3 S255
G1 X399.0 Y373.0
M5 S0
G0 X399.0 Y373.5
M3 S255
G1 X0.0 Y373.5
M5 S0
G0 X0.0 Y374.0
M3 S255
G1 X399.0 Y374.0
M5 S0
G0 X399.0 Y374.5
M3 S255
G1 X0.0 Y374.5
M5 S0
G0 X0.0 Y375.0
M3 S255
G1 X399.0 Y375.0
M5 S0
G0 X399.0 Y375.5
M3 S255
G1 X0.0 Y375.5
M5 S0
G0 X0.0 Y376.0
M3 S255
G1 X399.0 Y376.0
M5 S0
G0 X399.0 Y376.5
M3 S255
G1 X0.0 Y376.5
M5 S0
G0 X0.0 Y377.0
M3 S255
G1 X399.0 Y377.0
M5 S0
G0 X399.0 Y377.5
M3 S255
G1 X0.0 Y377.5
M5 S0
G0 X0.0 Y378.0
M3 S255
G1 X399.0 Y378.0
M5 S0
G0 X399.0 Y378.5
M3 S255
G1 X0.0 Y378.5
M5 S0
G0 X0.0 Y379.0
M3 S255
G1 X399.0 Y379.0
M5 S0
G0 X399.0 Y379.5
M3 S255
G1 X0.0 Y379.5
M5 S0
G0 X0.0 Y380.0
M3 S255
G1 X399.0 Y380.0
M5 S0
G0 X399.0 Y380.5
M3 S255
G1 X0.0 Y380.5
M5 S0
G0 X0.0 Y381.0
M3 S255
G1 X399.0 Y381.0
M5 S0
G0 X399.0 Y381.5
M3 S255
G1 X0.0 Y381.5
M5 S0
G0 X0.0 Y382.0
M3 S255
G1 X399.0 Y382.0
M5 S0
G0 X399.0 Y382.5
M3 S255
G1 X0.0 Y382.5
M5 S0
G0 X0.0 Y383.0
M3 S255
G1 X399.0 Y383.0
M5 S0
G0 X399.0 Y383.5
M3 S255
G1 X3.5 Y383.5
M3 S0
M5 S0
G0 X3.5 Y384.0
M3 S255
G1 X3.5 Y384.0
M3 S255
G1 X399.0 Y384.0
M5 S0
G0 X399.0 Y384.5
M3 S255
G1 X3.5 Y384.5
M3 S0
M5 S0
G0 X3.5 Y385.0
M3 S255
G1 X3.5 Y385.0
M3 S255
G1 X399.0 Y385.0
M5 S0
H5 S0 
F100
G0 Z0 ( for some grbl senders compatibility )
 
G0 X0.0 Y0.0
M3 S255
G1 X399.0 Y0.0
M5 S0
G0 X399.0 Y0.5
M3 S255
G1 X0.0 Y0.5
M5 S0
G0 X0.0 Y1.0
M3 S255
G1 X399.0 Y1.0
M5 S0
G0 X399.0 Y1.5
M3 S255
G1 X0.0 Y1.5
M5 S0
G0 X0.0 Y2.0
M3 S255
G1 X399.0 Y2.0
M5 S0
G0 X399.0 Y2.5
M3 S255
G1 X0.0 Y2.5
M5 S0
G0 X0.0 Y3.0
M3 S255
G1 X399.0 Y3.0
M5 S0
G0 X399.0 Y3.5
M3 S255
G1 X0.0 Y3.5
M5 S0
G0 X0.0 Y4.0
M3 S255
G1 X399.0 Y4.0
M5 S0
G0 X399.0 Y4.5
M3 S255
G1 X0.0 Y4.5
M5 S0
G0 X0.0 Y5.0
M3 S255
G1 X399.0 Y5.0
M5 S0
G0 X399.0 Y5.5
M3 S255
G1 X0.0 Y5.5
M5 S0
G0 X0.0 Y6.0
M3 S255
G1 X399.0 Y6.0
M5 S0
G0 X399.0 Y6.5
M3 S255
G1 X0.0 Y6.5
M5 S0
G0 X0.0 Y7.0
M3 S255
G1 X399.0 Y7.0
M5 S0
G0 X399.0 Y7.5
M3 S255
G1 X0.0 Y7.5
M5 S0
G0 X0.0 Y8.0
M3 S255
G1 X399.0 Y8.0
M5 S0
G0 X399.0 Y8.5
M3 S255
G1 X0.0 Y8.5
M5 S0
G0 X0.0 Y9.0
M3 S255
G1 X399.0 Y9.0
M5 S0
G0 X399.0 Y9.5
M3 S255
G1 X0.0 Y9.5
M5 S0
G0 X0.0 Y10.0
M3 S255
G1 X399.0 Y10.0
M5 S0
G0 X399.0 Y10.5
M3 S255
G1 X0.0 Y10.5
M5 S0
G0 X0.0 Y11.0
M3 S255
G1 X399.0 Y11.0
M5 S0
G0 X399.0 Y11.5
M3 S255
G1 X0.0 Y11.5
M5 S0
G0 X0.0 Y12.0
M3 S255
G1 X399.0 Y12.0
M5 S0
M5 S0
M5 S0
M5 S0
M5 S0
M5 S0
M5 S0
M5 S0
M5 S0
M5 S0
M5 S0
M5 S0
M5 S0
M5 S0
M5 S0
M5 S0
M5 S0
M5 S0
M5 S0
M5 S0
M5 S0
M5 S0
M5 S0
M5 S0
M5 S0
M5 S0
M5 S0
M5 S0
M5 S0
M5 S0
M5 S0
M5 S0
M5 S0
M5 S0
M5 S0
M5 S0
M5 S0
M5 S0
M5 S0
M5 S0
M5 S0
M5 S0
M5 S0
M5 S0
M5 S0
M5 S0
M5 S0
M5 S0
M5 S0
M5 S0
M5 S0
M5 S0
M5 S0
M5 S0
M5 S0
M5 S0
M5 S0
M5 S0
M5 S0
M5 S0
M5 S0
M5 S0
M5 S0
M5 S0
M5 S0
M5 S0
M5 S0
M5 S0
M5 S0
M5 S0
M5 S0
M5 S0
M5 S0
M5 S0
M5 S0
M5 S0
M5 S0
M5 S0
M5 S0
M5 S0
M5 S0
M5 S0
M5 S0
M5 S0
M5 S0
M5 S0
M5 S0
M5 S0
M5 S0
M5 S0
M5 S0
M5 S0
M5 S0
M5 S0
M5 S0
M5 S0
M5 S0
M5 S0
M5 S0
M5 S0
M5 S0
M5 S0
M5 S0
M5 S0
M5 S0
M5 S0
M5 S0
M5 S0
M5 S0
M5 S0
M5 S0
M5 S0
M5 S0
M5 S0
M5 S0
M5 S0
M5 S0
M5 S0
M5 S0
M5 S0
M5 S0
M5 S0
M5 S0
M5 S0
M5 S0
M5 S0
M5 S0
M5 S0
M5 S0
M5 S0
M5 S0
M5 S0
M5 S0
M5 S0
M5 S0
M5 S0
M5 S0
M5 S0
M5 S0
M5 S0
M5 S0
M5 S0
M5 S0
M5 S0
M5 S0
M5 S0
M5 S0
M5 S0
M5 S0
M5 S0
M5 S0
M5 S0
M5 S0
M5 S0
M5 S0
M5 S0
M5 S0
M5 S0
M5 S0
M5 S0
M5 S0
M5 S0
M5 S0
M5 S0
M5 S0
M5 S0
M5 S0
M5 S0
M5 S0
M5 S0
M5 S0
M5 S0
M5 S0
M5 S0
M5 S0
M5 S0
M5 S0
M5 S0
M5 S0
M5 S0
M5 S0
M5 S0
M5 S0
M5 S0
M5 S0
M5 S0
M5 S0
M5 S0
M5 S0
M5 S0
M5 S0
M5 S0
M5 S0
M5 S0
M5 S0
M5 S0
M5 S0
M5 S0
M5 S0
M5 S0
M5 S0
M5 S0
M5 S0
M5 S0
M5 S0
M5 S0
M5 S0
M5 S0
M5 S0
M5 S0
M5 S0
M5 S0
M5 S0
M5 S0
M5 S0
M5 S0
M5 S0
M5 S0
M5 S0
M5 S0
M5 S0
M5 S0
M5 S0
M5 S0
M5 S0
M5 S0
M5 S0
M5 S0
M5 S0
M5 S0
M5 S0
M5 S0
M5 S0
M5 S0
M5 S0
M5 S0
M5 S0
M5 S0
M5 S0
M5 S0
M5 S0
M5 S0
M5 S0
M5 S0
M5 S0
M5 S0
M5 S0
M5 S0
M5 S0
M5 S0
M5 S0
M5 S0
M5 S0
M5 S0
M5 S0
M5 S0
M5 S0
M5 S0
M5 S0
M5 S0
M5 S0
M5 S0
M5 S0
M5 S0
M5 S0
M5 S0
M5 S0
M5 S0
M5 S0
M5 S0
M5 S0
M5 S0
M5 S0
M5 S0
M5 S0
M5 S0
M5 S0
M5 S0
M5 S0
M5 S0
M5 S0
M5 S0
M5 S0
M5 S0
M5 S0
M5 S0
M5 S0
M5 S0
M5 S0
M5 S0
M5 S0
M5 S0
M5 S0
M5 S0
M5 S0
M5 S0
M5 S0
M5 S0
M5 S0
M5 S0
M5 S0
M5 S0
M5 S0
M5 S0
M5 S0
M5 S0
M5 S0
M5 S0
M5 S0
M5 S0
M5 S0
M5 S0
M5 S0
M5 S0
M5 S0
M5 S0
G0 X0.0 Y170.0
M3 S255
G1 X399.0 Y170.0
M5 S0
G0 X399.0 Y170.5
M3 S255
G1 X0.0 Y170.5
M5 S0
G0 X0.0 Y171.0
M3 S255
G1 X399.0 Y171.0
M5 S0
G0 X399.0 Y171.5
M3 S255
G1 X0.0 Y171.5
M5 S0
G0 X0.0 Y172.0
M3 S255
G1 X399.0 Y172.0
M5 S0
G0 X399.0 Y172.5
M3 S255
G1 X0.0 Y172.5
M5 S0
G0 X0.0 Y173.0
M3 S255
G1 X399.0 Y173.0
M5 S0
G0 X399.0 Y173.5
M3 S255
G1 X0.0 Y173.5
M5 S0
G0 X0.0 Y174.0
M3 S255
G1 X399.0 Y174.0
M5 S0
G0 X399.0 Y174.5
M3 S255
G1 X0.0 Y174.5
M5 S0
G0 X0.0 Y175.0
M3 S255
G1 X399.0 Y175.0
M5 S0
G0 X399.0 Y175.5
M3 S255
G1 X0.0 Y175.5
M5 S0
G0 X0.0 Y176.0
M3 S255
G1 X399.0 Y176.0
M5 S0
G0 X399.0 Y176.5
M3 S255
G1 X0.0 Y176.5
M5 S0
G0 X0.0 Y177.0
M3 S255
G1 X399.0 Y177.0
M5 S0
G0 X399.0 Y177.5
M3 S255
G1 X0.0 Y177.5
M5 S0
G0 X0.0 Y178.0
M3 S255
G1 X399.0 Y178.0
M5 S0
G0 X399.0 Y178.5
M3 S255
G1 X0.0 Y178.5
M5 S0
G0 X0.0 Y179.0
M3 S255
G1 X399.0 Y179.0
M5 S0
G0 X399.0 Y179.5
M3 S255
G1 X0.0 Y179.5
M5 S0
G0 X0.0 Y180.0
M3 S255
G1 X399.0 Y180.0
M5 S0
G0 X399.0 Y180.5
M3 S255
G1 X0.0 Y180.5
M5 S0
G0 X0.0 Y181.0
M3 S255
G1 X399.0 Y181.0
M5 S0
G0 X399.0 Y181.5
M3 S255
G1 X0.0 Y181.5
M5 S0
G0 X0.0 Y182.0
M3 S255
G1 X399.0 Y182.0
M5 S0
G0 X399.0 Y182.5
M3 S255
G1 X0.0 Y182.5
M5 S0
G0 X0.0 Y183.0
M3 S255
G1 X399.0 Y183.0
M5 S0
G0 X399.0 Y183.5
M3 S255
G1 X0.0 Y183.5
M5 S0
G0 X0.0 Y184.0
M3 S255
G1 X399.0 Y184.0
M5 S0
G0 X399.0 Y184.5
M3 S255
G1 X0.0 Y184.5
M5 S0
G0 X0.0 Y185.0
M3 S255
G1 X399.0 Y185.0
M5 S0
G0 X399.0 Y185.5
M3 S255
G1 X0.0 Y185.5
M5 S0
G0 X0.0 Y186.0
M3 S255
G1 X399.0 Y186.0
M5 S0
M5 S0
M5 S0
M5 S0
M5 S0
M5 S0
M5 S0
M5 S0
M5 S0
M5 S0
M5 S0
M5 S0
M5 S0
M5 S0
M5 S0
M5 S0
M5 S0
M5 S0
M5 S0
M5 S0
M5 S0
M5 S0
M5 S0
M5 S0
M5 S0
M5 S0
M5 S0
M5 S0
M5 S0
M5 S0
M5 S0
M5 S0
M5 S0
M5 S0
M5 S0
M5 S0
M5 S0
M5 S0
M5 S0
M5 S0
M5 S0
M5 S0
M5 S0
M5 S0
M5 S0
M5 S0
M5 S0
M5 S0
M5 S0
M5 S0
M5 S0
M5 S0
M5 S0
M5 S0
M5 S0
M5 S0
M5 S0
M5 S0
M5 S0
M5 S0
M5 S0
M5 S0
M5 S0
M5 S0
M5 S0
M5 S0
M5 S0
M5 S0
M5 S0
M5 S0
M5 S0
M5 S0
M5 S0
M5 S0
M5 S0
M5 S0
M5 S0
M5 S0
M5 S0
M5 S0
M5 S0
M5 S0
M5 S0
M5 S0
M5 S0
M5 S0
M5 S0
M5 S0
M5 S0
M5 S0
M5 S0
M5 S0
M5 S0
M5 S0
M5 S0
M5 S0
M5 S0
M5 S0
M5 S0
M5 S0
M5 S0
M5 S0
M5 S0
M5 S0
M5 S0
M5 S0
M5 S0
M5 S0
M5 S0
M5 S0
M5 S0
M5 S0
M5 S0
M5 S0
M5 S0
M5 S0
M5 S0
M5 S0
M5 S0
M5 S0
M5 S0
M5 S0
M5 S0
M5 S0
M5 S0
M5 S0
M5 S0
M5 S0
M5 S0
M5 S0
M5 S0
M5 S0
M5 S0
M5 S0
M5 S0
M5 S0
M5 S0
M5 S0
M5 S0
M5 S0
M5 S0
M5 S0
M5 S0
M5 S0
M5 S0
M5 S0
M5 S0
M5 S0
M5 S0
M5 S0
M5 S0
M5 S0
M5 S0
M5 S0
M5 S0
M5 S0
M5 S0
M5 S0
M5 S0
M5 S0
M5 S0
M5 S0
M5 S0
M5 S0
M5 S0
M5 S0
M5 S0
M5 S0
M5 S0
M5 S0
M5 S0
M5 S0
M5 S0
M5 S0
M5 S0
M5 S0
M5 S0
M5 S0
M5 S0
M5 S0
M5 S0
M5 S0
M5 S0
M5 S0
M5 S0
M5 S0
M5 S0
M5 S0
M5 S0
M5 S0
M5 S0
M5 S0
M5 S0
M5 S0
M5 S0
M5 S0
M5 S0
M5 S0
M5 S0
M5 S0
M5 S0
M5 S0
M5 S0
M5 S0
M5 S0
M5 S0
M5 S0
M5 S0
M5 S0
M5 S0
M5 S0
M5 S0
M5 S0
M5 S0
M5 S0
M5 S0
M5 S0
M5 S0
M5 S0
M5 S0
M5 S0
M5 S0
M5 S0
M5 S0
M5 S0
M5 S0
M5 S0
M5 S0
M5 S0
M5 S0
M5 S0
M5 S0
M5 S0
M5 S0
M5 S0
M5 S0
M5 S0
M5 S0
M5 S0
M5 S0
M5 S0
M5 S0
M5 S0
M5 S0
M5 S0
M5 S0
M5 S0
M5 S0
M5 S0
M5 S0
M5 S0
M5 S0
M5 S0
M5 S0
M5 S0
M5 S0
M5 S0
M5 S0
M5 S0
M5 S0
M5 S0
M5 S0
M5 S0
M5 S0
M5 S0
M5 S0
M5 S0
M5 S0
M5 S0
M5 S0
M5 S0
M5 S0
M5 S0
M5 S0
M5 S0
M5 S0
M5 S0
M5 S0
M5 S0
M5 S0
M5 S0
M5 S0
M5 S0
M5 S0
M5 S0
M5 S0
M5 S0
M5 S0
M5 S0
M5 S0
M5 S0
M5 S0
M5 S0
M5 S0
M5 S0
M5 S0
M5 S0
M5 S0
M5 S0
M5 S0
M5 S0
M5 S0
M5 S0
M5 S0
M5 S0
M5 S0
M5 S0
M5 S0
M5 S0
M5 S0
M5 S0
M5 S0
M5 S0
M5 S0
M5 S0
M5 S0
M5 S0
M5 S0
M5 S0
M5 S0
M5 S0
M5 S0
M5 S0
M5 S0
M5 S0
M5 S0
M5 S0
M5 S0
M5 S0
M5 S0
M5 S0
M5 S0
M5 S0
M5 S0
M5 S0
M5 S0
M5 S0
M5 S0
M5 S0
M5 S0
M5 S0
M5 S0
M5 S0
M5 S0
M5 S0
M5 S0
M5 S0
M5 S0
M5 S0
M5 S0
M5 S0
M5 S0
M5 S0
M5 S0
M5 S0
M5 S0
M5 S0
M5 S0
M5 S0
M5 S0
M5 S0
M5 S0
M5 S0
M5 S0
M5 S0
M5 S0
G0 X0.0 Y369.0
M3 S255
G1 X399.0 Y369.0
M5 S0
G0 X399.0 Y369.5
M3 S255
G1 X0.0 Y369.5
M5 S0
G0 X0.0 Y370.0
M3 S255
G1 X399.0 Y370.0
M5 S0
G0 X399.0 Y370.5
M3 S255
G1 X0.0 Y370.5
M5 S0
G0 X0.0 Y371.0
M3 S255
G1 X399.0 Y371.0
M5 S0
G0 X399.0 Y371.5
M3 S255
G1 X0.0 Y371.5
M5 S0
G0 X0.0 Y372.0
M3 S255
G1 X399.0 Y372.0
M5 S0
G0 X399.0 Y372.5
M3 S255
G1 X0.0 Y372.5
M5 S0
G0 X0.0 Y373.0
M3 S255
G1 X399.0 Y373.0
M5 S0
G0 X399.0 Y373.5
M3 S255
G1 X0.0 Y373.5
M5 S0
G0 X0.0 Y374.0
M3 S255
G1 X399.0 Y374.0
M5 S0
G0 X399.0 Y374.5
M3 S255
G1 X0.0 Y374.5
M5 S0
G0 X0.0 Y375.0
M3 S255
G1 X399.0 Y375.0
M5 S0
G0 X399.0 Y375.5
M3 S255
G1 X0.0 Y375.5
M5 S0
G0 X0.0 Y376.0
M3 S255
G1 X399.0 Y376.0
M5 S0
G0 X399.0 Y376.5
M3 S255
G1 X0.0 Y376.5
M5 S0
G0 X0.0 Y377.0
M3 S255
G1 X399.0 Y377.0
M5 S0
G0 X399.0 Y377.5
M3 S255
G1 X0.0 Y377.5
M5 S0
G0 X0.0 Y378.0
M3 S255
G1 X399.0 Y378.0
M5 S0
G0 X399.0 Y378.5
M3 S255
G1 X0.0 Y378.5
M5 S0
G0 X0.0 Y379.0
M3 S255
G1 X399.0 Y379.0
M5 S0
G0 X399.0 Y379.5
M3 S255
G1 X0.0 Y379.5
M5 S0
G0 X0.0 Y380.0
M3 S255
G1 X399.0 Y380.0
M5 S0
G0 X399.0 Y380.5
M3 S255
G1 X0.0 Y380.5
M5 S0
G0 X0.0 Y381.0
M3 S255
G1 X399.0 Y381.0
M5 S0
G0 X399.0 Y381.5
M3 S255
G1 X0.0 Y381.5
M5 S0
G0 X0.0 Y382.0
M3 S255
G1 X399.0 Y382.0
M5 S0
G0 X399.0 Y382.5
M3 S255
G1 X0.0 Y382.5
M5 S0
G0 X0.0 Y383.0
M3 S255
G1 X399.0 Y383.0
M5 S0
G0 X399.0 Y383.5
M3 S255
G1 X3.5 Y383.5
M3 S0
M5 S0
G0 X3.5 Y384.0
M3 S255
G1 X3.5 Y384.0
M3 S255
G1 X399.0 Y384.0
M5 S0
G0 X399.0 Y384.5
M3 S255
G1 X3.5 Y384.5
M3 S0
M5 S0
G0 X3.5 Y385.0
M3 S255
G1 X3.5 Y385.0
M3 S255
G1 X399.0 Y385.0
M5 S0
H5 S0 
F100
G0 Z0 ( for some grbl senders compatibility )
 
G0 X0.0 Y0.0
M3 S255
G1 X399.0 Y0.0
M5 S0
G0 X399.0 Y0.5
M3 S255
G1 X0.0 Y0.5
M5 S0
G0 X0.0 Y1.0
M3 S255
G1 X399.0 Y1.0
M5 S0
G0 X399.0 Y1.5
M3 S255
G1 X0.0 Y1.5
M5 S0
G0 X0.0 Y2.0
M3 S255
G1 X399.0 Y2.0
M5 S0
G0 X399.0 Y2.5
M3 S255
G1 X0.0 Y2.5
M5 S0
G0 X0.0 Y3.0
M3 S255
G1 X399.0 Y3.0
M5 S0
G0 X399.0 Y3.5
M3 S255
G1 X0.0 Y3.5
M5 S0
G0 X0.0 Y4.0
M3 S255
G1 X399.0 Y4.0
M5 S0
G0 X399.0 Y4.5
M3 S255
G1 X0.0 Y4.5
M5 S0
G0 X0.0 Y5.0
M3 S255
G1 X399.0 Y5.0
M5 S0
G0 X399.0 Y5.5
M3 S255
G1 X0.0 Y5.5
M5 S0
G0 X0.0 Y6.0
M3 S255
G1 X399.0 Y6.0
M5 S0
G0 X399.0 Y6.5
M3 S255
G1 X0.0 Y6.5
M5 S0
G0 X0.0 Y7.0
M3 S255
G1 X399.0 Y7.0
M5 S0
G0 X399.0 Y7.5
M3 S255
G1 X0.0 Y7.5
M5 S0
G0 X0.0 Y8.0
M3 S255
G1 X399.0 Y8.0
M5 S0
G0 X399.0 Y8.5
M3 S255
G1 X0.0 Y8.5
M5 S0
G0 X0.0 Y9.0
M3 S255
G1 X399.0 Y9.0
M5 S0
G0 X399.0 Y9.5
M3 S255
G1 X0.0 Y9.5
M5 S0
G0 X0.0 Y10.0
M3 S255
G1 X399.0 Y10.0
M5 S0
G0 X399.0 Y10.5
M3 S255
G1 X0.0 Y10.5
M5 S0
G0 X0.0 Y11.0
M3 S255
G1 X399.0 Y11.0
M5 S0
G0 X399.0 Y11.5
M3 S255
G1 X0.0 Y11.5
M5 S0
G0 X0.0 Y12.0
M3 S255
G1 X399.0 Y12.0
M5 S0
M5 S0
M5 S0
M5 S0
M5 S0
M5 S0
M5 S0
M5 S0
M5 S0
M5 S0
M5 S0
M5 S0
M5 S0
M5 S0
M5 S0
M5 S0
M5 S0
M5 S0
M5 S0
M5 S0
M5 S0
M5 S0
M5 S0
M5 S0
M5 S0
M5 S0
M5 S0
M5 S0
M5 S0
M5 S0
M5 S0
M5 S0
M5 S0
M5 S0
M5 S0
M5 S0
M5 S0
M5 S0
M5 S0
M5 S0
M5 S0
M5 S0
M5 S0
M5 S0
M5 S0
M5 S0
M5 S0
M5 S0
M5 S0
M5 S0
M5 S0
M5 S0
M5 S0
M5 S0
M5 S0
M5 S0
M5 S0
M5 S0
M5 S0
M5 S0
M5 S0
M5 S0
M5 S0
M5 S0
M5 S0
M5 S0
M5 S0
M5 S0
M5 S0
M5 S0
M5 S0
M5 S0
M5 S0
M5 S0
M5 S0
M5 S0
M5 S0
M5 S0
M5 S0
M5 S0
M5 S0
M5 S0
M5 S0
M5 S0
M5 S0
M5 S0
M5 S0
M5 S0
M5 S0
M5 S0
M5 S0
M5 S0
M5 S0
M5 S0
M5 S0
M5 S0
M5 S0
M5 S0
M5 S0
M5 S0
M5 S0
M5 S0
M5 S0
M5 S0
M5 S0
M5 S0
M5 S0
M5 S0
M5 S0
M5 S0
M5 S0
M5 S0
M5 S0
M5 S0
M5 S0
M5 S0
M5 S0
M5 S0
M5 S0
M5 S0
M5 S0
M5 S0
M5 S0
M5 S0
M5 S0
M5 S0
M5 S0
M5 S0
M5 S0
M5 S0
M5 S0
M5 S0
M5 S0
M5 S0
M5 S0
M5 S0
M5 S0
M5 S0
M5 S0
M5 S0
M5 S0
M5 S0
M5 S0
M5 S0
M5 S0
M5 S0
M5 S0
M5 S0
M5 S0
M5 S0
M5 S0
M5 S0
M5 S0
M5 S0
M5 S0
M5 S0
M5 S0
M5 S0
M5 S0
M5 S0
M5 S0
M5 S0
M5 S0
M5 S0
M5 S0
M5 S0
M5 S0
M5 S0
M5 S0
M5 S0
M5 S0
M5 S0
M5 S0
M5 S0
M5 S0
M5 S0
M5 S0
M5 S0
M5 S0
M5 S0
M5 S0
M5 S0
M5 S0
M5 S0
M5 S0
M5 S0
M5 S0
M5 S0
M5 S0
M5 S0
M5 S0
M5 S0
M5 S0
M5 S0
M5 S0
M5 S0
M5 S0
M5 S0
M5 S0
M5 S0
M5 S0
M5 S0
M5 S0
M5 S0
M5 S0
M5 S0
M5 S0
M5 S0
M5 S0
M5 S0
M5 S0
M5 S0
M5 S0
M5 S0
M5 S0
M5 S0
M5 S0
M5 S0
M5 S0
M5 S0
M5 S0
M5 S0
M5 S0
M5 S0
M5 S0
M5 S0
M5 S0
M5 S0
M5 S0
M5 S0
M5 S0
M5 S0
M5 S0
M5 S0
M5 S0
M5 S0
M5 S0
M5 S0
M5 S0
M5 S0
M5 S0
M5 S0
M5 S0
M5 S0
M5 S0
M5 S0
M5 S0
M5 S0
M5 S0
M5 S0
M5 S0
M5 S0
M5 S0
M5 S0
M5 S0
M5 S0
M5 S0
M5 S0
M5 S0
M5 S0
M5 S0
M5 S0
M5 S0
M5 S0
M5 S0
M5 S0
M5 S0
M5 S0
M5 S0
M5 S0
M5 S0
M5 S0
M5 S0
M5 S0
M5 S0
M5 S0
M5 S0
M5 S0
M5 S0
M5 S0
M5 S0
M5 S0
M5 S0
M5 S0
M5 S0
M5 S0
M5 S0
M5 S0
M5 S0
M5 S0
M5 S0
M5 S0
M5 S0
M5 S0
M5 S0
M5 S0
M5 S0
M5 S0
M5 S0
M5 S0
M5 S0
M5 S0
M5 S0
M5 S0
M5 S0
M5 S0
M5 S0
M5 S0
M5 S0
M5 S0
M5 S0
M5 S0
M5 S0
M5 S0
M5 S0
M5 S0
G0 X0.0 Y170.0
M3 S255
G1 X399.0 Y170.0
M5 S0
G0 X399.0 Y170.5
M3 S255
G1 X0.0 Y170.5
M5 S0
G0 X0.0 Y171.0
M3 S255
G1 X399.0 Y171.0
M5 S0
G0 X399.0 Y171.5
M3 S255
G1 X0.0 Y171.5
M5 S0
G0 X0.0 Y172.0
M3 S255
G1 X399.0 Y172.0
M5 S0
G0 X399.0 Y172.5
M3 S255
G1 X0.0 Y172.5
M5 S0
G0 X0.0 Y173.0
M3 S255
G1 X399.0 Y173.0
M5 S0
G0 X399.0 Y173.5
M3 S255
G1 X0.0 Y173.5
M5 S0
G0 X0.0 Y174.0
M3 S255
G1 X399.0 Y174.0
M5 S0
G0 X399.0 Y174.5
M3 S255
G1 X0.0 Y174.5
M5 S0
G0 X0.0 Y175.0
M3 S255
G1 X399.0 Y175.0
M5 S0
G0 X399.0 Y175.5
M3 S255
G1 X0.0 Y175.5
M5 S0
G0 X0.0 Y176.0
M3 S255
G1 X399.0 Y176.0
M5 S0
G0 X399.0 Y176.5
M3 S255
G1 X0.0 Y176.5
M5 S0
G0 X0.0 Y177.0
M3 S255
G1 X399.0 Y177.0
M5 S0
G0 X399.0 Y177.5
M3 S255
G1 X0.0 Y177.5
M5 S0
G0 X0.0 Y178.0
M3 S255
G1 X399.0 Y178.0
M5 S0
G0 X399.0 Y178.5
M3 S255
G1 X0.0 Y178.5
M5 S0
G0 X0.0 Y179.0
M3 S255
G1 X399.0 Y179.0
M5 S0
G0 X399.0 Y179.5
M3 S255
G1 X0.0 Y179.5
M5 S0
G0 X0.0 Y180.0
M3 S255
G1 X399.0 Y180.0
M5 S0
G0 X399.0 Y180.5
M3 S255
G1 X0.0 Y180.5
M5 S0
G0 X0.0 Y181.0
M3 S255
G1 X399.0 Y181.0
M5 S0
G0 X399.0 Y181.5
M3 S255
G1 X0.0 Y181.5
M5 S0
G0 X0.0 Y182.0
M3 S255
G1 X399.0 Y182.0
M5 S0
G0 X399.0 Y182.5
M3 S255
G1 X0.0 Y182.5
M5 S0
G0 X0.0 Y183.0
M3 S255
G1 X399.0 Y183.0
M5 S0
G0 X399.0 Y183.5
M3 S255
G1 X0.0 Y183.5
M5 S0
G0 X0.0 Y184.0
M3 S255
G1 X399.0 Y184.0
M5 S0
G0 X399.0 Y184.5
M3 S255
G1 X0.0 Y184.5
M5 S0
G0 X0.0 Y185.0
M3 S255
G1 X399.0 Y185.0
M5 S0
G0 X399.0 Y185.5
M3 S255
G1 X0.0 Y185.5
M5 S0
G0 X0.0 Y186.0
M3 S255
G1 X399.0 Y186.0
M5 S0
M5 S0
M5 S0
M5 S0
M5 S0
M5 S0
M5 S0
M5 S0
M5 S0
M5 S0
M5 S0
M5 S0
M5 S0
M5 S0
M5 S0
M5 S0
M5 S0
M5 S0
M5 S0
M5 S0
M5 S0
M5 S0
M5 S0
M5 S0
M5 S0
M5 S0
M5 S0
M5 S0
M5 S0
M5 S0
M5 S0
M5 S0
M5 S0
M5 S0
M5 S0
M5 S0
M5 S0
M5 S0
M5 S0
M5 S0
M5 S0
M5 S0
M5 S0
M5 S0
M5 S0
M5 S0
M5 S0
M5 S0
M5 S0
M5 S0
M5 S0
M5 S0
M5 S0
M5 S0
M5 S0
M5 S0
M5 S0
M5 S0
M5 S0
M5 S0
M5 S0
M5 S0
M5 S0
M5 S0
M5 S0
M5 S0
M5 S0
M5 S0
M5 S0
M5 S0
M5 S0
M5 S0
M5 S0
M5 S0
M5 S0
M5 S0
M5 S0
M5 S0
M5 S0
M5 S0
M5 S0
M5 S0
M5 S0
M5 S0
M5 S0
M5 S0
M5 S0
M5 S0
M5 S0
M5 S0
M5 S0
M5 S0
M5 S0
M5 S0
M5 S0
M5 S0
M5 S0
M5 S0
M5 S0
M5 S0
M5 S0
M5 S0
M5 S0
M5 S0
M5 S0
M5 S0
M5 S0
M5 S0
M5 S0
M5 S0
M5 S0
M5 S0
M5 S0
M5 S0
M5 S0
M5 S0
M5 S0
M5 S0
M5 S0
M5 S0
M5 S0
M5 S0
M5 S0
M5 S0
M5 S0
M5 S0
M5 S0
M5 S0
M5 S0
M5 S0
M5 S0
M5 S0
M5 S0
M5 S0
M5 S0
M5 S0
M5 S0
M5 S0
M5 S0
M5 S0
M5 S0
M5 S0
M5 S0
M5 S0
M5 S0
M5 S0
M5 S0
M5 S0
M5 S0
M5 S0
M5 S0
M5 S0
M5 S0
M5 S0
M5 S0
M5 S0
M5 S0
M5 S0
M5 S0
M5 S0
M5 S0
M5 S0
M5 S0
M5 S0
M5 S0
M5 S0
M5 S0
M5 S0
M5 S0
M5 S0
M5 S0
M5 S0
M5 S0
M5 S0
M5 S0
M5 S0
M5 S0
M5 S0
M5 S0
M5 S0
M5 S0
M5 S0
M5 S0
M5 S0
M5 S0
M5 S0
M5 S0
M5 S0
M5 S0
M5 S0
M5 S0
M5 S0
M5 S0
M5 S0
M5 S0
M5 S0
M5 S0
M5 S0
M5 S0
M5 S0
M5 S0
M5 S0
M5 S0
M5 S0
M5 S0
M5 S0
M5 S0
M5 S0
M5 S0
M5 S0
M5 S0
M5 S0
M5 S0
M5 S0
M5 S0
M5 S0
M5 S0
M5 S0
M5 S0
M5 S0
M5 S0
M5 S0
M5 S0
M5 S0
M5 S0
M5 S0
M5 S0
M5 S0
M5 S0
M5 S0
M5 S0
M5 S0
M5 S0
M5 S0
M5 S0
M5 S0
M5 S0
M5 S0
M5 S0
M5 S0
M5 S0
M5 S0
M5 S0
M5 S0
M5 S0
M5 S0
M5 S0
M5 S0
M5 S0
M5 S0
M5 S0
M5 S0
M5 S0
M5 S0
M5 S0
M5 S0
M5 S0
M5 S0
M5 S0
M5 S0
M5 S0
M5 S0
M5 S0
M5 S0
M5 S0
M5 S0
M5 S0
M5 S0
M5 S0
M5 S0
M5 S0
M5 S0
M5 S0
M5 S0
M5 S0
M5 S0
M5 S0
M5 S0
M5 S0
M5 S0
M5 S0
M5 S0
M5 S0
M5 S0
M5 S0
M5 S0
M5 S0
M5 S0
M5 S0
M5 S0
M5 S0
M5 S0
M5 S0
M5 S0
M5 S0
M5 S0
M5 S0
M5 S0
M5 S0
M5 S0
M5 S0
M5 S0
M5 S0
M5 S0
M5 S0
M5 S0
M5 S0
M5 S0
M5 S0
M5 S0
M5 S0
M5 S0
M5 S0
M5 S0
M5 S0
M5 S0
M5 S0
M5 S0
M5 S0
M5 S0
M5 S0
M5 S0
M5 S0
M5 S0
M5 S0
M5 S0
M5 S0
M5 S0
M5 S0
M5 S0
M5 S0
M5 S0
M5 S0
M5 S0
M5 S0
M5 S0
M5 S0
M5 S0
M5 S0
M5 S0
M5 S0
M5 S0
M5 S0
M5 S0
M5 S0
M5 S0
M5 S0
M5 S0
M5 S0
M5 S0
M5 S0
M5 S0
M5 S0
M5 S0
M5 S0
M5 S0
M5 S0
M5 S0
M5 S0
M5 S0
M5 S0
M5 S0
M5 S0
M5 S0
M5 S0
M5 S0
G0 X0.0 Y369.0
M3 S255
G1 X399.0 Y369.0
M5 S0
G0 X399.0 Y369.5
M3 S255
G1 X0.0 Y369.5
M5 S0
G0 X0.0 Y370.0
M3 S255
G1 X399.0 Y370.0
M5 S0
G0 X399.0 Y370.5
M3 S255
G1 X0.0 Y370.5
M5 S0
G0 X0.0 Y371.0
M3 S255
G1 X399.0 Y371.0
M5 S0
G0 X399.0 Y371.5
M3 S255
G1 X0.0 Y371.5
M5 S0
G0 X0.0 Y372.0
M3 S255
G1 X399.0 Y372.0
M5 S0
G0 X399.0 Y372.5
M3 S255
G1 X0.0 Y372.5
M5 S0
G0 X0.0 Y373.0
M3 S255
G1 X399.0 Y373.0
M5 S0
G0 X399.0 Y373.5
M3 S255
G1 X0.0 Y373.5
M5 S0
G0 X0.0 Y374.0
M3 S255
G1 X399.0 Y374.0
M5 S0
G0 X399.0 Y374.5
M3 S255
G1 X0.0 Y374.5
M5 S0
G0 X0.0 Y375.0
M3 S255
G1 X399.0 Y375.0
M5 S0
G0 X399.0 Y375.5
M3 S255
G1 X0.0 Y375.5
M5 S0
G0 X0.0 Y376.0
M3 S255
G1 X399.0 Y376.0
M5 S0
G0 X399.0 Y376.5
M3 S255
G1 X0.0 Y376.5
M5 S0
G0 X0.0 Y377.0
M3 S255
G1 X399.0 Y377.0
M5 S0
G0 X399.0 Y377.5
M3 S255
G1 X0.0 Y377.5
M5 S0
G0 X0.0 Y378.0
M3 S255
G1 X399.0 Y378.0
M5 S0
G0 X399.0 Y378.5
M3 S255
G1 X0.0 Y378.5
M5 S0
G0 X0.0 Y379.0
M3 S255
G1 X399.0 Y379.0
M5 S0
G0 X399.0 Y379.5
M3 S255
G1 X0.0 Y379.5
M5 S0
G0 X0.0 Y380.0
M3 S255
G1 X399.0 Y380.0
M5 S0
G0 X399.0 Y380.5
M3 S255
G1 X0.0 Y380.5
M5 S0
G0 X0.0 Y381.0
M3 S255
G1 X399.0 Y381.0
M5 S0
G0 X399.0 Y381.5
M3 S255
G1 X0.0 Y381.5
M5 S0
G0 X0.0 Y382.0
M3 S255
G1 X399.0 Y382.0
M5 S0
G0 X399.0 Y382.5
M3 S255
G1 X0.0 Y382.5
M5 S0
G0 X0.0 Y383.0
M3 S255
G1 X399.0 Y383.0
M5 S0
G0 X399.0 Y383.5
M3 S255
G1 X3.5 Y383.5
M3 S0
M5 S0
G0 X3.5 Y384.0
M3 S255
G1 X3.5 Y384.0
M3 S255
G1 X399.0 Y384.0
M5 S0
G0 X399.0 Y384.5
M3 S255
G1 X3.5 Y384.5
M3 S0
M5 S0
G0 X3.5 Y385.0
M3 S255
G1 X3.5 Y385.0
M3 S255
G1 X399.0 Y385.0
M5 S0
H5 S0 
F100
G0 Z0 ( for some grbl senders compatibility )
 
G0 X0.0 Y0.0
M3 S255
G1 X399.0 Y0.0
M5 S0
G0 X399.0 Y0.5
M3 S255
H5 S0 
F100
G0 Z0 ( for some grbl senders compatibility )
 
G0 X0.0 Y0.0
M3 S255
G1 X399.0 Y0.0
M5 S0
G0 X399.0 Y0.5
M3 S255
H5 S0 
F100
G0 Z0 ( for some grbl senders compatibility )
 
G0 X0.0 Y0.0
M3 S255
G1 X399.0 Y0.0
M5 S0
G0 X399.0 Y0.5
M3 S255
H5 S0 
F100
G0 Z0 ( for some grbl senders compatibility )
 
G0 X0.0 Y0.0
M3 S255
G1 X399.0 Y0.0
M5 S0
G0 X399.0 Y0.5
M3 S255
H5 S0 
F100
G0 Z0 ( for some grbl senders compatibility )
 
G0 X0.0 Y0.0
M3 S255
G1 X399.0 Y0.0
M5 S0
G0 X399.0 Y0.5
M3 S255
H5 S0 
F100
G0 Z0 ( for some grbl senders compatibility )
 
G0 X0.0 Y0.0
M3 S255
G1 X399.0 Y0.0
M5 S0
G0 X399.0 Y0.5
M3 S255
H5 S0 
F100
G0 Z0 ( for some grbl senders compatibility )
 
G0 X0.0 Y0.0
M3 S255
G1 X399.0 Y0.0
M5 S0
G0 X399.0 Y0.5
M3 S255
H5 S0 
F100
G0 Z0 ( for some grbl senders compatibility )
 
G0 X0.0 Y0.0
M3 S255
G1 X399.0 Y0.0
M5 S0
G0 X399.0 Y0.5
M3 S255
H5 S0 
F100
G0 Z0 ( for some grbl senders compatibility )
 
G0 X0.0 Y0.0
M3 S255
G1 X399.0 Y0.0
M5 S0
G0 X399.0 Y0.5
M3 S255
H5 S0 
F100
G0 Z0 ( for some grbl senders compatibility )
 
G0 X0.0 Y0.0
M3 S255
G1 X399.0 Y0.0
M5 S0
G0 X399.0 Y0.5
M3 S255
H5 S0 
F100
G0 Z0 ( for some grbl senders compatibility )
 
G0 X0.0 Y0.0
M3 S255
G1 X399.0 Y0.0
M5 S0
G0 X399.0 Y0.5
M3 S255
H5 S0 
F100
G0 Z0 ( for some grbl senders compatibility )
 
G0 X0.0 Y0.0
M3 S255
G1 X399.0 Y0.0
M5 S0
G0 X399.0 Y0.5
M3 S255
H5 S0 
F100
G0 Z0 ( for some grbl senders compatibility )
 
G0 X0.0 Y0.0
M3 S255
G1 X399.0 Y0.0
M5 S0
G0 X399.0 Y0.5
M3 S255
H5 S0 
F100
G0 Z0 ( for some grbl senders compatibility )
 
G0 X0.0 Y0.0
M3 S255
G1 X399.0 Y0.0
M5 S0
G0 X399.0 Y0.5
M3 S255
H5 S0 
F100
G0 Z0 ( for some grbl senders compatibility )
 
G0 X0.0 Y0.0
M3 S255
G1 X399.0 Y0.0
M5 S0
G0 X399.0 Y0.5
M3 S255
H5 S0 
F100
G0 Z0 ( for some grbl senders compatibility )
 
G0 X0.0 Y0.0
M3 S255
G1 X399.0 Y0.0
M5 S0
G0 X399.0 Y0.5
M3 S255
H5 S0 
F100
G0 Z0 ( for some grbl senders compatibility )
 
G0 X0.0 Y0.0
M3 S255
G1 X399.0 Y0.0
M5 S0
G0 X399.0 Y0.5
M3 S255
H5 S0 
F100
G0 Z0 ( for some grbl senders compatibility )
 
G0 X0.0 Y0.0
M3 S255
G1 X399.0 Y0.0
M5 S0
G0 X399.0 Y0.5
M3 S255
H5 S0 
F100
G0 Z0 ( for some grbl senders compatibility )
 
G0 X0.0 Y0.0
M3 S255
G1 X399.0 Y0.0
M5 S0
G0 X399.0 Y0.5
M3 S255
H5 S0 
F100
G0 Z0 ( for some grbl senders compatibility )
 
G0 X0.0 Y0.0
M3 S255
G1 X399.0 Y0.0
M5 S0
G0 X399.0 Y0.5
M3 S255
H5 S0 
F100
G0 Z0 ( for some grbl senders compatibility )
 
G0 X0.0 Y0.0
M3 S255
G1 X399.0 Y0.0
M5 S0
G0 X399.0 Y0.5
M3 S255
H5 S0 
F100
G0 Z0 ( for some grbl senders compatibility )
 
G0 X0.0 Y0.0
M3 S255
G1 X399.0 Y0.0
M5 S0
G0 X399.0 Y0.5
M3 S255
H5 S0 
F100
G0 Z0 ( for some grbl senders compatibility )
 
G0 X0.0 Y0.0
M3 S255
G1 X399.0 Y0.0
M5 S0
G0 X399.0 Y0.5
M3 S255
H5 S0 
F100
G0 Z0 ( for some grbl senders compatibility )
 
G0 X0.0 Y0.0
M3 S255
G1 X399.0 Y0.0
M5 S0
G0 X399.0 Y0.5
M3 S255
H5 S0 
F100
G0 Z0 ( for some grbl senders compatibility )
 
G0 X0.0 Y0.0
M3 S255
G1 X399.0 Y0.0
M5 S0
G0 X399.0 Y0.5
M3 S255
H5 S0 
F100
G0 Z0 ( for some grbl senders compatibility )
 
G0 X0.0 Y0.0
M3 S255
G1 X399.0 Y0.0
M5 S0
G0 X399.0 Y0.5
M3 S255
H5 S0 
F100
G0 Z0 ( for some grbl senders compatibility )
 
G0 X0.0 Y0.0
M3 S255
G1 X399.0 Y0.0
M5 S0
G0 X399.0 Y0.5
M3 S255
H5 S0 
F100
G0 Z0 ( for some grbl senders compatibility )
 
G0 X0.0 Y0.0
M3 S255
G1 X399.0 Y0.0
M5 S0
G0 X399.0 Y0.5
M3 S255
H5 S0 
F100
G0 Z0 ( for some grbl senders compatibility )
 
G0 X0.0 Y0.0
M3 S255
G1 X399.0 Y0.0
M5 S0
G0 X399.0 Y0.5
M3 S255
H5 S0 
F100
G0 Z0 ( for some grbl senders compatibility )
 
G0 X0.0 Y0.0
M3 S255
G1 X399.0 Y0.0
M5 S0
G0 X399.0 Y0.5
M3 S255
H5 S0 
F100
G0 Z0 ( for some grbl senders compatibility )
 
G0 X0.0 Y0.0
M3 S255
G1 X399.0 Y0.0
M5 S0
G0 X399.0 Y0.5
M3 S255
H5 S0 
F100
G0 Z0 ( for some grbl senders compatibility )
 
G0 X0.0 Y0.0
M3 S255
G1 X399.0 Y0.0
M5 S0
G0 X399.0 Y0.5
M3 S255
H5 S0 
F100
G0 Z0 ( for some grbl senders compatibility )
 
G0 X0.0 Y0.0
M3 S255
G1 X399.0 Y0.0
M5 S0
G0 X399.0 Y0.5
M3 S255
