H5 S0 
F100
G0 Z0 ( for some grbl senders compatibility )
 
G0 X0.0 Y0.0
M3 S255
G1 X49.8 Y0.0
M5 S0
G0 X49.8 Y0.2
M3 S255
G1 X0.0 Y0.2
M5 S0
G0 X0.0 Y0.4
M3 S255
G1 X49.8 Y0.4
M5 S0
G0 X49.8 Y0.6
M3 S255
G1 X0.0 Y0.6
M5 S0
G0 X0.0 Y0.8
M3 S255
G1 X49.8 Y0.8
M5 S0
G0 X49.8 Y1.0
M3 S255
G1 X0.0 Y1.0
M5 S0
G0 X0.0 Y1.2
M3 S255
G1 X49.8 Y1.2
M5 S0
G0 X49.8 Y1.4
M3 S255
G1 X0.0 Y1.4
M5 S0
G0 X0.0 Y1.6
M3 S255
G1 X49.8 Y1.6
M5 S0
G0 X49.8 Y1.8
M3 S255
G1 X0.0 Y1.8
M5 S0
G0 X0.0 Y2.0
M3 S255
G1 X49.8 Y2.0
M5 S0
G0 X49.8 Y2.2
M3 S255
G1 X0.0 Y2.2
M5 S0
G0 X0.0 Y2.4
M3 S255
G1 X49.8 Y2.4
M5 S0
G0 X49.8 Y2.6
M3 S255
G1 X0.0 Y2.6
M5 S0
G0 X0.0 Y2.8
M3 S255
G1 X49.8 Y2.8
M5 S0
G0 X49.8 Y3.0
M3 S255
G1 X0.0 Y3.0
M5 S0
G0 X0.0 Y3.2
M3 S255
G1 X49.8 Y3.2
M5 S0
G0 X49.8 Y3.4
M3 S255
G1 X0.0 Y3.4
M5 S0
G0 X0.0 Y3.6
M3 S255
G1 X49.8 Y3.6
M5 S0
G0 X49.8 Y3.8
M3 S255
G1 X0.0 Y3.8
M5 S0
G0 X0.0 Y4.0
M3 S255
G1 X49.8 Y4.0
M5 S0
G0 X49.8 Y4.2
M3 S255
G1 X0.0 Y4.2
M5 S0
G0 X0.0 Y4.4
M3 S255
G1 X49.8 Y4.4
M5 S0
G0 X49.8 Y4.6
M3 S255
G1 X0.0 Y4.6
M5 S0
G0 X0.0 Y4.8
M3 S255
G1 X49.8 Y4.8
M5 S0
G0 X49.8 Y5.0
M3 S255
G1 X0.0 Y5.0
M5 S0
G0 X0.0 Y5.2
M3 S255
G1 X49.8 Y5.2
M5 S0
G0 X49.8 Y5.4
M3 S255
G1 X0.0 Y5.4
M5 S0
G0 X0.0 Y5.6
M3 S255
G1 X49.8 Y5.6
M5 S0
G0 X49.8 Y5.8
M3 S255
G1 X0.0 Y5.8
M5 S0
G0 X0.0 Y6.0
M3 S255
G1 X49.8 Y6.0
M5 S0
G0 X49.8 Y6.2
M3 S255
G1 X0.0 Y6.2
M5 S0
G0 X0.0 Y6.4
M3 S255
G1 X49.8 Y6.4
M5 S0
G0 X49.8 Y6.6
M3 S255
G1 X0.0 Y6.6
M5 S0
G0 X0.0 Y6.8
M3 S255
G1 X49.8 Y6.8
M5 S0
G0 X49.8 Y7.0
M3 S255
G1 X0.0 Y7.0
M5 S0
G0 X0.0 Y7.2
M3 S255
G1 X49.8 Y7.2
M5 S0
G0 X49.8 Y7.4
M3 S255
G1 X0.0 Y7.4
M5 S0
G0 X0.0 Y7.6
M3 S255
G1 X49.8 Y7.6
M5 S0
G0 X49.8 Y7.8
M3 S255
G1 X0.0 Y7.8
M5 S0
G0 X0.0 Y8.0
M3 S255
G1 X49.8 Y8.0
M5 S0
G0 X49.8 Y8.2
M3 S255
G1 X0.0 Y8.2
M5 S0
G0 X0.0 Y8.4
M3 S255
G1 X49.8 Y8.4
M5 S0
G0 X49.8 Y8.6
M3 S255
G1 X0.0 Y8.6
M5 S0
G0 X0.0 Y8.8
M3 S255
G1 X49.8 Y8.8
M5 S0
G0 X49.8 Y9.0
M3 S255
G1 X0.0 Y9.0
M5 S0
G0 X0.0 Y9.2
M3 S255
G1 X49.8 Y9.2
M5 S0
G0 X49.8 Y9.4
M3 S255
G1 X0.0 Y9.4
M5 S0
G0 X0.0 Y9.6
M3 S255
G1 X49.8 Y9.6
M5 S0
G0 X49.8 Y9.8
M3 S255
G1 X0.0 Y9.8
M5 S0
G0 X0.0 Y10.0
M3 S255
G1 X49.8 Y10.0
M5 S0
G0 X49.8 Y10.2
M3 S255
G1 X0.0 Y10.2
M5 S0
G0 X0.0 Y10.4
M3 S255
G1 X49.8 Y10.4
M5 S0
G0 X49.8 Y10.6
M3 S255
G1 X0.0 Y10.6
M5 S0
G0 X0.0 Y10.8
M3 S255
G1 X49.8 Y10.8
M5 S0
G0 X49.8 Y11.0
M3 S255
G1 X0.0 Y11.0
M5 S0
G0 X0.0 Y11.2
M3 S255
G1 X49.8 Y11.2
M5 S0
G0 X49.8 Y11.4
M3 S255
G1 X0.0 Y11.4
M5 S0
G0 X0.0 Y11.6
M3 S255
G1 X49.8 Y11.6
M5 S0
G0 X49.8 Y11.8
M3 S255
G1 X0.0 Y11.8
M5 S0
G0 X0.0 Y12.0
M3 S255
G1 X49.8 Y12.0
M5 S0
G0 X49.8 Y12.2
M3 S255
G1 X0.0 Y12.2
M5 S0
G0 X0.0 Y12.4
M3 S255
G1 X49.8 Y12.4
M5 S0
G0 X49.8 Y12.6
M3 S255
G1 X0.0 Y12.6
M5 S0
G0 X0.0 Y12.8
M3 S255
G1 X49.8 Y12.8
M5 S0
G0 X49.8 Y13.0
M3 S255
G1 X0.0 Y13.0
M5 S0
G0 X0.0 Y13.2
M3 S255
G1 X49.8 Y13.2
M5 S0
G0 X49.8 Y13.4
M3 S255
G1 X0.0 Y13.4
M5 S0
G0 X0.0 Y13.6
M3 S255
G1 X49.8 Y13.6
M5 S0
G0 X49.8 Y13.8
M3 S255
G1 X0.0 Y13.8
M5 S0
G0 X0.0 Y14.0
M3 S255
G1 X49.8 Y14.0
M5 S0
G0 X49.8 Y14.2
M3 S255
G1 X0.0 Y14.2
M5 S0
G0 X0.0 Y14.4
M3 S255
G1 X49.8 Y14.4
M5 S0
G0 X49.8 Y14.6
M3 S255
G1 X0.0 Y14.6
M5 S0
G0 X0.0 Y14.8
M3 S255
G1 X49.8 Y14.8
M5 S0
G0 X49.8 Y15.0
M3 S255
G1 X0.0 Y15.0
M5 S0
G0 X0.0 Y15.2
M3 S255
G1 X49.8 Y15.2
M5 S0
G0 X49.8 Y15.4
M3 S255
G1 X0.0 Y15.4
M5 S0
G0 X0.0 Y15.6
M3 S255
G1 X49.8 Y15.6
M5 S0
G0 X49.8 Y15.8
M3 S255
G1 X0.0 Y15.8
M5 S0
G0 X0.0 Y16.0
M3 S255
G1 X49.8 Y16.0
M5 S0
G0 X49.8 Y16.2
M3 S255
G1 X0.0 Y16.2
M5 S0
G0 X0.0 Y16.4
M3 S255
G1 X49.8 Y16.4
M5 S0
G0 X49.8 Y16.6
M3 S255
G1 X0.0 Y16.6
M5 S0
G0 X0.0 Y16.8
M3 S255
G1 X49.8 Y16.8
M5 S0
G0 X49.8 Y17.0
M3 S255
G1 X0.0 Y17.0
M5 S0
G0 X0.0 Y17.2
M3 S255
G1 X49.8 Y17.2
M5 S0
G0 X49.8 Y17.4
M3 S255
G1 X0.0 Y17.4
M5 S0
G0 X0.0 Y17.6
M3 S255
G1 X49.8 Y17.6
M5 S0
G0 X49.8 Y17.8
M3 S255
G1 X0.0 Y17.8
M5 S0
G0 X0.0 Y18.0
M3 S255
G1 X49.8 Y18.0
M5 S0
G0 X49.8 Y18.2
M3 S255
G1 X0.0 Y18.2
M5 S0
G0 X0.0 Y18.4
M3 S255
G1 X49.8 Y18.4
M5 S0
G0 X49.8 Y18.6
M3 S255
G1 X0.0 Y18.6
M5 S0
G0 X0.0 Y18.8
M3 S255
G1 X49.8 Y18.8
M5 S0
G0 X49.8 Y19.0
M3 S255
G1 X0.0 Y19.0
M5 S0
G0 X0.0 Y19.2
M3 S255
G1 X49.8 Y19.2
M5 S0
G0 X49.8 Y19.4
M3 S255
G1 X0.0 Y19.4
M5 S0
G0 X0.0 Y19.6
M3 S255
G1 X49.8 Y19.6
M5 S0
G0 X49.8 Y19.8
M3 S255
G1 X0.0 Y19.8
M5 S0
G0 X0.0 Y20.0
M3 S255
G1 X49.8 Y20.0
M5 S0
G0 X49.8 Y20.2
M3 S255
G1 X0.0 Y20.2
M5 S0
G0 X0.0 Y20.4
M3 S255
G1 X49.8 Y20.4
M5 S0
G0 X49.8 Y20.6
M3 S255
G1 X0.0 Y20.6
M5 S0
G0 X0.0 Y20.8
M3 S255
G1 X49.8 Y20.8
M5 S0
G0 X49.8 Y21.0
M3 S255
G1 X0.0 Y21.0
M5 S0
G0 X0.0 Y21.2
M3 S255
G1 X49.8 Y21.2
M5 S0
G0 X49.8 Y21.4
M3 S255
G1 X0.0 Y21.4
M5 S0
G0 X0.0 Y21.6
M3 S255
G1 X49.8 Y21.6
M5 S0
G0 X49.8 Y21.8
M3 S255
G1 X0.0 Y21.8
M5 S0
G0 X0.0 Y22.0
M3 S255
G1 X49.8 Y22.0
M5 S0
G0 X49.8 Y22.2
M3 S255
G1 X0.0 Y22.2
M5 S0
G0 X0.0 Y22.4
M3 S255
G1 X49.8 Y22.4
M5 S0
G0 X49.8 Y22.6
M3 S255
G1 X0.0 Y22.6
M5 S0
G0 X0.0 Y22.8
M3 S255
G1 X49.8 Y22.8
M5 S0
G0 X49.8 Y23.0
M3 S255
G1 X0.0 Y23.0
M5 S0
G0 X0.0 Y23.2
M3 S255
G1 X49.8 Y23.2
M5 S0
G0 X49.8 Y23.4
M3 S255
G1 X0.0 Y23.4
M5 S0
G0 X0.0 Y23.6
M3 S255
G1 X49.8 Y23.6
M5 S0
G0 X49.8 Y23.8
M3 S255
G1 X0.0 Y23.8
M5 S0
G0 X0.0 Y24.0
M3 S255
G1 X49.8 Y24.0
M5 S0
G0 X49.8 Y24.2
M3 S255
G1 X0.0 Y24.2
M5 S0
G0 X0.0 Y24.4
M3 S255
G1 X49.8 Y24.4
M5 S0
G0 X49.8 Y24.6
M3 S255
G1 X0.0 Y24.6
M5 S0
G0 X0.0 Y24.8
M3 S255
G1 X49.8 Y24.8
M5 S0
G0 X49.8 Y25.0
M3 S255
G1 X0.0 Y25.0
M5 S0
G0 X0.0 Y25.2
M3 S255
G1 X49.8 Y25.2
M5 S0
G0 X49.8 Y25.4
M3 S255
G1 X0.0 Y25.4
M5 S0
G0 X0.0 Y25.6
M3 S255
G1 X49.8 Y25.6
M5 S0
G0 X49.8 Y25.8
M3 S255
G1 X0.0 Y25.8
M5 S0
G0 X0.0 Y26.0
M3 S255
G1 X49.8 Y26.0
M5 S0
G0 X49.8 Y26.2
M3 S255
G1 X0.0 Y26.2
M5 S0
G0 X0.0 Y26.4
M3 S255
G1 X49.8 Y26.4
M5 S0
G0 X49.8 Y26.6
M3 S255
G1 X0.0 Y26.6
M5 S0
G0 X0.0 Y26.8
M3 S255
G1 X49.8 Y26.8
M5 S0
G0 X49.8 Y27.0
M3 S255
G1 X0.0 Y27.0
M5 S0
G0 X0.0 Y27.2
M3 S255
G1 X49.8 Y27.2
M5 S0
G0 X49.8 Y27.4
M3 S255
G1 X0.0 Y27.4
M5 S0
G0 X0.0 Y27.6
M3 S255
G1 X49.8 Y27.6
M5 S0
G0 X49.8 Y27.8
M3 S255
G1 X0.0 Y27.8
M5 S0
G0 X0.0 Y28.0
M3 S255
G1 X49.8 Y28.0
M5 S0
G0 X49.8 Y28.2
M3 S255
G1 X0.0 Y28.2
M5 S0
G0 X0.0 Y28.4
M3 S255
G1 X49.8 Y28.4
M5 S0
G0 X49.8 Y28.6
M3 S255
G1 X0.0 Y28.6
M5 S0
G0 X0.0 Y28.8
M3 S255
G1 X49.8 Y28.8
M5 S0
G0 X49.8 Y29.0
M3 S255
G1 X0.0 Y29.0
M5 S0
G0 X0.0 Y29.2
M3 S255
G1 X49.8 Y29.2
M5 S0
G0 X49.8 Y29.4
M3 S255
G1 X0.0 Y29.4
M5 S0
G0 X0.0 Y29.6
M3 S255
G1 X49.8 Y29.6
M5 S0
G0 X49.8 Y29.8
M3 S255
G1 X0.0 Y29.8
M5 S0
G0 X0.0 Y30.0
M3 S255
G1 X49.8 Y30.0
M5 S0
G0 X49.8 Y30.2
M3 S255
G1 X0.0 Y30.2
M5 S0
G0 X0.0 Y30.4
M3 S255
G1 X49.8 Y30.4
M5 S0
G0 X49.8 Y30.6
M3 S255
G1 X0.0 Y30.6
M5 S0
G0 X0.0 Y30.8
M3 S255
G1 X49.8 Y30.8
M5 S0
G0 X49.8 Y31.0
M3 S255
G1 X0.0 Y31.0
M5 S0
G0 X0.0 Y31.2
M3 S255
G1 X49.8 Y31.2
M5 S0
G0 X49.8 Y31.4
M3 S255
G1 X0.0 Y31.4
M5 S0
G0 X0.0 Y31.6
M3 S255
G1 X49.8 Y31.6
M5 S0
G0 X49.8 Y31.8
M3 S255
G1 X0.0 Y31.8
M5 S0
G0 X0.0 Y32.0
M3 S255
G1 X49.8 Y32.0
M5 S0
G0 X49.8 Y32.2
M3 S255
G1 X0.0 Y32.2
M5 S0
G0 X0.0 Y32.4
M3 S255
G1 X49.8 Y32.4
M5 S0
G0 X49.8 Y32.6
M3 S255
G1 X0.0 Y32.6
M5 S0
G0 X0.0 Y32.8
M3 S255
G1 X49.8 Y32.8
M5 S0
G0 X49.8 Y33.0
M3 S255
G1 X0.0 Y33.0
M5 S0
G0 X0.0 Y33.2
M3 S255
G1 X49.8 Y33.2
M5 S0
G0 X49.8 Y33.4
M3 S255
G1 X0.0 Y33.4
M5 S0
G0 X0.0 Y33.6
M3 S255
G1 X49.8 Y33.6
M5 S0
G0 X49.8 Y33.8
M3 S255
G1 X0.0 Y33.8
M5 S0
G0 X0.0 Y34.0
M3 S255
G1 X49.8 Y34.0
M5 S0
G0 X49.8 Y34.2
M3 S255
G1 X0.0 Y34.2
M5 S0
G0 X0.0 Y34.4
M3 S255
G1 X49.8 Y34.4
M5 S0
G0 X49.8 Y34.6
M3 S255
G1 X0.0 Y34.6
M5 S0
G0 X0.0 Y34.8
M3 S255
G1 X49.8 Y34.8
M5 S0
G0 X49.8 Y35.0
M3 S255
G1 X0.0 Y35.0
M5 S0
G0 X0.0 Y35.2
M3 S255
G1 X49.8 Y35.2
M5 S0
G0 X49.8 Y35.4
M3 S255
G1 X0.0 Y35.4
M5 S0
G0 X0.0 Y35.6
M3 S255
G1 X49.8 Y35.6
M5 S0
G0 X49.8 Y35.8
M3 S255
G1 X0.0 Y35.8
M5 S0
G0 X0.0 Y36.0
M3 S255
G1 X49.8 Y36.0
M5 S0
G0 X49.8 Y36.2
M3 S255
G1 X0.0 Y36.2
M5 S0
G0 X0.0 Y36.4
M3 S255
G1 X49.8 Y36.4
M5 S0
G0 X49.8 Y36.6
M3 S255
G1 X0.0 Y36.6
M5 S0
G0 X0.0 Y36.8
M3 S255
G1 X49.8 Y36.8
M5 S0
G0 X49.8 Y37.0
M3 S255
G1 X0.0 Y37.0
M5 S0
G0 X0.0 Y37.2
M3 S255
G1 X49.8 Y37.2
M5 S0
G0 X49.8 Y37.4
M3 S255
G1 X0.0 Y37.4
M5 S0
G0 X0.0 Y37.6
M3 S255
G1 X49.8 Y37.6
M5 S0
G0 X49.8 Y37.8
M3 S255
G1 X0.0 Y37.8
M5 S0
G0 X0.0 Y38.0
M3 S255
G1 X49.8 Y38.0
M5 S0
G0 X49.8 Y38.2
M3 S255
G1 X0.0 Y38.2
M5 S0
G0 X0.0 Y38.4
M3 S255
G1 X49.8 Y38.4
M5 S0
G0 X49.8 Y38.6
M3 S255
G1 X0.0 Y38.6
M5 S0
G0 X0.0 Y38.8
M3 S255
G1 X49.8 Y38.8
M5 S0
G0 X49.8 Y39.0
M3 S255
G1 X0.0 Y39.0
M5 S0
G0 X0.0 Y39.2
M3 S255
G1 X49.8 Y39.2
M5 S0
G0 X49.8 Y39.4
M3 S255
G1 X0.0 Y39.4
M5 S0
G0 X0.0 Y39.6
M3 S255
G1 X49.8 Y39.6
M5 S0
G0 X49.8 Y39.8
M3 S255
G1 X0.0 Y39.8
M5 S0
G0 X0.0 Y40.0
M3 S255
G1 X49.8 Y40.0
M5 S0
G0 X49.8 Y40.2
M3 S255
G1 X0.0 Y40.2
M5 S0
G0 X0.0 Y40.4
M3 S255
G1 X49.8 Y40.4
M5 S0
G0 X49.8 Y40.6
M3 S255
G1 X0.0 Y40.6
M5 S0
G0 X0.0 Y40.8
M3 S255
G1 X49.8 Y40.8
M5 S0
G0 X49.8 Y41.0
M3 S255
G1 X0.0 Y41.0
M5 S0
G0 X0.0 Y41.2
M3 S255
G1 X49.8 Y41.2
M5 S0
G0 X49.8 Y41.4
M3 S255
G1 X0.0 Y41.4
M5 S0
G0 X0.0 Y41.6
M3 S255
G1 X49.8 Y41.6
M5 S0
G0 X49.8 Y41.8
M3 S255
G1 X0.0 Y41.8
M5 S0
G0 X0.0 Y42.0
M3 S255
G1 X49.8 Y42.0
M5 S0
G0 X49.8 Y42.2
M3 S255
G1 X0.0 Y42.2
M5 S0
G0 X0.0 Y42.4
M3 S255
G1 X49.8 Y42.4
M5 S0
G0 X49.8 Y42.6
M3 S255
G1 X0.0 Y42.6
M5 S0
G0 X0.0 Y42.8
M3 S255
G1 X49.8 Y42.8
M5 S0
G0 X49.8 Y43.0
M3 S255
G1 X0.0 Y43.0
M5 S0
G0 X0.0 Y43.2
M3 S255
G1 X49.8 Y43.2
M5 S0
G0 X49.8 Y43.4
M3 S255
G1 X0.0 Y43.4
M5 S0
G0 X0.0 Y43.6
M3 S255
G1 X49.8 Y43.6
M5 S0
G0 X49.8 Y43.8
M3 S255
G1 X0.0 Y43.8
M5 S0
G0 X0.0 Y44.0
M3 S255
G1 X49.8 Y44.0
M5 S0
G0 X49.8 Y44.2
M3 S255
G1 X0.0 Y44.2
M5 S0
G0 X0.0 Y44.4
M3 S255
G1 X49.8 Y44.4
M5 S0
G0 X49.8 Y44.6
M3 S255
G1 X0.0 Y44.6
M5 S0
G0 X0.0 Y44.8
M3 S255
G1 X49.8 Y44.8
M5 S0
G0 X49.8 Y45.0
M3 S255
G1 X0.0 Y45.0
M5 S0
G0 X0.0 Y45.2
M3 S255
G1 X49.8 Y45.2
M5 S0
G0 X49.8 Y45.4
M3 S255
G1 X0.0 Y45.4
M5 S0
G0 X0.0 Y45.6
M3 S255
G1 X49.8 Y45.6
M5 S0
G0 X49.8 Y45.8
M3 S255
G1 X0.0 Y45.8
M5 S0
G0 X0.0 Y46.0
M3 S255
G1 X49.8 Y46.0
M5 S0
G0 X49.8 Y46.2
M3 S255
G1 X0.0 Y46.2
M5 S0
G0 X0.0 Y46.4
M3 S255
G1 X49.8 Y46.4
M5 S0
G0 X49.8 Y46.6
M3 S255
G1 X0.0 Y46.6
M5 S0
G0 X0.0 Y46.8
M3 S255
G1 X49.8 Y46.8
M5 S0
G0 X49.8 Y47.0
M3 S255
G1 X0.0 Y47.0
M5 S0
G0 X0.0 Y47.2
M3 S255
G1 X49.8 Y47.2
M5 S0
G0 X49.8 Y47.4
M3 S255
G1 X0.0 Y47.4
M5 S0
G0 X0.0 Y47.6
M3 S255
G1 X49.8 Y47.6
M5 S0
G0 X49.8 Y47.8
M3 S255
G1 X0.0 Y47.8
M5 S0
G0 X0.0 Y48.0
M3 S255
G1 X49.8 Y48.0
M5 S0
G0 X49.8 Y48.2
M3 S255
G1 X0.0 Y48.2
M5 S0
G0 X0.0 Y48.4
M3 S255
G1 X49.8 Y48.4
M5 S0
G0 X49.8 Y48.6
M3 S255
G1 X0.0 Y48.6
M5 S0
G0 X0.0 Y48.8
M3 S255
G1 X49.8 Y48.8
M5 S0
G0 X49.8 Y49.0
M3 S255
G1 X0.0 Y49.0
M5 S0
G0 X0.0 Y49.2
M3 S255
G1 X49.8 Y49.2
M5 S0
G0 X49.8 Y49.4
M3 S255
G1 X0.0 Y49.4
M5 S0
G0 X0.0 Y49.6
M3 S255
G1 X49.8 Y49.6
M5 S0
G0 X49.8 Y49.8
M3 S255
G1 X0.0 Y49.8
M5 S0
