H5 S0 
F100
G0 Z0 ( for some grbl senders compatibility )
 
G0 X0.0 Y0.0
M3 S255
G1 X3.5 Y0.0
M3 S0
G0 X47.0 Y0.0
M3 S255
G1 X47.0 Y0.0
M3 S255
G1 X312.0 Y0.0
M3 S0
G0 X314.5 Y0.0
M3 S255
G1 X314.5 Y0.0
M3 S255
G1 X384.5 Y0.0
M3 S0
G0 X386.0 Y0.0
M3 S255
G1 X386.0 Y0.0
M3 S255
G1 X399.5 Y0.0
M5 S0
G0 X399.5 Y0.5
M3 S255
G1 X386.0 Y0.5
M3 S0
G0 X384.5 Y0.5
M3 S255
G1 X384.5 Y0.5
M3 S255
G1 X314.5 Y0.5
M3 S0
G0 X312.0 Y0.5
M3 S255
G1 X312.0 Y0.5
M3 S255
G1 X47.0 Y0.5
M3 S0
G0 X3.5 Y0.5
M3 S255
G1 X3.5 Y0.5
M3 S255
G1 X0.0 Y0.5
M5 S0
G0 X0.0 Y1.0
M3 S255
G1 X3.5 Y1.0
M3 S0
G0 X47.0 Y1.0
M3 S255
G1 X47.0 Y1.0
M3 S255
G1 X312.0 Y1.0
M3 S0
G0 X314.5 Y1.0
M3 S255
G1 X314.5 Y1.0
M3 S255
G1 X384.5 Y1.0
M3 S0
G0 X386.0 Y1.0
M3 S255
G1 X386.0 Y1.0
M3 S255
G1 X399.5 Y1.0
M5 S0
G0 X399.5 Y1.5
M3 S255
G1 X384.5 Y1.5
M3 S0
G0 X382.0 Y1.5
M3 S255
G1 X382.0 Y1.5
M3 S255
G1 X314.5 Y1.5
M3 S0
G0 X313.0 Y1.5
M3 S255
G1 X313.0 Y1.5
M3 S255
G1 X46.0 Y1.5
M3 S0
G0 X4.5 Y1.5
M3 S255
G1 X4.5 Y1.5
M3 S255
G1 X0.0 Y1.5
M5 S0
G0 X0.0 Y2.0
M3 S255
G1 X4.5 Y2.0
M3 S0
G0 X46.0 Y2.0
M3 S255
G1 X46.0 Y2.0
M3 S255
G1 X313.0 Y2.0
M3 S0
G0 X314.5 Y2.0
M3 S255
G1 X314.5 Y2.0
M3 S255
G1 X382.0 Y2.0
M3 S0
G0 X384.5 Y2.0
M3 S255
G1 X384.5 Y2.0
M3 S255
G1 X399.5 Y2.0
M5 S0
G0 X399.5 Y2.5
M3 S255
G1 X384.5 Y2.5
M3 S0
G0 X382.0 Y2.5
M3 S255
G1 X382.0 Y2.5
M3 S255
G1 X314.5 Y2.5
M3 S0
G0 X313.0 Y2.5
M3 S255
G1 X313.0 Y2.5
M3 S255
G1 X43.5 Y2.5
M3 S0
G0 X4.5 Y2.5
M3 S255
G1 X4.5 Y2.5
M3 S255
G1 X2.0 Y2.5
M3 S0
G0 X0.5 Y2.5
M3 S255
G1 X0.5 Y2.5
M3 S255
G1 X0.0 Y2.5
M5 S0
G0 X0.0 Y3.0
M3 S255
G1 X0.5 Y3.0
M3 S0
G0 X2.0 Y3.0
M3 S255
G1 X2.0 Y3.0
M3 S255
G1 X4.5 Y3.0
M3 S0
G0 X43.5 Y3.0
M3 S255
G1 X43.5 Y3.0
M3 S255
G1 X313.0 Y3.0
M3 S0
G0 X314.5 Y3.0
M3 S255
G1 X314.5 Y3.0
M3 S255
G1 X382.0 Y3.0
M3 S0
G0 X384.5 Y3.0
M3 S255
G1 X384.5 Y3.0
M3 S255
G1 X399.5 Y3.0
M5 S0
G0 X399.5 Y3.5
M3 S255
G1 X384.5 Y3.5
M3 S0
G0 X382.0 Y3.5
M3 S255
G1 X382.0 Y3.5
M3 S255
G1 X314.5 Y3.5
M3 S0
G0 X313.0 Y3.5
M3 S255
G1 X313.0 Y3.5
M3 S255
G1 X43.5 Y3.5
M3 S0
G0 X4.5 Y3.5
M3 S255
G1 X4.5 Y3.5
M3 S255
G1 X2.0 Y3.5
M3 S0
G0 X0.5 Y3.5
M3 S255
G1 X0.5 Y3.5
M3 S255
G1 X0.0 Y3.5
M5 S0
G0 X3.5 Y4.0
M3 S255
G1 X3.5 Y4.0
M3 S255
G1 X4.5 Y4.0
M3 S0
G0 X42.0 Y4.0
M3 S255
G1 X42.0 Y4.0
M3 S255
G1 X313.0 Y4.0
M3 S0
G0 X314.5 Y4.0
M3 S255
G1 X314.5 Y4.0
M3 S255
G1 X381.0 Y4.0
M3 S0
G0 X383.5 Y4.0
M3 S255
G1 X383.5 Y4.0
M3 S255
G1 X399.5 Y4.0
M5 S0
G0 X399.5 Y4.5
M3 S255
G1 X383.5 Y4.5
M3 S0
G0 X381.0 Y4.5
M3 S255
G1 X381.0 Y4.5
M3 S255
G1 X314.5 Y4.5
M3 S0
G0 X313.0 Y4.5
M3 S255
G1 X313.0 Y4.5
M3 S255
G1 X42.0 Y4.5
M3 S0
G0 X4.5 Y4.5
M3 S255
G1 X4.5 Y4.5
M3 S255
G1 X3.5 Y4.5
M3 S0
M5 S0
G0 X3.5 Y5.0
M3 S255
G1 X3.5 Y5.0
M3 S255
G1 X4.5 Y5.0
M3 S0
G0 X41.0 Y5.0
M3 S255
G1 X41.0 Y5.0
M3 S255
G1 X313.0 Y5.0
M3 S0
G0 X314.5 Y5.0
M3 S255
G1 X314.5 Y5.0
M3 S255
G1 X379.5 Y5.0
M3 S0
G0 X383.5 Y5.0
M3 S255
G1 X383.5 Y5.0
M3 S255
G1 X399.5 Y5.0
M5 S0
G0 X399.5 Y5.5
M3 S255
G1 X383.5 Y5.5
M3 S0
G0 X379.5 Y5.5
M3 S255
G1 X379.5 Y5.5
M3 S255
G1 X314.5 Y5.5
M3 S0
G0 X313.0 Y5.5
M3 S255
G1 X313.0 Y5.5
M3 S255
G1 X41.0 Y5.5
M3 S0
G0 X4.5 Y5.5
M3 S255
G1 X4.5 Y5.5
M3 S255
G1 X3.5 Y5.5
M3 S0
M5 S0
G0 X3.5 Y6.0
M3 S255
G1 X3.5 Y6.0
M3 S255
G1 X4.5 Y6.0
M3 S0
G0 X41.0 Y6.0
M3 S255
G1 X41.0 Y6.0
M3 S255
G1 X313.0 Y6.0
M3 S0
G0 X314.5 Y6.0
M3 S255
G1 X314.5 Y6.0
M3 S255
G1 X379.5 Y6.0
M3 S0
G0 X383.5 Y6.0
M3 S255
G1 X383.5 Y6.0
M3 S255
G1 X399.5 Y6.0
M5 S0
G0 X399.5 Y6.5
M3 S255
G1 X382.0 Y6.5
M3 S0
G0 X379.5 Y6.5
M3 S255
G1 X379.5 Y6.5
M3 S255
G1 X41.0 Y6.5
M3 S0
G0 X4.5 Y6.5
M3 S255
G1 X4.5 Y6.5
M3 S255
G1 X3.5 Y6.5
M3 S0
M5 S0
G0 X3.5 Y7.0
M3 S255
G1 X3.5 Y7.0
M3 S255
G1 X4.5 Y7.0
M3 S0
G0 X41.0 Y7.0
M3 S255
G1 X41.0 Y7.0
M3 S255
G1 X379.5 Y7.0
M3 S0
G0 X382.0 Y7.0
M3 S255
G1 X382.0 Y7.0
M3 S255
G1 X399.5 Y7.0
M5 S0
G0 X399.5 Y7.5
M3 S255
G1 X381.0 Y7.5
M3 S0
G0 X378.5 Y7.5
M3 S255
G1 X378.5 Y7.5
M3 S255
G1 X39.5 Y7.5
M3 S0
M5 S0
G0 X39.5 Y8.0
M3 S255
G1 X39.5 Y8.0
M3 S255
G1 X378.5 Y8.0
M3 S0
G0 X381.0 Y8.0
M3 S255
G1 X381.0 Y8.0
M3 S255
G1 X399.5 Y8.0
M5 S0
G0 X399.5 Y8.5
M3 S255
G1 X381.0 Y8.5
M3 S0
G0 X378.5 Y8.5
M3 S255
G1 X378.5 Y8.5
M3 S255
G1 X39.5 Y8.5
M3 S0
M5 S0
G0 X38.5 Y9.0
M3 S255
G1 X38.5 Y9.0
M3 S255
G1 X377.0 Y9.0
M3 S0
G0 X381.0 Y9.0
M3 S255
G1 X381.0 Y9.0
M3 S255
G1 X384.5 Y9.0
M3 S0
G0 X386.0 Y9.0
M3 S255
G1 X386.0 Y9.0
M3 S255
G1 X399.5 Y9.0
M5 S0
G0 X399.5 Y9.5
M3 S255
G1 X386.0 Y9.5
M3 S0
G0 X384.5 Y9.5
M3 S255
G1 X384.5 Y9.5
M3 S255
G1 X381.0 Y9.5
M3 S0
G0 X377.0 Y9.5
M3 S255
G1 X377.0 Y9.5
M3 S255
G1 X38.5 Y9.5
M3 S0
M5 S0
G0 X37.0 Y10.0
M3 S255
G1 X37.0 Y10.0
M3 S255
G1 X377.0 Y10.0
M3 S0
G0 X379.5 Y10.0
M3 S255
G1 X379.5 Y10.0
M3 S255
G1 X384.5 Y10.0
M3 S0
G0 X387.0 Y10.0
M3 S255
G1 X387.0 Y10.0
M3 S255
G1 X394.5 Y10.0
M3 S0
G0 X397.0 Y10.0
M3 S255
G1 X397.0 Y10.0
M3 S255
G1 X399.5 Y10.0
M5 S0
G0 X399.5 Y10.5
M3 S255
G1 X397.0 Y10.5
M3 S0
G0 X394.5 Y10.5
M3 S255
G1 X394.5 Y10.5
M3 S255
G1 X387.0 Y10.5
M3 S0
G0 X384.5 Y10.5
M3 S255
G1 X384.5 Y10.5
M3 S255
G1 X379.5 Y10.5
M3 S0
G0 X377.0 Y10.5
M3 S255
G1 X377.0 Y10.5
M3 S255
G1 X37.0 Y10.5
M3 S0
M5 S0
G0 X37.0 Y11.0
M3 S255
G1 X37.0 Y11.0
M3 S255
G1 X377.0 Y11.0
M3 S0
G0 X379.5 Y11.0
M3 S255
G1 X379.5 Y11.0
M3 S255
G1 X384.5 Y11.0
M3 S0
G0 X387.0 Y11.0
M3 S255
G1 X387.0 Y11.0
M3 S255
G1 X394.5 Y11.0
M3 S0
G0 X397.0 Y11.0
M3 S255
G1 X397.0 Y11.0
M3 S255
G1 X399.5 Y11.0
M5 S0
G0 X399.5 Y11.5
M3 S255
G1 X396.0 Y11.5
M3 S0
G0 X393.5 Y11.5
M3 S255
G1 X393.5 Y11.5
M3 S255
G1 X391.0 Y11.5
M3 S0
G0 X388.5 Y11.5
M3 S255
G1 X388.5 Y11.5
M3 S255
G1 X387.0 Y11.5
M3 S0
G0 X384.5 Y11.5
M3 S255
G1 X384.5 Y11.5
M3 S255
G1 X379.5 Y11.5
M3 S0
G0 X375.5 Y11.5
M3 S255
G1 X375.5 Y11.5
M3 S255
G1 X37.0 Y11.5
M3 S0
G0 X4.5 Y11.5
M3 S255
G1 X4.5 Y11.5
M3 S255
G1 X0.5 Y11.5
M3 S0
M5 S0
G0 X0.5 Y12.0
M3 S255
G1 X0.5 Y12.0
M3 S255
G1 X4.5 Y12.0
M3 S0
G0 X37.0 Y12.0
M3 S255
G1 X37.0 Y12.0
M3 S255
G1 X375.5 Y12.0
M3 S0
G0 X379.5 Y12.0
M3 S255
G1 X379.5 Y12.0
M3 S255
G1 X384.5 Y12.0
M3 S0
G0 X387.0 Y12.0
M3 S255
G1 X387.0 Y12.0
M3 S255
G1 X388.5 Y12.0
M3 S0
G0 X391.0 Y12.0
M3 S255
G1 X391.0 Y12.0
M3 S255
G1 X393.5 Y12.0
M3 S0
G0 X396.0 Y12.0
M3 S255
G1 X396.0 Y12.0
M3 S255
G1 X399.5 Y12.0
M5 S0
G0 X399.5 Y12.5
M3 S255
G1 X398.5 Y12.5
M3 S0
G0 X393.5 Y12.5
M3 S255
G1 X393.5 Y12.5
M3 S255
G1 X392.0 Y12.5
M3 S0
G0 X386.0 Y12.5
M3 S255
G1 X386.0 Y12.5
M3 S255
G1 X378.5 Y12.5
M3 S0
G0 X375.5 Y12.5
M3 S255
G1 X375.5 Y12.5
M3 S255
G1 X297.0 Y12.5
M3 S0
G0 X294.5 Y12.5
M3 S255
G1 X294.5 Y12.5
M3 S255
G1 X36.0 Y12.5
M3 S0
G0 X5.5 Y12.5
M3 S255
G1 X5.5 Y12.5
M3 S255
G1 X0.0 Y12.5
M5 S0
G0 X0.0 Y13.0
M3 S255
G1 X5.5 Y13.0
M3 S0
G0 X36.0 Y13.0
M3 S255
G1 X36.0 Y13.0
M3 S255
G1 X294.5 Y13.0
M3 S0
G0 X297.0 Y13.0
M3 S255
G1 X297.0 Y13.0
M3 S255
G1 X375.5 Y13.0
M3 S0
G0 X378.5 Y13.0
M3 S255
G1 X378.5 Y13.0
M3 S255
G1 X386.0 Y13.0
M3 S0
G0 X392.0 Y13.0
M3 S255
G1 X392.0 Y13.0
M3 S255
G1 X393.5 Y13.0
M3 S0
G0 X398.5 Y13.0
M3 S255
G1 X398.5 Y13.0
M3 S255
G1 X399.5 Y13.0
M5 S0
G0 X399.5 Y13.5
M3 S255
G1 X398.5 Y13.5
M3 S0
G0 X393.5 Y13.5
M3 S255
G1 X393.5 Y13.5
M3 S255
G1 X392.0 Y13.5
M3 S0
G0 X386.0 Y13.5
M3 S255
G1 X386.0 Y13.5
M3 S255
G1 X378.5 Y13.5
M3 S0
G0 X375.5 Y13.5
M3 S255
G1 X375.5 Y13.5
M3 S255
G1 X297.0 Y13.5
M3 S0
G0 X294.5 Y13.5
M3 S255
G1 X294.5 Y13.5
M3 S255
G1 X36.0 Y13.5
M3 S0
G0 X5.5 Y13.5
M3 S255
G1 X5.5 Y13.5
M3 S255
G1 X0.0 Y13.5
M5 S0
G0 X0.5 Y14.0
M3 S255
G1 X0.5 Y14.0
M3 S255
G1 X10.5 Y14.0
M3 S0
G0 X33.5 Y14.0
M3 S255
G1 X33.5 Y14.0
M3 S255
G1 X294.5 Y14.0
M3 S0
G0 X295.5 Y14.0
M3 S255
G1 X295.5 Y14.0
M3 S255
G1 X314.5 Y14.0
M3 S0
G0 X319.5 Y14.0
M3 S255
G1 X319.5 Y14.0
M3 S255
G1 X374.5 Y14.0
M3 S0
G0 X377.0 Y14.0
M3 S255
G1 X377.0 Y14.0
M3 S255
G1 X394.5 Y14.0
M3 S0
G0 X397.0 Y14.0
M3 S255
G1 X397.0 Y14.0
M3 S255
G1 X399.5 Y14.0
M5 S0
G0 X399.5 Y14.5
M3 S255
G1 X397.0 Y14.5
M3 S0
G0 X394.5 Y14.5
M3 S255
G1 X394.5 Y14.5
M3 S255
G1 X377.0 Y14.5
M3 S0
G0 X374.5 Y14.5
M3 S255
G1 X374.5 Y14.5
M3 S255
G1 X319.5 Y14.5
M3 S0
G0 X314.5 Y14.5
M3 S255
G1 X314.5 Y14.5
M3 S255
G1 X295.5 Y14.5
M3 S0
G0 X294.5 Y14.5
M3 S255
G1 X294.5 Y14.5
M3 S255
G1 X33.5 Y14.5
M3 S0
G0 X10.5 Y14.5
M3 S255
G1 X10.5 Y14.5
M3 S255
G1 X0.5 Y14.5
M3 S0
M5 S0
G0 X0.0 Y15.0
M3 S255
G1 X10.5 Y15.0
M3 S0
G0 X32.0 Y15.0
M3 S255
G1 X32.0 Y15.0
M3 S255
G1 X314.5 Y15.0
M3 S0
G0 X319.5 Y15.0
M3 S255
G1 X319.5 Y15.0
M3 S255
G1 X374.5 Y15.0
M3 S0
G0 X377.0 Y15.0
M3 S255
G1 X377.0 Y15.0
M3 S255
G1 X399.5 Y15.0
M5 S0
G0 X399.5 Y15.5
M3 S255
G1 X377.0 Y15.5
M3 S0
G0 X374.5 Y15.5
M3 S255
G1 X374.5 Y15.5
M3 S255
G1 X319.5 Y15.5
M3 S0
G0 X314.5 Y15.5
M3 S255
G1 X314.5 Y15.5
M3 S255
G1 X32.0 Y15.5
M3 S0
G0 X10.5 Y15.5
M3 S255
G1 X10.5 Y15.5
M3 S255
G1 X0.0 Y15.5
M5 S0
G0 X0.0 Y16.0
M3 S255
G1 X10.5 Y16.0
M3 S0
G0 X32.0 Y16.0
M3 S255
G1 X32.0 Y16.0
M3 S255
G1 X314.5 Y16.0
M3 S0
G0 X319.5 Y16.0
M3 S255
G1 X319.5 Y16.0
M3 S255
G1 X374.5 Y16.0
M3 S0
G0 X377.0 Y16.0
M3 S255
G1 X377.0 Y16.0
M3 S255
G1 X399.5 Y16.0
M5 S0
G0 X399.5 Y16.5
M3 S255
G1 X29.5 Y16.5
M3 S0
G0 X15.5 Y16.5
M3 S255
G1 X15.5 Y16.5
M3 S255
G1 X0.0 Y16.5
M5 S0
G0 X0.0 Y17.0
M3 S255
G1 X15.5 Y17.0
M3 S0
G0 X29.5 Y17.0
M3 S255
G1 X29.5 Y17.0
M3 S255
G1 X399.5 Y17.0
M5 S0
G0 X399.5 Y17.5
M3 S255
G1 X28.5 Y17.5
M3 S0
G0 X17.0 Y17.5
M3 S255
G1 X17.0 Y17.5
M3 S255
G1 X0.0 Y17.5
M5 S0
G0 X0.0 Y18.0
M3 S255
G1 X17.0 Y18.0
M3 S0
G0 X28.5 Y18.0
M3 S255
G1 X28.5 Y18.0
M3 S255
G1 X399.5 Y18.0
M5 S0
G0 X399.5 Y18.5
M3 S255
G1 X28.5 Y18.5
M3 S0
G0 X17.0 Y18.5
M3 S255
G1 X17.0 Y18.5
M3 S255
G1 X0.0 Y18.5
M5 S0
G0 X0.0 Y19.0
M3 S255
G1 X20.5 Y19.0
M3 S0
G0 X23.0 Y19.0
M3 S255
G1 X23.0 Y19.0
M3 S255
G1 X24.5 Y19.0
M3 S0
G0 X28.5 Y19.0
M3 S255
G1 X28.5 Y19.0
M3 S255
G1 X399.5 Y19.0
M5 S0
G0 X399.5 Y19.5
M3 S255
G1 X28.5 Y19.5
M3 S0
G0 X24.5 Y19.5
M3 S255
G1 X24.5 Y19.5
M3 S255
G1 X23.0 Y19.5
M3 S0
G0 X20.5 Y19.5
M3 S255
G1 X20.5 Y19.5
M3 S255
G1 X0.0 Y19.5
M5 S0
G0 X0.0 Y20.0
M3 S255
G1 X399.5 Y20.0
M5 S0
G0 X399.5 Y20.5
M3 S255
G1 X0.0 Y20.5
M5 S0
G0 X0.0 Y21.0
M3 S255
G1 X399.5 Y21.0
M5 S0
G0 X399.5 Y21.5
M3 S255
G1 X64.5 Y21.5
M3 S0
G0 X62.0 Y21.5
M3 S255
G1 X62.0 Y21.5
M3 S255
G1 X0.0 Y21.5
M5 S0
G0 X0.0 Y22.0
M3 S255
G1 X62.0 Y22.0
M3 S0
G0 X64.5 Y22.0
M3 S255
G1 X64.5 Y22.0
M3 S255
G1 X399.5 Y22.0
M5 S0
G0 X399.5 Y22.5
M3 S255
G1 X278.0 Y22.5
M3 S0
G0 X274.5 Y22.5
M3 S255
G1 X274.5 Y22.5
M3 S255
G1 X64.5 Y22.5
M3 S0
G0 X59.5 Y22.5
M3 S255
G1 X59.5 Y22.5
M3 S255
G1 X0.0 Y22.5
M5 S0
G0 X0.0 Y23.0
M3 S255
G1 X59.5 Y23.0
M3 S0
G0 X64.5 Y23.0
M3 S255
G1 X64.5 Y23.0
M3 S255
G1 X274.5 Y23.0
M3 S0
G0 X278.0 Y23.0
M3 S255
G1 X278.0 Y23.0
M3 S255
G1 X399.5 Y23.0
M5 S0
G0 X399.5 Y23.5
M3 S255
G1 X278.0 Y23.5
M3 S0
G0 X274.5 Y23.5
M3 S255
G1 X274.5 Y23.5
M3 S255
G1 X64.5 Y23.5
M3 S0
G0 X59.5 Y23.5
M3 S255
G1 X59.5 Y23.5
M3 S255
G1 X0.0 Y23.5
M5 S0
G0 X0.0 Y24.0
M3 S255
G1 X59.5 Y24.0
M3 S0
G0 X66.0 Y24.0
M3 S255
G1 X66.0 Y24.0
M3 S255
G1 X274.5 Y24.0
M3 S0
G0 X279.5 Y24.0
M3 S255
G1 X279.5 Y24.0
M3 S255
G1 X399.5 Y24.0
M5 S0
G0 X399.5 Y24.5
M3 S255
G1 X279.5 Y24.5
M3 S0
G0 X274.5 Y24.5
M3 S255
G1 X274.5 Y24.5
M3 S255
G1 X66.0 Y24.5
M3 S0
G0 X59.5 Y24.5
M3 S255
G1 X59.5 Y24.5
M3 S255
G1 X0.0 Y24.5
M5 S0
G0 X0.0 Y25.0
M3 S255
G1 X58.5 Y25.0
M3 S0
G0 X66.0 Y25.0
M3 S255
G1 X66.0 Y25.0
M3 S255
G1 X269.5 Y25.0
M3 S0
G0 X278.0 Y25.0
M3 S255
G1 X278.0 Y25.0
M3 S255
G1 X359.5 Y25.0
M3 S0
G0 X368.0 Y25.0
M3 S255
G1 X368.0 Y25.0
M3 S255
G1 X399.5 Y25.0
M5 S0
G0 X399.5 Y25.5
M3 S255
G1 X368.0 Y25.5
M3 S0
G0 X359.5 Y25.5
M3 S255
G1 X359.5 Y25.5
M3 S255
G1 X278.0 Y25.5
M3 S0
G0 X269.5 Y25.5
M3 S255
G1 X269.5 Y25.5
M3 S255
G1 X66.0 Y25.5
M3 S0
G0 X58.5 Y25.5
M3 S255
G1 X58.5 Y25.5
M3 S255
G1 X0.0 Y25.5
M5 S0
G0 X0.0 Y26.0
M3 S255
G1 X58.5 Y26.0
M3 S0
G0 X66.0 Y26.0
M3 S255
G1 X66.0 Y26.0
M3 S255
G1 X269.5 Y26.0
M3 S0
G0 X278.0 Y26.0
M3 S255
G1 X278.0 Y26.0
M3 S255
G1 X359.5 Y26.0
M3 S0
G0 X368.0 Y26.0
M3 S255
G1 X368.0 Y26.0
M3 S255
G1 X399.5 Y26.0
M5 S0
G0 X399.5 Y26.5
M3 S255
G1 X367.0 Y26.5
M3 S0
G0 X364.5 Y26.5
M3 S255
G1 X364.5 Y26.5
M3 S255
G1 X317.0 Y26.5
M3 S0
G0 X315.5 Y26.5
M3 S255
G1 X315.5 Y26.5
M3 S255
G1 X278.0 Y26.5
M3 S0
G0 X269.5 Y26.5
M3 S255
G1 X269.5 Y26.5
M3 S255
G1 X66.0 Y26.5
M3 S0
G0 X58.5 Y26.5
M3 S255
G1 X58.5 Y26.5
M3 S255
G1 X0.0 Y26.5
M5 S0
G0 X0.0 Y27.0
M3 S255
G1 X58.5 Y27.0
M3 S0
G0 X66.0 Y27.0
M3 S255
G1 X66.0 Y27.0
M3 S255
G1 X269.5 Y27.0
M3 S0
G0 X278.0 Y27.0
M3 S255
G1 X278.0 Y27.0
M3 S255
G1 X315.5 Y27.0
M3 S0
G0 X317.0 Y27.0
M3 S255
G1 X317.0 Y27.0
M3 S255
G1 X364.5 Y27.0
M3 S0
G0 X367.0 Y27.0
M3 S255
G1 X367.0 Y27.0
M3 S255
G1 X399.5 Y27.0
M5 S0
G0 X399.5 Y27.5
M3 S255
G1 X394.5 Y27.5
M3 S0
G0 X392.0 Y27.5
M3 S255
G1 X392.0 Y27.5
M3 S255
G1 X381.0 Y27.5
M3 S0
G0 X378.5 Y27.5
M3 S255
G1 X378.5 Y27.5
M3 S255
G1 X339.5 Y27.5
M3 S0
G0 X338.0 Y27.5
M3 S255
G1 X338.0 Y27.5
M3 S255
G1 X337.0 Y27.5
M3 S0
G0 X328.0 Y27.5
M3 S255
G1 X328.0 Y27.5
M3 S255
G1 X317.0 Y27.5
M3 S0
G0 X314.5 Y27.5
M3 S255
G1 X314.5 Y27.5
M3 S255
G1 X64.5 Y27.5
M3 S0
G0 X59.5 Y27.5
M3 S255
G1 X59.5 Y27.5
M3 S255
G1 X0.5 Y27.5
M3 S0
M5 S0
G0 X0.5 Y28.0
M3 S255
G1 X0.5 Y28.0
M3 S255
G1 X59.5 Y28.0
M3 S0
G0 X64.5 Y28.0
M3 S255
G1 X64.5 Y28.0
M3 S255
G1 X314.5 Y28.0
M3 S0
G0 X317.0 Y28.0
M3 S255
G1 X317.0 Y28.0
M3 S255
G1 X328.0 Y28.0
M3 S0
G0 X337.0 Y28.0
M3 S255
G1 X337.0 Y28.0
M3 S255
G1 X338.0 Y28.0
M3 S0
G0 X339.5 Y28.0
M3 S255
G1 X339.5 Y28.0
M3 S255
G1 X378.5 Y28.0
M3 S0
G0 X381.0 Y28.0
M3 S255
G1 X381.0 Y28.0
M3 S255
G1 X392.0 Y28.0
M3 S0
G0 X394.5 Y28.0
M3 S255
G1 X394.5 Y28.0
M3 S255
G1 X399.5 Y28.0
M5 S0
G0 X399.5 Y28.5
M3 S255
G1 X394.5 Y28.5
M3 S0
G0 X392.0 Y28.5
M3 S255
G1 X392.0 Y28.5
M3 S255
G1 X381.0 Y28.5
M3 S0
G0 X378.5 Y28.5
M3 S255
G1 X378.5 Y28.5
M3 S255
G1 X339.5 Y28.5
M3 S0
G0 X338.0 Y28.5
M3 S255
G1 X338.0 Y28.5
M3 S255
G1 X337.0 Y28.5
M3 S0
G0 X328.0 Y28.5
M3 S255
G1 X328.0 Y28.5
M3 S255
G1 X317.0 Y28.5
M3 S0
G0 X314.5 Y28.5
M3 S255
G1 X314.5 Y28.5
M3 S255
G1 X64.5 Y28.5
M3 S0
G0 X59.5 Y28.5
M3 S255
G1 X59.5 Y28.5
M3 S255
G1 X0.5 Y28.5
M3 S0
M5 S0
G0 X3.5 Y29.0
M3 S255
G1 X3.5 Y29.0
M3 S255
G1 X58.5 Y29.0
M3 S0
G0 X66.0 Y29.0
M3 S255
G1 X66.0 Y29.0
M3 S255
G1 X84.5 Y29.0
M3 S0
G0 X87.0 Y29.0
M3 S255
G1 X87.0 Y29.0
M3 S255
G1 X314.5 Y29.0
M3 S0
G0 X317.0 Y29.0
M3 S255
G1 X317.0 Y29.0
M3 S255
G1 X329.5 Y29.0
M3 S0
G0 X334.5 Y29.0
M3 S255
G1 X334.5 Y29.0
M3 S255
G1 X338.0 Y29.0
M3 S0
G0 X339.5 Y29.0
M3 S255
G1 X339.5 Y29.0
M3 S255
G1 X378.5 Y29.0
M3 S0
G0 X379.5 Y29.0
M3 S255
G1 X379.5 Y29.0
M3 S255
G1 X392.0 Y29.0
M3 S0
G0 X394.5 Y29.0
M3 S255
G1 X394.5 Y29.0
M3 S255
G1 X399.5 Y29.0
M5 S0
G0 X399.5 Y29.5
M3 S255
G1 X394.5 Y29.5
M3 S0
G0 X392.0 Y29.5
M3 S255
G1 X392.0 Y29.5
M3 S255
G1 X379.5 Y29.5
M3 S0
G0 X378.5 Y29.5
M3 S255
G1 X378.5 Y29.5
M3 S255
G1 X339.5 Y29.5
M3 S0
G0 X338.0 Y29.5
M3 S255
G1 X338.0 Y29.5
M3 S255
G1 X334.5 Y29.5
M3 S0
G0 X329.5 Y29.5
M3 S255
G1 X329.5 Y29.5
M3 S255
G1 X317.0 Y29.5
M3 S0
G0 X314.5 Y29.5
M3 S255
G1 X314.5 Y29.5
M3 S255
G1 X87.0 Y29.5
M3 S0
G0 X84.5 Y29.5
M3 S255
G1 X84.5 Y29.5
M3 S255
G1 X66.0 Y29.5
M3 S0
G0 X58.5 Y29.5
M3 S255
G1 X58.5 Y29.5
M3 S255
G1 X3.5 Y29.5
M3 S0
M5 S0
G0 X3.5 Y30.0
M3 S255
G1 X3.5 Y30.0
M3 S255
G1 X56.0 Y30.0
M3 S0
G0 X66.0 Y30.0
M3 S255
G1 X66.0 Y30.0
M3 S255
G1 X82.0 Y30.0
M3 S0
G0 X87.0 Y30.0
M3 S255
G1 X87.0 Y30.0
M3 S255
G1 X314.5 Y30.0
M3 S0
G0 X315.5 Y30.0
M3 S255
G1 X315.5 Y30.0
M3 S255
G1 X338.0 Y30.0
M3 S0
G0 X339.5 Y30.0
M3 S255
G1 X339.5 Y30.0
M3 S255
G1 X393.5 Y30.0
M3 S0
G0 X394.5 Y30.0
M3 S255
G1 X394.5 Y30.0
M3 S255
G1 X399.5 Y30.0
M5 S0
G0 X399.5 Y30.5
M3 S255
G1 X394.5 Y30.5
M3 S0
G0 X393.5 Y30.5
M3 S255
G1 X393.5 Y30.5
M3 S255
G1 X339.5 Y30.5
M3 S0
G0 X338.0 Y30.5
M3 S255
G1 X338.0 Y30.5
M3 S255
G1 X315.5 Y30.5
M3 S0
G0 X314.5 Y30.5
M3 S255
G1 X314.5 Y30.5
M3 S255
G1 X87.0 Y30.5
M3 S0
G0 X82.0 Y30.5
M3 S255
G1 X82.0 Y30.5
M3 S255
G1 X66.0 Y30.5
M3 S0
G0 X56.0 Y30.5
M3 S255
G1 X56.0 Y30.5
M3 S255
G1 X3.5 Y30.5
M3 S0
M5 S0
G0 X3.5 Y31.0
M3 S255
G1 X3.5 Y31.0
M3 S255
G1 X56.0 Y31.0
M3 S0
G0 X66.0 Y31.0
M3 S255
G1 X66.0 Y31.0
M3 S255
G1 X82.0 Y31.0
M3 S0
G0 X87.0 Y31.0
M3 S255
G1 X87.0 Y31.0
M3 S255
G1 X314.5 Y31.0
M3 S0
G0 X315.5 Y31.0
M3 S255
G1 X315.5 Y31.0
M3 S255
G1 X338.0 Y31.0
M3 S0
G0 X339.5 Y31.0
M3 S255
G1 X339.5 Y31.0
M3 S255
G1 X393.5 Y31.0
M3 S0
G0 X394.5 Y31.0
M3 S255
G1 X394.5 Y31.0
M3 S255
G1 X399.5 Y31.0
M5 S0
G0 X398.5 Y31.5
M3 S255
G1 X398.5 Y31.5
M3 S255
G1 X396.0 Y31.5
M3 S0
G0 X392.0 Y31.5
M3 S255
G1 X392.0 Y31.5
M3 S255
G1 X339.5 Y31.5
M3 S0
G0 X337.0 Y31.5
M3 S255
G1 X337.0 Y31.5
M3 S255
G1 X87.0 Y31.5
M3 S0
G0 X79.5 Y31.5
M3 S255
G1 X79.5 Y31.5
M3 S255
G1 X66.0 Y31.5
M3 S0
G0 X54.5 Y31.5
M3 S255
G1 X54.5 Y31.5
M3 S255
G1 X2.0 Y31.5
M3 S0
M5 S0
G0 X2.0 Y32.0
M3 S255
G1 X2.0 Y32.0
M3 S255
G1 X54.5 Y32.0
M3 S0
G0 X66.0 Y32.0
M3 S255
G1 X66.0 Y32.0
M3 S255
G1 X79.5 Y32.0
M3 S0
G0 X87.0 Y32.0
M3 S255
G1 X87.0 Y32.0
M3 S255
G1 X337.0 Y32.0
M3 S0
G0 X339.5 Y32.0
M3 S255
G1 X339.5 Y32.0
M3 S255
G1 X392.0 Y32.0
M3 S0
G0 X396.0 Y32.0
M3 S255
G1 X396.0 Y32.0
M3 S255
G1 X398.5 Y32.0
M3 S0
M5 S0
G0 X392.0 Y32.5
M3 S255
G1 X392.0 Y32.5
M3 S255
G1 X339.5 Y32.5
M3 S0
G0 X337.0 Y32.5
M3 S255
G1 X337.0 Y32.5
M3 S255
G1 X88.5 Y32.5
M3 S0
G0 X78.5 Y32.5
M3 S255
G1 X78.5 Y32.5
M3 S255
G1 X66.0 Y32.5
M3 S0
G0 X61.0 Y32.5
M3 S255
G1 X61.0 Y32.5
M3 S255
G1 X59.5 Y32.5
M3 S0
G0 X54.5 Y32.5
M3 S255
G1 X54.5 Y32.5
M3 S255
G1 X2.0 Y32.5
M3 S0
M5 S0
G0 X2.0 Y33.0
M3 S255
G1 X2.0 Y33.0
M3 S255
G1 X54.5 Y33.0
M3 S0
G0 X59.5 Y33.0
M3 S255
G1 X59.5 Y33.0
M3 S255
G1 X61.0 Y33.0
M3 S0
G0 X66.0 Y33.0
M3 S255
G1 X66.0 Y33.0
M3 S255
G1 X78.5 Y33.0
M3 S0
G0 X88.5 Y33.0
M3 S255
G1 X88.5 Y33.0
M3 S255
G1 X337.0 Y33.0
M3 S0
G0 X339.5 Y33.0
M3 S255
G1 X339.5 Y33.0
M3 S255
G1 X392.0 Y33.0
M3 S0
M5 S0
G0 X392.0 Y33.5
M3 S255
G1 X392.0 Y33.5
M3 S255
G1 X339.5 Y33.5
M3 S0
G0 X337.0 Y33.5
M3 S255
G1 X337.0 Y33.5
M3 S255
G1 X88.5 Y33.5
M3 S0
G0 X78.5 Y33.5
M3 S255
G1 X78.5 Y33.5
M3 S255
G1 X66.0 Y33.5
M3 S0
G0 X61.0 Y33.5
M3 S255
G1 X61.0 Y33.5
M3 S255
G1 X59.5 Y33.5
M3 S0
G0 X54.5 Y33.5
M3 S255
G1 X54.5 Y33.5
M3 S255
G1 X2.0 Y33.5
M3 S0
M5 S0
G0 X2.0 Y34.0
M3 S255
G1 X2.0 Y34.0
M3 S255
G1 X48.5 Y34.0
M3 S0
G0 X53.5 Y34.0
M3 S255
G1 X53.5 Y34.0
M3 S255
G1 X54.5 Y34.0
M3 S0
G0 X66.0 Y34.0
M3 S255
G1 X66.0 Y34.0
M3 S255
G1 X77.0 Y34.0
M3 S0
G0 X88.5 Y34.0
M3 S255
G1 X88.5 Y34.0
M3 S255
G1 X337.0 Y34.0
M3 S0
G0 X339.5 Y34.0
M3 S255
G1 X339.5 Y34.0
M3 S255
G1 X392.0 Y34.0
M3 S0
M5 S0
G0 X392.0 Y34.5
M3 S255
G1 X392.0 Y34.5
M3 S255
G1 X339.5 Y34.5
M3 S0
G0 X337.0 Y34.5
M3 S255
G1 X337.0 Y34.5
M3 S255
G1 X88.5 Y34.5
M3 S0
G0 X77.0 Y34.5
M3 S255
G1 X77.0 Y34.5
M3 S255
G1 X66.0 Y34.5
M3 S0
G0 X54.5 Y34.5
M3 S255
G1 X54.5 Y34.5
M3 S255
G1 X53.5 Y34.5
M3 S0
G0 X48.5 Y34.5
M3 S255
G1 X48.5 Y34.5
M3 S255
G1 X2.0 Y34.5
M3 S0
M5 S0
G0 X3.5 Y35.0
M3 S255
G1 X3.5 Y35.0
M3 S255
G1 X47.0 Y35.0
M3 S0
G0 X53.5 Y35.0
M3 S255
G1 X53.5 Y35.0
M3 S255
G1 X54.5 Y35.0
M3 S0
G0 X66.0 Y35.0
M3 S255
G1 X66.0 Y35.0
M3 S255
G1 X76.0 Y35.0
M3 S0
G0 X88.5 Y35.0
M3 S255
G1 X88.5 Y35.0
M3 S255
G1 X270.5 Y35.0
M3 S0
G0 X272.0 Y35.0
M3 S255
G1 X272.0 Y35.0
M3 S255
G1 X317.0 Y35.0
M3 S0
G0 X319.5 Y35.0
M3 S255
G1 X319.5 Y35.0
M3 S255
G1 X335.5 Y35.0
M3 S0
G0 X340.5 Y35.0
M3 S255
G1 X340.5 Y35.0
M3 S255
G1 X372.0 Y35.0
M3 S0
G0 X373.0 Y35.0
M3 S255
G1 X373.0 Y35.0
M3 S255
G1 X392.0 Y35.0
M3 S0
M5 S0
G0 X392.0 Y35.5
M3 S255
G1 X392.0 Y35.5
M3 S255
G1 X373.0 Y35.5
M3 S0
G0 X372.0 Y35.5
M3 S255
G1 X372.0 Y35.5
M3 S255
G1 X340.5 Y35.5
M3 S0
G0 X335.5 Y35.5
M3 S255
G1 X335.5 Y35.5
M3 S255
G1 X319.5 Y35.5
M3 S0
G0 X317.0 Y35.5
M3 S255
G1 X317.0 Y35.5
M3 S255
G1 X272.0 Y35.5
M3 S0
G0 X270.5 Y35.5
M3 S255
G1 X270.5 Y35.5
M3 S255
G1 X88.5 Y35.5
M3 S0
G0 X76.0 Y35.5
M3 S255
G1 X76.0 Y35.5
M3 S255
G1 X66.0 Y35.5
M3 S0
G0 X54.5 Y35.5
M3 S255
G1 X54.5 Y35.5
M3 S255
G1 X53.5 Y35.5
M3 S0
G0 X47.0 Y35.5
M3 S255
G1 X47.0 Y35.5
M3 S255
G1 X3.5 Y35.5
M3 S0
M5 S0
G0 X3.5 Y36.0
M3 S255
G1 X3.5 Y36.0
M3 S255
G1 X47.0 Y36.0
M3 S0
G0 X53.5 Y36.0
M3 S255
G1 X53.5 Y36.0
M3 S255
G1 X54.5 Y36.0
M3 S0
G0 X66.0 Y36.0
M3 S255
G1 X66.0 Y36.0
M3 S255
G1 X76.0 Y36.0
M3 S0
G0 X88.5 Y36.0
M3 S255
G1 X88.5 Y36.0
M3 S255
G1 X270.5 Y36.0
M3 S0
G0 X272.0 Y36.0
M3 S255
G1 X272.0 Y36.0
M3 S255
G1 X317.0 Y36.0
M3 S0
G0 X319.5 Y36.0
M3 S255
G1 X319.5 Y36.0
M3 S255
G1 X335.5 Y36.0
M3 S0
G0 X340.5 Y36.0
M3 S255
G1 X340.5 Y36.0
M3 S255
G1 X372.0 Y36.0
M3 S0
G0 X373.0 Y36.0
M3 S255
G1 X373.0 Y36.0
M3 S255
G1 X392.0 Y36.0
M3 S0
M5 S0
G0 X392.0 Y36.5
M3 S255
G1 X392.0 Y36.5
M3 S255
G1 X373.0 Y36.5
M3 S0
G0 X372.0 Y36.5
M3 S255
G1 X372.0 Y36.5
M3 S255
G1 X365.5 Y36.5
M3 S0
G0 X330.5 Y36.5
M3 S255
G1 X330.5 Y36.5
M3 S255
G1 X319.5 Y36.5
M3 S0
G0 X317.0 Y36.5
M3 S255
G1 X317.0 Y36.5
M3 S255
G1 X272.0 Y36.5
M3 S0
G0 X270.5 Y36.5
M3 S255
G1 X270.5 Y36.5
M3 S255
G1 X88.5 Y36.5
M3 S0
G0 X74.5 Y36.5
M3 S255
G1 X74.5 Y36.5
M3 S255
G1 X66.0 Y36.5
M3 S0
G0 X54.5 Y36.5
M3 S255
G1 X54.5 Y36.5
M3 S255
G1 X52.0 Y36.5
M3 S0
G0 X47.0 Y36.5
M3 S255
G1 X47.0 Y36.5
M3 S255
G1 X3.5 Y36.5
M3 S0
M5 S0
G0 X3.5 Y37.0
M3 S255
G1 X3.5 Y37.0
M3 S255
G1 X47.0 Y37.0
M3 S0
G0 X52.0 Y37.0
M3 S255
G1 X52.0 Y37.0
M3 S255
G1 X54.5 Y37.0
M3 S0
G0 X66.0 Y37.0
M3 S255
G1 X66.0 Y37.0
M3 S255
G1 X74.5 Y37.0
M3 S0
G0 X88.5 Y37.0
M3 S255
G1 X88.5 Y37.0
M3 S255
G1 X270.5 Y37.0
M3 S0
G0 X272.0 Y37.0
M3 S255
G1 X272.0 Y37.0
M3 S255
G1 X317.0 Y37.0
M3 S0
G0 X319.5 Y37.0
M3 S255
G1 X319.5 Y37.0
M3 S255
G1 X330.5 Y37.0
M3 S0
G0 X365.5 Y37.0
M3 S255
G1 X365.5 Y37.0
M3 S255
G1 X372.0 Y37.0
M3 S0
G0 X373.0 Y37.0
M3 S255
G1 X373.0 Y37.0
M3 S255
G1 X392.0 Y37.0
M3 S0
M5 S0
G0 X392.0 Y37.5
M3 S255
G1 X392.0 Y37.5
M3 S255
G1 X363.0 Y37.5
M3 S0
G0 X327.0 Y37.5
M3 S255
G1 X327.0 Y37.5
M3 S255
G1 X88.5 Y37.5
M3 S0
G0 X74.5 Y37.5
M3 S255
G1 X74.5 Y37.5
M3 S255
G1 X64.5 Y37.5
M3 S0
G0 X62.0 Y37.5
M3 S255
G1 X62.0 Y37.5
M3 S255
G1 X61.0 Y37.5
M3 S0
G0 X54.5 Y37.5
M3 S255
G1 X54.5 Y37.5
M3 S255
G1 X52.0 Y37.5
M3 S0
G0 X46.0 Y37.5
M3 S255
G1 X46.0 Y37.5
M3 S255
G1 X4.5 Y37.5
M3 S0
M5 S0
G0 X4.5 Y38.0
M3 S255
G1 X4.5 Y38.0
M3 S255
G1 X46.0 Y38.0
M3 S0
G0 X52.0 Y38.0
M3 S255
G1 X52.0 Y38.0
M3 S255
G1 X54.5 Y38.0
M3 S0
G0 X61.0 Y38.0
M3 S255
G1 X61.0 Y38.0
M3 S255
G1 X62.0 Y38.0
M3 S0
G0 X64.5 Y38.0
M3 S255
G1 X64.5 Y38.0
M3 S255
G1 X74.5 Y38.0
M3 S0
G0 X88.5 Y38.0
M3 S255
G1 X88.5 Y38.0
M3 S255
G1 X327.0 Y38.0
M3 S0
G0 X363.0 Y38.0
M3 S255
G1 X363.0 Y38.0
M3 S255
G1 X392.0 Y38.0
M3 S0
M5 S0
G0 X392.0 Y38.5
M3 S255
G1 X392.0 Y38.5
M3 S255
G1 X363.0 Y38.5
M3 S0
G0 X327.0 Y38.5
M3 S255
G1 X327.0 Y38.5
M3 S255
G1 X88.5 Y38.5
M3 S0
G0 X74.5 Y38.5
M3 S255
G1 X74.5 Y38.5
M3 S255
G1 X64.5 Y38.5
M3 S0
G0 X62.0 Y38.5
M3 S255
G1 X62.0 Y38.5
M3 S255
G1 X61.0 Y38.5
M3 S0
G0 X54.5 Y38.5
M3 S255
G1 X54.5 Y38.5
M3 S255
G1 X52.0 Y38.5
M3 S0
G0 X46.0 Y38.5
M3 S255
G1 X46.0 Y38.5
M3 S255
G1 X4.5 Y38.5
M3 S0
M5 S0
G0 X4.5 Y39.0
M3 S255
G1 X4.5 Y39.0
M3 S255
G1 X44.5 Y39.0
M3 S0
G0 X52.0 Y39.0
M3 S255
G1 X52.0 Y39.0
M3 S255
G1 X54.5 Y39.0
M3 S0
G0 X62.0 Y39.0
M3 S255
G1 X62.0 Y39.0
M3 S255
G1 X73.5 Y39.0
M3 S0
G0 X88.5 Y39.0
M3 S255
G1 X88.5 Y39.0
M3 S255
G1 X112.0 Y39.0
M3 S0
G0 X114.5 Y39.0
M3 S255
G1 X114.5 Y39.0
M3 S255
G1 X329.5 Y39.0
M3 S0
G0 X360.5 Y39.0
M3 S255
G1 X360.5 Y39.0
M3 S255
G1 X392.0 Y39.0
M3 S0
M5 S0
G0 X392.0 Y39.5
M3 S255
G1 X392.0 Y39.5
M3 S255
G1 X360.5 Y39.5
M3 S0
G0 X329.5 Y39.5
M3 S255
G1 X329.5 Y39.5
M3 S255
G1 X114.5 Y39.5
M3 S0
G0 X112.0 Y39.5
M3 S255
G1 X112.0 Y39.5
M3 S255
G1 X88.5 Y39.5
M3 S0
G0 X73.5 Y39.5
M3 S255
G1 X73.5 Y39.5
M3 S255
G1 X62.0 Y39.5
M3 S0
G0 X54.5 Y39.5
M3 S255
G1 X54.5 Y39.5
M3 S255
G1 X52.0 Y39.5
M3 S0
G0 X44.5 Y39.5
M3 S255
G1 X44.5 Y39.5
M3 S255
G1 X4.5 Y39.5
M3 S0
M5 S0
G0 X5.5 Y40.0
M3 S255
G1 X5.5 Y40.0
M3 S255
G1 X43.5 Y40.0
M3 S0
G0 X52.0 Y40.0
M3 S255
G1 X52.0 Y40.0
M3 S255
G1 X54.5 Y40.0
M3 S0
G0 X62.0 Y40.0
M3 S255
G1 X62.0 Y40.0
M3 S255
G1 X73.5 Y40.0
M3 S0
G0 X88.5 Y40.0
M3 S255
G1 X88.5 Y40.0
M3 S255
G1 X110.5 Y40.0
M3 S0
G0 X115.5 Y40.0
M3 S255
G1 X115.5 Y40.0
M3 S255
G1 X317.0 Y40.0
M3 S0
G0 X318.0 Y40.0
M3 S255
G1 X318.0 Y40.0
M3 S255
G1 X329.5 Y40.0
M3 S0
G0 X358.0 Y40.0
M3 S255
G1 X358.0 Y40.0
M3 S255
G1 X370.5 Y40.0
M3 S0
G0 X372.0 Y40.0
M3 S255
G1 X372.0 Y40.0
M3 S255
G1 X392.0 Y40.0
M3 S0
M5 S0
G0 X392.0 Y40.5
M3 S255
G1 X392.0 Y40.5
M3 S255
G1 X372.0 Y40.5
M3 S0
G0 X370.5 Y40.5
M3 S255
G1 X370.5 Y40.5
M3 S255
G1 X358.0 Y40.5
M3 S0
G0 X329.5 Y40.5
M3 S255
G1 X329.5 Y40.5
M3 S255
G1 X318.0 Y40.5
M3 S0
G0 X317.0 Y40.5
M3 S255
G1 X317.0 Y40.5
M3 S255
G1 X115.5 Y40.5
M3 S0
G0 X110.5 Y40.5
M3 S255
G1 X110.5 Y40.5
M3 S255
G1 X88.5 Y40.5
M3 S0
G0 X73.5 Y40.5
M3 S255
G1 X73.5 Y40.5
M3 S255
G1 X62.0 Y40.5
M3 S0
G0 X54.5 Y40.5
M3 S255
G1 X54.5 Y40.5
M3 S255
G1 X52.0 Y40.5
M3 S0
G0 X43.5 Y40.5
M3 S255
G1 X43.5 Y40.5
M3 S255
G1 X5.5 Y40.5
M3 S0
M5 S0
G0 X5.5 Y41.0
M3 S255
G1 X5.5 Y41.0
M3 S255
G1 X43.5 Y41.0
M3 S0
G0 X52.0 Y41.0
M3 S255
G1 X52.0 Y41.0
M3 S255
G1 X54.5 Y41.0
M3 S0
G0 X62.0 Y41.0
M3 S255
G1 X62.0 Y41.0
M3 S255
G1 X73.5 Y41.0
M3 S0
G0 X88.5 Y41.0
M3 S255
G1 X88.5 Y41.0
M3 S255
G1 X110.5 Y41.0
M3 S0
G0 X115.5 Y41.0
M3 S255
G1 X115.5 Y41.0
M3 S255
G1 X317.0 Y41.0
M3 S0
G0 X318.0 Y41.0
M3 S255
G1 X318.0 Y41.0
M3 S255
G1 X329.5 Y41.0
M3 S0
G0 X358.0 Y41.0
M3 S255
G1 X358.0 Y41.0
M3 S255
G1 X370.5 Y41.0
M3 S0
G0 X372.0 Y41.0
M3 S255
G1 X372.0 Y41.0
M3 S255
G1 X392.0 Y41.0
M3 S0
M5 S0
G0 X392.0 Y41.5
M3 S255
G1 X392.0 Y41.5
M3 S255
G1 X372.0 Y41.5
M3 S0
G0 X370.5 Y41.5
M3 S255
G1 X370.5 Y41.5
M3 S255
G1 X355.5 Y41.5
M3 S0
G0 X329.5 Y41.5
M3 S255
G1 X329.5 Y41.5
M3 S255
G1 X318.0 Y41.5
M3 S0
G0 X317.0 Y41.5
M3 S255
G1 X317.0 Y41.5
M3 S255
G1 X308.0 Y41.5
M3 S0
G0 X307.0 Y41.5
M3 S255
G1 X307.0 Y41.5
M3 S255
G1 X118.0 Y41.5
M3 S0
G0 X107.0 Y41.5
M3 S255
G1 X107.0 Y41.5
M3 S255
G1 X104.5 Y41.5
M3 S0
G0 X99.5 Y41.5
M3 S255
G1 X99.5 Y41.5
M3 S255
G1 X87.0 Y41.5
M3 S0
G0 X73.5 Y41.5
M3 S255
G1 X73.5 Y41.5
M3 S255
G1 X63.5 Y41.5
M3 S0
G0 X54.5 Y41.5
M3 S255
G1 X54.5 Y41.5
M3 S255
G1 X52.0 Y41.5
M3 S0
G0 X42.0 Y41.5
M3 S255
G1 X42.0 Y41.5
M3 S255
G1 X4.5 Y41.5
M3 S0
M5 S0
G0 X4.5 Y42.0
M3 S255
G1 X4.5 Y42.0
M3 S255
G1 X42.0 Y42.0
M3 S0
G0 X52.0 Y42.0
M3 S255
G1 X52.0 Y42.0
M3 S255
G1 X54.5 Y42.0
M3 S0
G0 X63.5 Y42.0
M3 S255
G1 X63.5 Y42.0
M3 S255
G1 X73.5 Y42.0
M3 S0
G0 X87.0 Y42.0
M3 S255
G1 X87.0 Y42.0
M3 S255
G1 X99.5 Y42.0
M3 S0
G0 X104.5 Y42.0
M3 S255
G1 X104.5 Y42.0
M3 S255
G1 X107.0 Y42.0
M3 S0
G0 X118.0 Y42.0
M3 S255
G1 X118.0 Y42.0
M3 S255
G1 X307.0 Y42.0
M3 S0
G0 X308.0 Y42.0
M3 S255
G1 X308.0 Y42.0
M3 S255
G1 X317.0 Y42.0
M3 S0
G0 X318.0 Y42.0
M3 S255
G1 X318.0 Y42.0
M3 S255
G1 X329.5 Y42.0
M3 S0
G0 X355.5 Y42.0
M3 S255
G1 X355.5 Y42.0
M3 S255
G1 X370.5 Y42.0
M3 S0
G0 X372.0 Y42.0
M3 S255
G1 X372.0 Y42.0
M3 S255
G1 X392.0 Y42.0
M3 S0
M5 S0
G0 X399.5 Y42.5
M3 S255
G1 X372.0 Y42.5
M3 S0
G0 X370.5 Y42.5
M3 S255
G1 X370.5 Y42.5
M3 S255
G1 X318.0 Y42.5
M3 S0
G0 X317.0 Y42.5
M3 S255
G1 X317.0 Y42.5
M3 S255
G1 X119.5 Y42.5
M3 S0
G0 X97.0 Y42.5
M3 S255
G1 X97.0 Y42.5
M3 S255
G1 X86.0 Y42.5
M3 S0
G0 X73.5 Y42.5
M3 S255
G1 X73.5 Y42.5
M3 S255
G1 X64.5 Y42.5
M3 S0
G0 X54.5 Y42.5
M3 S255
G1 X54.5 Y42.5
M3 S255
G1 X52.0 Y42.5
M3 S0
G0 X41.0 Y42.5
M3 S255
G1 X41.0 Y42.5
M3 S255
G1 X4.5 Y42.5
M3 S0
M5 S0
G0 X4.5 Y43.0
M3 S255
G1 X4.5 Y43.0
M3 S255
G1 X41.0 Y43.0
M3 S0
G0 X52.0 Y43.0
M3 S255
G1 X52.0 Y43.0
M3 S255
G1 X54.5 Y43.0
M3 S0
G0 X64.5 Y43.0
M3 S255
G1 X64.5 Y43.0
M3 S255
G1 X73.5 Y43.0
M3 S0
G0 X86.0 Y43.0
M3 S255
G1 X86.0 Y43.0
M3 S255
G1 X97.0 Y43.0
M3 S0
G0 X119.5 Y43.0
M3 S255
G1 X119.5 Y43.0
M3 S255
G1 X317.0 Y43.0
M3 S0
G0 X318.0 Y43.0
M3 S255
G1 X318.0 Y43.0
M3 S255
G1 X370.5 Y43.0
M3 S0
G0 X372.0 Y43.0
M3 S255
G1 X372.0 Y43.0
M3 S255
G1 X399.5 Y43.0
M5 S0
G0 X399.5 Y43.5
M3 S255
G1 X372.0 Y43.5
M3 S0
G0 X370.5 Y43.5
M3 S255
G1 X370.5 Y43.5
M3 S255
G1 X318.0 Y43.5
M3 S0
G0 X317.0 Y43.5
M3 S255
G1 X317.0 Y43.5
M3 S255
G1 X119.5 Y43.5
M3 S0
G0 X97.0 Y43.5
M3 S255
G1 X97.0 Y43.5
M3 S255
G1 X86.0 Y43.5
M3 S0
G0 X73.5 Y43.5
M3 S255
G1 X73.5 Y43.5
M3 S255
G1 X64.5 Y43.5
M3 S0
G0 X54.5 Y43.5
M3 S255
G1 X54.5 Y43.5
M3 S255
G1 X52.0 Y43.5
M3 S0
G0 X41.0 Y43.5
M3 S255
G1 X41.0 Y43.5
M3 S255
G1 X4.5 Y43.5
M3 S0
M5 S0
G0 X4.5 Y44.0
M3 S255
G1 X4.5 Y44.0
M3 S255
G1 X39.5 Y44.0
M3 S0
G0 X52.0 Y44.0
M3 S255
G1 X52.0 Y44.0
M3 S255
G1 X54.5 Y44.0
M3 S0
G0 X64.5 Y44.0
M3 S255
G1 X64.5 Y44.0
M3 S255
G1 X73.5 Y44.0
M3 S0
G0 X84.5 Y44.0
M3 S255
G1 X84.5 Y44.0
M3 S255
G1 X95.5 Y44.0
M3 S0
G0 X120.5 Y44.0
M3 S255
G1 X120.5 Y44.0
M3 S255
G1 X317.0 Y44.0
M3 S0
G0 X318.0 Y44.0
M3 S255
G1 X318.0 Y44.0
M3 S255
G1 X399.5 Y44.0
M5 S0
G0 X399.5 Y44.5
M3 S255
G1 X318.0 Y44.5
M3 S0
G0 X317.0 Y44.5
M3 S255
G1 X317.0 Y44.5
M3 S255
G1 X120.5 Y44.5
M3 S0
G0 X95.5 Y44.5
M3 S255
G1 X95.5 Y44.5
M3 S255
G1 X84.5 Y44.5
M3 S0
G0 X73.5 Y44.5
M3 S255
G1 X73.5 Y44.5
M3 S255
G1 X64.5 Y44.5
M3 S0
G0 X54.5 Y44.5
M3 S255
G1 X54.5 Y44.5
M3 S255
G1 X52.0 Y44.5
M3 S0
G0 X39.5 Y44.5
M3 S255
G1 X39.5 Y44.5
M3 S255
G1 X4.5 Y44.5
M3 S0
M5 S0
G0 X4.5 Y45.0
M3 S255
G1 X4.5 Y45.0
M3 S255
G1 X39.5 Y45.0
M3 S0
G0 X52.0 Y45.0
M3 S255
G1 X52.0 Y45.0
M3 S255
G1 X54.5 Y45.0
M3 S0
G0 X64.5 Y45.0
M3 S255
G1 X64.5 Y45.0
M3 S255
G1 X73.5 Y45.0
M3 S0
G0 X84.5 Y45.0
M3 S255
G1 X84.5 Y45.0
M3 S255
G1 X94.5 Y45.0
M3 S0
G0 X108.0 Y45.0
M3 S255
G1 X108.0 Y45.0
M3 S255
G1 X112.0 Y45.0
M3 S0
G0 X117.0 Y45.0
M3 S255
G1 X117.0 Y45.0
M3 S255
G1 X119.5 Y45.0
M3 S0
G0 X120.5 Y45.0
M3 S255
G1 X120.5 Y45.0
M3 S255
G1 X307.0 Y45.0
M3 S0
G0 X308.0 Y45.0
M3 S255
G1 X308.0 Y45.0
M3 S255
G1 X314.5 Y45.0
M3 S0
G0 X318.0 Y45.0
M3 S255
G1 X318.0 Y45.0
M3 S255
G1 X368.0 Y45.0
M3 S0
G0 X372.0 Y45.0
M3 S255
G1 X372.0 Y45.0
M3 S255
G1 X399.5 Y45.0
M5 S0
G0 X399.5 Y45.5
M3 S255
G1 X372.0 Y45.5
M3 S0
G0 X368.0 Y45.5
M3 S255
G1 X368.0 Y45.5
M3 S255
G1 X318.0 Y45.5
M3 S0
G0 X314.5 Y45.5
M3 S255
G1 X314.5 Y45.5
M3 S255
G1 X308.0 Y45.5
M3 S0
G0 X307.0 Y45.5
M3 S255
G1 X307.0 Y45.5
M3 S255
G1 X120.5 Y45.5
M3 S0
G0 X119.5 Y45.5
M3 S255
G1 X119.5 Y45.5
M3 S255
G1 X117.0 Y45.5
M3 S0
G0 X112.0 Y45.5
M3 S255
G1 X112.0 Y45.5
M3 S255
G1 X108.0 Y45.5
M3 S0
G0 X94.5 Y45.5
M3 S255
G1 X94.5 Y45.5
M3 S255
G1 X84.5 Y45.5
M3 S0
G0 X73.5 Y45.5
M3 S255
G1 X73.5 Y45.5
M3 S255
G1 X64.5 Y45.5
M3 S0
G0 X54.5 Y45.5
M3 S255
G1 X54.5 Y45.5
M3 S255
G1 X52.0 Y45.5
M3 S0
G0 X39.5 Y45.5
M3 S255
G1 X39.5 Y45.5
M3 S255
G1 X4.5 Y45.5
M3 S0
M5 S0
G0 X4.5 Y46.0
M3 S255
G1 X4.5 Y46.0
M3 S255
G1 X39.5 Y46.0
M3 S0
G0 X52.0 Y46.0
M3 S255
G1 X52.0 Y46.0
M3 S255
G1 X54.5 Y46.0
M3 S0
G0 X64.5 Y46.0
M3 S255
G1 X64.5 Y46.0
M3 S255
G1 X73.5 Y46.0
M3 S0
G0 X84.5 Y46.0
M3 S255
G1 X84.5 Y46.0
M3 S255
G1 X94.5 Y46.0
M3 S0
G0 X108.0 Y46.0
M3 S255
G1 X108.0 Y46.0
M3 S255
G1 X112.0 Y46.0
M3 S0
G0 X117.0 Y46.0
M3 S255
G1 X117.0 Y46.0
M3 S255
G1 X119.5 Y46.0
M3 S0
G0 X120.5 Y46.0
M3 S255
G1 X120.5 Y46.0
M3 S255
G1 X307.0 Y46.0
M3 S0
G0 X308.0 Y46.0
M3 S255
G1 X308.0 Y46.0
M3 S255
G1 X314.5 Y46.0
M3 S0
G0 X318.0 Y46.0
M3 S255
G1 X318.0 Y46.0
M3 S255
G1 X368.0 Y46.0
M3 S0
G0 X372.0 Y46.0
M3 S255
G1 X372.0 Y46.0
M3 S255
G1 X399.5 Y46.0
M5 S0
G0 X399.5 Y46.5
M3 S255
G1 X317.0 Y46.5
M3 S0
G0 X315.5 Y46.5
M3 S255
G1 X315.5 Y46.5
M3 S255
G1 X167.0 Y46.5
M3 S0
G0 X162.0 Y46.5
M3 S255
G1 X162.0 Y46.5
M3 S255
G1 X107.0 Y46.5
M3 S0
G0 X93.0 Y46.5
M3 S255
G1 X93.0 Y46.5
M3 S255
G1 X84.5 Y46.5
M3 S0
G0 X73.5 Y46.5
M3 S255
G1 X73.5 Y46.5
M3 S255
G1 X64.5 Y46.5
M3 S0
G0 X54.5 Y46.5
M3 S255
G1 X54.5 Y46.5
M3 S255
G1 X51.0 Y46.5
M3 S0
G0 X39.5 Y46.5
M3 S255
G1 X39.5 Y46.5
M3 S255
G1 X4.5 Y46.5
M3 S0
M5 S0
G0 X4.5 Y47.0
M3 S255
G1 X4.5 Y47.0
M3 S255
G1 X39.5 Y47.0
M3 S0
G0 X51.0 Y47.0
M3 S255
G1 X51.0 Y47.0
M3 S255
G1 X54.5 Y47.0
M3 S0
G0 X64.5 Y47.0
M3 S255
G1 X64.5 Y47.0
M3 S255
G1 X73.5 Y47.0
M3 S0
G0 X84.5 Y47.0
M3 S255
G1 X84.5 Y47.0
M3 S255
G1 X93.0 Y47.0
M3 S0
G0 X107.0 Y47.0
M3 S255
G1 X107.0 Y47.0
M3 S255
G1 X162.0 Y47.0
M3 S0
G0 X167.0 Y47.0
M3 S255
G1 X167.0 Y47.0
M3 S255
G1 X315.5 Y47.0
M3 S0
G0 X317.0 Y47.0
M3 S255
G1 X317.0 Y47.0
M3 S255
G1 X399.5 Y47.0
M5 S0
G0 X399.5 Y47.5
M3 S255
G1 X170.5 Y47.5
M3 S0
G0 X160.5 Y47.5
M3 S255
G1 X160.5 Y47.5
M3 S255
G1 X102.0 Y47.5
M3 S0
G0 X93.0 Y47.5
M3 S255
G1 X93.0 Y47.5
M3 S255
G1 X86.0 Y47.5
M3 S0
G0 X73.5 Y47.5
M3 S255
G1 X73.5 Y47.5
M3 S255
G1 X66.0 Y47.5
M3 S0
G0 X54.5 Y47.5
M3 S255
G1 X54.5 Y47.5
M3 S255
G1 X49.5 Y47.5
M3 S0
G0 X48.5 Y47.5
M3 S255
G1 X48.5 Y47.5
M3 S255
G1 X47.0 Y47.5
M3 S0
G0 X39.5 Y47.5
M3 S255
G1 X39.5 Y47.5
M3 S255
G1 X4.5 Y47.5
M3 S0
M5 S0
G0 X4.5 Y48.0
M3 S255
G1 X4.5 Y48.0
M3 S255
G1 X39.5 Y48.0
M3 S0
G0 X47.0 Y48.0
M3 S255
G1 X47.0 Y48.0
M3 S255
G1 X48.5 Y48.0
M3 S0
G0 X49.5 Y48.0
M3 S255
G1 X49.5 Y48.0
M3 S255
G1 X54.5 Y48.0
M3 S0
G0 X66.0 Y48.0
M3 S255
G1 X66.0 Y48.0
M3 S255
G1 X73.5 Y48.0
M3 S0
G0 X86.0 Y48.0
M3 S255
G1 X86.0 Y48.0
M3 S255
G1 X93.0 Y48.0
M3 S0
G0 X102.0 Y48.0
M3 S255
G1 X102.0 Y48.0
M3 S255
G1 X160.5 Y48.0
M3 S0
G0 X170.5 Y48.0
M3 S255
G1 X170.5 Y48.0
M3 S255
G1 X399.5 Y48.0
M5 S0
G0 X399.5 Y48.5
M3 S255
G1 X170.5 Y48.5
M3 S0
G0 X160.5 Y48.5
M3 S255
G1 X160.5 Y48.5
M3 S255
G1 X102.0 Y48.5
M3 S0
G0 X93.0 Y48.5
M3 S255
G1 X93.0 Y48.5
M3 S255
G1 X86.0 Y48.5
M3 S0
G0 X73.5 Y48.5
M3 S255
G1 X73.5 Y48.5
M3 S255
G1 X66.0 Y48.5
M3 S0
G0 X54.5 Y48.5
M3 S255
G1 X54.5 Y48.5
M3 S255
G1 X49.5 Y48.5
M3 S0
G0 X48.5 Y48.5
M3 S255
G1 X48.5 Y48.5
M3 S255
G1 X47.0 Y48.5
M3 S0
G0 X39.5 Y48.5
M3 S255
G1 X39.5 Y48.5
M3 S255
G1 X4.5 Y48.5
M3 S0
M5 S0
G0 X3.5 Y49.0
M3 S255
G1 X3.5 Y49.0
M3 S255
G1 X38.5 Y49.0
M3 S0
G0 X47.0 Y49.0
M3 S255
G1 X47.0 Y49.0
M3 S255
G1 X56.0 Y49.0
M3 S0
G0 X66.0 Y49.0
M3 S255
G1 X66.0 Y49.0
M3 S255
G1 X73.5 Y49.0
M3 S0
G0 X86.0 Y49.0
M3 S255
G1 X86.0 Y49.0
M3 S255
G1 X92.0 Y49.0
M3 S0
G0 X100.5 Y49.0
M3 S255
G1 X100.5 Y49.0
M3 S255
G1 X157.0 Y49.0
M3 S0
G0 X172.0 Y49.0
M3 S255
G1 X172.0 Y49.0
M3 S255
G1 X175.5 Y49.0
M3 S0
G0 X177.0 Y49.0
M3 S255
G1 X177.0 Y49.0
M3 S255
G1 X399.5 Y49.0
M5 S0
G0 X399.5 Y49.5
M3 S255
G1 X177.0 Y49.5
M3 S0
G0 X175.5 Y49.5
M3 S255
G1 X175.5 Y49.5
M3 S255
G1 X172.0 Y49.5
M3 S0
G0 X157.0 Y49.5
M3 S255
G1 X157.0 Y49.5
M3 S255
G1 X100.5 Y49.5
M3 S0
G0 X92.0 Y49.5
M3 S255
G1 X92.0 Y49.5
M3 S255
G1 X86.0 Y49.5
M3 S0
G0 X73.5 Y49.5
M3 S255
G1 X73.5 Y49.5
M3 S255
G1 X66.0 Y49.5
M3 S0
G0 X56.0 Y49.5
M3 S255
G1 X56.0 Y49.5
M3 S255
G1 X47.0 Y49.5
M3 S0
G0 X38.5 Y49.5
M3 S255
G1 X38.5 Y49.5
M3 S255
G1 X3.5 Y49.5
M3 S0
M5 S0
G0 X3.5 Y50.0
M3 S255
G1 X3.5 Y50.0
M3 S255
G1 X38.5 Y50.0
M3 S0
G0 X48.5 Y50.0
M3 S255
G1 X48.5 Y50.0
M3 S255
G1 X56.0 Y50.0
M3 S0
G0 X67.0 Y50.0
M3 S255
G1 X67.0 Y50.0
M3 S255
G1 X73.5 Y50.0
M3 S0
G0 X86.0 Y50.0
M3 S255
G1 X86.0 Y50.0
M3 S255
G1 X92.0 Y50.0
M3 S0
G0 X99.5 Y50.0
M3 S255
G1 X99.5 Y50.0
M3 S255
G1 X157.0 Y50.0
M3 S0
G0 X175.5 Y50.0
M3 S255
G1 X175.5 Y50.0
M3 S255
G1 X177.0 Y50.0
M3 S0
G0 X178.0 Y50.0
M3 S255
G1 X178.0 Y50.0
M3 S255
G1 X269.5 Y50.0
M3 S0
G0 X270.5 Y50.0
M3 S255
G1 X270.5 Y50.0
M3 S255
G1 X399.5 Y50.0
M5 S0
G0 X399.5 Y50.5
M3 S255
G1 X270.5 Y50.5
M3 S0
G0 X269.5 Y50.5
M3 S255
G1 X269.5 Y50.5
M3 S255
G1 X178.0 Y50.5
M3 S0
G0 X177.0 Y50.5
M3 S255
G1 X177.0 Y50.5
M3 S255
G1 X175.5 Y50.5
M3 S0
G0 X157.0 Y50.5
M3 S255
G1 X157.0 Y50.5
M3 S255
G1 X99.5 Y50.5
M3 S0
G0 X92.0 Y50.5
M3 S255
G1 X92.0 Y50.5
M3 S255
G1 X86.0 Y50.5
M3 S0
G0 X73.5 Y50.5
M3 S255
G1 X73.5 Y50.5
M3 S255
G1 X67.0 Y50.5
M3 S0
G0 X56.0 Y50.5
M3 S255
G1 X56.0 Y50.5
M3 S255
G1 X48.5 Y50.5
M3 S0
G0 X38.5 Y50.5
M3 S255
G1 X38.5 Y50.5
M3 S255
G1 X3.5 Y50.5
M3 S0
M5 S0
G0 X3.5 Y51.0
M3 S255
G1 X3.5 Y51.0
M3 S255
G1 X38.5 Y51.0
M3 S0
G0 X48.5 Y51.0
M3 S255
G1 X48.5 Y51.0
M3 S255
G1 X56.0 Y51.0
M3 S0
G0 X67.0 Y51.0
M3 S255
G1 X67.0 Y51.0
M3 S255
G1 X73.5 Y51.0
M3 S0
G0 X86.0 Y51.0
M3 S255
G1 X86.0 Y51.0
M3 S255
G1 X92.0 Y51.0
M3 S0
G0 X99.5 Y51.0
M3 S255
G1 X99.5 Y51.0
M3 S255
G1 X157.0 Y51.0
M3 S0
G0 X175.5 Y51.0
M3 S255
G1 X175.5 Y51.0
M3 S255
G1 X177.0 Y51.0
M3 S0
G0 X178.0 Y51.0
M3 S255
G1 X178.0 Y51.0
M3 S255
G1 X269.5 Y51.0
M3 S0
G0 X270.5 Y51.0
M3 S255
G1 X270.5 Y51.0
M3 S255
G1 X399.5 Y51.0
M5 S0
G0 X399.5 Y51.5
M3 S255
G1 X270.5 Y51.5
M3 S0
G0 X269.5 Y51.5
M3 S255
G1 X269.5 Y51.5
M3 S255
G1 X175.5 Y51.5
M3 S0
G0 X155.5 Y51.5
M3 S255
G1 X155.5 Y51.5
M3 S255
G1 X97.0 Y51.5
M3 S0
G0 X92.0 Y51.5
M3 S255
G1 X92.0 Y51.5
M3 S255
G1 X86.0 Y51.5
M3 S0
G0 X73.5 Y51.5
M3 S255
G1 X73.5 Y51.5
M3 S255
G1 X67.0 Y51.5
M3 S0
G0 X56.0 Y51.5
M3 S255
G1 X56.0 Y51.5
M3 S255
G1 X49.5 Y51.5
M3 S0
G0 X37.0 Y51.5
M3 S255
G1 X37.0 Y51.5
M3 S255
G1 X4.5 Y51.5
M3 S0
M5 S0
G0 X4.5 Y52.0
M3 S255
G1 X4.5 Y52.0
M3 S255
G1 X37.0 Y52.0
M3 S0
G0 X49.5 Y52.0
M3 S255
G1 X49.5 Y52.0
M3 S255
G1 X56.0 Y52.0
M3 S0
G0 X67.0 Y52.0
M3 S255
G1 X67.0 Y52.0
M3 S255
G1 X73.5 Y52.0
M3 S0
G0 X86.0 Y52.0
M3 S255
G1 X86.0 Y52.0
M3 S255
G1 X92.0 Y52.0
M3 S0
G0 X97.0 Y52.0
M3 S255
G1 X97.0 Y52.0
M3 S255
G1 X155.5 Y52.0
M3 S0
G0 X175.5 Y52.0
M3 S255
G1 X175.5 Y52.0
M3 S255
G1 X269.5 Y52.0
M3 S0
G0 X270.5 Y52.0
M3 S255
G1 X270.5 Y52.0
M3 S255
G1 X399.5 Y52.0
M5 S0
G0 X399.5 Y52.5
M3 S255
G1 X352.0 Y52.5
M3 S0
G0 X350.5 Y52.5
M3 S255
G1 X350.5 Y52.5
M3 S255
G1 X270.5 Y52.5
M3 S0
G0 X269.5 Y52.5
M3 S255
G1 X269.5 Y52.5
M3 S255
G1 X175.5 Y52.5
M3 S0
G0 X153.0 Y52.5
M3 S255
G1 X153.0 Y52.5
M3 S255
G1 X94.5 Y52.5
M3 S0
G0 X91.0 Y52.5
M3 S255
G1 X91.0 Y52.5
M3 S255
G1 X87.0 Y52.5
M3 S0
G0 X73.5 Y52.5
M3 S255
G1 X73.5 Y52.5
M3 S255
G1 X68.5 Y52.5
M3 S0
G0 X54.5 Y52.5
M3 S255
G1 X54.5 Y52.5
M3 S255
G1 X51.0 Y52.5
M3 S0
G0 X37.0 Y52.5
M3 S255
G1 X37.0 Y52.5
M3 S255
G1 X4.5 Y52.5
M3 S0
M5 S0
G0 X4.5 Y53.0
M3 S255
G1 X4.5 Y53.0
M3 S255
G1 X37.0 Y53.0
M3 S0
G0 X51.0 Y53.0
M3 S255
G1 X51.0 Y53.0
M3 S255
G1 X54.5 Y53.0
M3 S0
G0 X68.5 Y53.0
M3 S255
G1 X68.5 Y53.0
M3 S255
G1 X73.5 Y53.0
M3 S0
G0 X87.0 Y53.0
M3 S255
G1 X87.0 Y53.0
M3 S255
G1 X91.0 Y53.0
M3 S0
G0 X94.5 Y53.0
M3 S255
G1 X94.5 Y53.0
M3 S255
G1 X153.0 Y53.0
M3 S0
G0 X175.5 Y53.0
M3 S255
G1 X175.5 Y53.0
M3 S255
G1 X269.5 Y53.0
M3 S0
G0 X270.5 Y53.0
M3 S255
G1 X270.5 Y53.0
M3 S255
G1 X350.5 Y53.0
M3 S0
G0 X352.0 Y53.0
M3 S255
G1 X352.0 Y53.0
M3 S255
G1 X399.5 Y53.0
M5 S0
G0 X399.5 Y53.5
M3 S255
G1 X352.0 Y53.5
M3 S0
G0 X350.5 Y53.5
M3 S255
G1 X350.5 Y53.5
M3 S255
G1 X270.5 Y53.5
M3 S0
G0 X269.5 Y53.5
M3 S255
G1 X269.5 Y53.5
M3 S255
G1 X175.5 Y53.5
M3 S0
G0 X153.0 Y53.5
M3 S255
G1 X153.0 Y53.5
M3 S255
G1 X94.5 Y53.5
M3 S0
G0 X91.0 Y53.5
M3 S255
G1 X91.0 Y53.5
M3 S255
G1 X87.0 Y53.5
M3 S0
G0 X73.5 Y53.5
M3 S255
G1 X73.5 Y53.5
M3 S255
G1 X68.5 Y53.5
M3 S0
G0 X54.5 Y53.5
M3 S255
G1 X54.5 Y53.5
M3 S255
G1 X51.0 Y53.5
M3 S0
G0 X37.0 Y53.5
M3 S255
G1 X37.0 Y53.5
M3 S255
G1 X4.5 Y53.5
M3 S0
M5 S0
G0 X5.5 Y54.0
M3 S255
G1 X5.5 Y54.0
M3 S255
G1 X37.0 Y54.0
M3 S0
G0 X51.0 Y54.0
M3 S255
G1 X51.0 Y54.0
M3 S255
G1 X54.5 Y54.0
M3 S0
G0 X69.5 Y54.0
M3 S255
G1 X69.5 Y54.0
M3 S255
G1 X73.5 Y54.0
M3 S0
G0 X87.0 Y54.0
M3 S255
G1 X87.0 Y54.0
M3 S255
G1 X153.0 Y54.0
M3 S0
G0 X183.0 Y54.0
M3 S255
G1 X183.0 Y54.0
M3 S255
G1 X260.5 Y54.0
M3 S0
G0 X262.0 Y54.0
M3 S255
G1 X262.0 Y54.0
M3 S255
G1 X268.0 Y54.0
M3 S0
G0 X269.5 Y54.0
M3 S255
G1 X269.5 Y54.0
M3 S255
G1 X350.5 Y54.0
M3 S0
G0 X352.0 Y54.0
M3 S255
G1 X352.0 Y54.0
M3 S255
G1 X399.5 Y54.0
M5 S0
G0 X399.5 Y54.5
M3 S255
G1 X352.0 Y54.5
M3 S0
G0 X350.5 Y54.5
M3 S255
G1 X350.5 Y54.5
M3 S255
G1 X269.5 Y54.5
M3 S0
G0 X268.0 Y54.5
M3 S255
G1 X268.0 Y54.5
M3 S255
G1 X262.0 Y54.5
M3 S0
G0 X260.5 Y54.5
M3 S255
G1 X260.5 Y54.5
M3 S255
G1 X183.0 Y54.5
M3 S0
G0 X153.0 Y54.5
M3 S255
G1 X153.0 Y54.5
M3 S255
G1 X87.0 Y54.5
M3 S0
G0 X73.5 Y54.5
M3 S255
G1 X73.5 Y54.5
M3 S255
G1 X69.5 Y54.5
M3 S0
G0 X54.5 Y54.5
M3 S255
G1 X54.5 Y54.5
M3 S255
G1 X51.0 Y54.5
M3 S0
G0 X37.0 Y54.5
M3 S255
G1 X37.0 Y54.5
M3 S255
G1 X5.5 Y54.5
M3 S0
M5 S0
G0 X5.5 Y55.0
M3 S255
G1 X5.5 Y55.0
M3 S255
G1 X37.0 Y55.0
M3 S0
G0 X51.0 Y55.0
M3 S255
G1 X51.0 Y55.0
M3 S255
G1 X54.5 Y55.0
M3 S0
G0 X69.5 Y55.0
M3 S255
G1 X69.5 Y55.0
M3 S255
G1 X73.5 Y55.0
M3 S0
G0 X87.0 Y55.0
M3 S255
G1 X87.0 Y55.0
M3 S255
G1 X153.0 Y55.0
M3 S0
G0 X184.5 Y55.0
M3 S255
G1 X184.5 Y55.0
M3 S255
G1 X350.5 Y55.0
M3 S0
G0 X352.0 Y55.0
M3 S255
G1 X352.0 Y55.0
M3 S255
G1 X399.5 Y55.0
M5 S0
G0 X399.5 Y55.5
M3 S255
G1 X352.0 Y55.5
M3 S0
G0 X350.5 Y55.5
M3 S255
G1 X350.5 Y55.5
M3 S255
G1 X184.5 Y55.5
M3 S0
G0 X153.0 Y55.5
M3 S255
G1 X153.0 Y55.5
M3 S255
G1 X87.0 Y55.5
M3 S0
G0 X73.5 Y55.5
M3 S255
G1 X73.5 Y55.5
M3 S255
G1 X69.5 Y55.5
M3 S0
G0 X54.5 Y55.5
M3 S255
G1 X54.5 Y55.5
M3 S255
G1 X51.0 Y55.5
M3 S0
G0 X37.0 Y55.5
M3 S255
G1 X37.0 Y55.5
M3 S255
G1 X5.5 Y55.5
M3 S0
M5 S0
G0 X5.5 Y56.0
M3 S255
G1 X5.5 Y56.0
M3 S255
G1 X37.0 Y56.0
M3 S0
G0 X51.0 Y56.0
M3 S255
G1 X51.0 Y56.0
M3 S255
G1 X54.5 Y56.0
M3 S0
G0 X69.5 Y56.0
M3 S255
G1 X69.5 Y56.0
M3 S255
G1 X73.5 Y56.0
M3 S0
G0 X87.0 Y56.0
M3 S255
G1 X87.0 Y56.0
M3 S255
G1 X153.0 Y56.0
M3 S0
G0 X184.5 Y56.0
M3 S255
G1 X184.5 Y56.0
M3 S255
G1 X350.5 Y56.0
M3 S0
G0 X352.0 Y56.0
M3 S255
G1 X352.0 Y56.0
M3 S255
G1 X399.5 Y56.0
M5 S0
G0 X399.5 Y56.5
M3 S255
G1 X194.5 Y56.5
M3 S0
G0 X192.0 Y56.5
M3 S255
G1 X192.0 Y56.5
M3 S255
G1 X184.5 Y56.5
M3 S0
G0 X153.0 Y56.5
M3 S255
G1 X153.0 Y56.5
M3 S255
G1 X87.0 Y56.5
M3 S0
G0 X72.0 Y56.5
M3 S255
G1 X72.0 Y56.5
M3 S255
G1 X71.0 Y56.5
M3 S0
G0 X54.5 Y56.5
M3 S255
G1 X54.5 Y56.5
M3 S255
G1 X52.0 Y56.5
M3 S0
G0 X37.0 Y56.5
M3 S255
G1 X37.0 Y56.5
M3 S255
G1 X5.5 Y56.5
M3 S0
M5 S0
G0 X5.5 Y57.0
M3 S255
G1 X5.5 Y57.0
M3 S255
G1 X37.0 Y57.0
M3 S0
G0 X52.0 Y57.0
M3 S255
G1 X52.0 Y57.0
M3 S255
G1 X54.5 Y57.0
M3 S0
G0 X71.0 Y57.0
M3 S255
G1 X71.0 Y57.0
M3 S255
G1 X72.0 Y57.0
M3 S0
G0 X87.0 Y57.0
M3 S255
G1 X87.0 Y57.0
M3 S255
G1 X153.0 Y57.0
M3 S0
G0 X184.5 Y57.0
M3 S255
G1 X184.5 Y57.0
M3 S255
G1 X192.0 Y57.0
M3 S0
G0 X194.5 Y57.0
M3 S255
G1 X194.5 Y57.0
M3 S255
G1 X399.5 Y57.0
M5 S0
G0 X399.5 Y57.5
M3 S255
G1 X194.5 Y57.5
M3 S0
G0 X190.5 Y57.5
M3 S255
G1 X190.5 Y57.5
M3 S255
G1 X184.5 Y57.5
M3 S0
G0 X152.0 Y57.5
M3 S255
G1 X152.0 Y57.5
M3 S255
G1 X87.0 Y57.5
M3 S0
G0 X54.5 Y57.5
M3 S255
G1 X54.5 Y57.5
M3 S255
G1 X52.0 Y57.5
M3 S0
G0 X37.0 Y57.5
M3 S255
G1 X37.0 Y57.5
M3 S255
G1 X5.5 Y57.5
M3 S0
M5 S0
G0 X5.5 Y58.0
M3 S255
G1 X5.5 Y58.0
M3 S255
G1 X37.0 Y58.0
M3 S0
G0 X52.0 Y58.0
M3 S255
G1 X52.0 Y58.0
M3 S255
G1 X54.5 Y58.0
M3 S0
G0 X87.0 Y58.0
M3 S255
G1 X87.0 Y58.0
M3 S255
G1 X152.0 Y58.0
M3 S0
G0 X184.5 Y58.0
M3 S255
G1 X184.5 Y58.0
M3 S255
G1 X190.5 Y58.0
M3 S0
G0 X194.5 Y58.0
M3 S255
G1 X194.5 Y58.0
M3 S255
G1 X399.5 Y58.0
M5 S0
G0 X399.5 Y58.5
M3 S255
G1 X194.5 Y58.5
M3 S0
G0 X190.5 Y58.5
M3 S255
G1 X190.5 Y58.5
M3 S255
G1 X184.5 Y58.5
M3 S0
G0 X152.0 Y58.5
M3 S255
G1 X152.0 Y58.5
M3 S255
G1 X87.0 Y58.5
M3 S0
G0 X54.5 Y58.5
M3 S255
G1 X54.5 Y58.5
M3 S255
G1 X52.0 Y58.5
M3 S0
G0 X37.0 Y58.5
M3 S255
G1 X37.0 Y58.5
M3 S255
G1 X5.5 Y58.5
M3 S0
M5 S0
G0 X4.5 Y59.0
M3 S255
G1 X4.5 Y59.0
M3 S255
G1 X36.0 Y59.0
M3 S0
G0 X52.0 Y59.0
M3 S255
G1 X52.0 Y59.0
M3 S255
G1 X53.5 Y59.0
M3 S0
G0 X87.0 Y59.0
M3 S255
G1 X87.0 Y59.0
M3 S255
G1 X150.5 Y59.0
M3 S0
G0 X183.0 Y59.0
M3 S255
G1 X183.0 Y59.0
M3 S255
G1 X188.0 Y59.0
M3 S0
G0 X195.5 Y59.0
M3 S255
G1 X195.5 Y59.0
M3 S255
G1 X349.5 Y59.0
M3 S0
G0 X350.5 Y59.0
M3 S255
G1 X350.5 Y59.0
M3 S255
G1 X399.5 Y59.0
M5 S0
G0 X399.5 Y59.5
M3 S255
G1 X350.5 Y59.5
M3 S0
G0 X349.5 Y59.5
M3 S255
G1 X349.5 Y59.5
M3 S255
G1 X195.5 Y59.5
M3 S0
G0 X188.0 Y59.5
M3 S255
G1 X188.0 Y59.5
M3 S255
G1 X183.0 Y59.5
M3 S0
G0 X150.5 Y59.5
M3 S255
G1 X150.5 Y59.5
M3 S255
G1 X87.0 Y59.5
M3 S0
G0 X53.5 Y59.5
M3 S255
G1 X53.5 Y59.5
M3 S255
G1 X52.0 Y59.5
M3 S0
G0 X36.0 Y59.5
M3 S255
G1 X36.0 Y59.5
M3 S255
G1 X4.5 Y59.5
M3 S0
M5 S0
G0 X3.5 Y60.0
M3 S255
G1 X3.5 Y60.0
M3 S255
G1 X34.5 Y60.0
M3 S0
G0 X87.0 Y60.0
M3 S255
G1 X87.0 Y60.0
M3 S255
G1 X150.5 Y60.0
M3 S0
G0 X184.5 Y60.0
M3 S255
G1 X184.5 Y60.0
M3 S255
G1 X188.0 Y60.0
M3 S0
G0 X197.0 Y60.0
M3 S255
G1 X197.0 Y60.0
M3 S255
G1 X349.5 Y60.0
M3 S0
G0 X350.5 Y60.0
M3 S255
G1 X350.5 Y60.0
M3 S255
G1 X399.5 Y60.0
M5 S0
G0 X399.5 Y60.5
M3 S255
G1 X350.5 Y60.5
M3 S0
G0 X349.5 Y60.5
M3 S255
G1 X349.5 Y60.5
M3 S255
G1 X197.0 Y60.5
M3 S0
G0 X188.0 Y60.5
M3 S255
G1 X188.0 Y60.5
M3 S255
G1 X184.5 Y60.5
M3 S0
G0 X150.5 Y60.5
M3 S255
G1 X150.5 Y60.5
M3 S255
G1 X87.0 Y60.5
M3 S0
G0 X34.5 Y60.5
M3 S255
G1 X34.5 Y60.5
M3 S255
G1 X3.5 Y60.5
M3 S0
M5 S0
G0 X3.5 Y61.0
M3 S255
G1 X3.5 Y61.0
M3 S255
G1 X34.5 Y61.0
M3 S0
G0 X87.0 Y61.0
M3 S255
G1 X87.0 Y61.0
M3 S255
G1 X150.5 Y61.0
M3 S0
G0 X184.5 Y61.0
M3 S255
G1 X184.5 Y61.0
M3 S255
G1 X188.0 Y61.0
M3 S0
G0 X197.0 Y61.0
M3 S255
G1 X197.0 Y61.0
M3 S255
G1 X349.5 Y61.0
M3 S0
G0 X350.5 Y61.0
M3 S255
G1 X350.5 Y61.0
M3 S255
G1 X399.5 Y61.0
M5 S0
G0 X399.5 Y61.5
M3 S255
G1 X350.5 Y61.5
M3 S0
G0 X349.5 Y61.5
M3 S255
G1 X349.5 Y61.5
M3 S255
G1 X197.0 Y61.5
M3 S0
G0 X149.5 Y61.5
M3 S255
G1 X149.5 Y61.5
M3 S255
G1 X86.0 Y61.5
M3 S0
G0 X33.5 Y61.5
M3 S255
G1 X33.5 Y61.5
M3 S255
G1 X2.0 Y61.5
M3 S0
M5 S0
G0 X2.0 Y62.0
M3 S255
G1 X2.0 Y62.0
M3 S255
G1 X33.5 Y62.0
M3 S0
G0 X86.0 Y62.0
M3 S255
G1 X86.0 Y62.0
M3 S255
G1 X149.5 Y62.0
M3 S0
G0 X197.0 Y62.0
M3 S255
G1 X197.0 Y62.0
M3 S255
G1 X349.5 Y62.0
M3 S0
G0 X350.5 Y62.0
M3 S255
G1 X350.5 Y62.0
M3 S255
G1 X399.5 Y62.0
M5 S0
G0 X399.5 Y62.5
M3 S255
G1 X350.5 Y62.5
M3 S0
G0 X349.5 Y62.5
M3 S255
G1 X349.5 Y62.5
M3 S255
G1 X198.0 Y62.5
M3 S0
G0 X149.5 Y62.5
M3 S255
G1 X149.5 Y62.5
M3 S255
G1 X86.0 Y62.5
M3 S0
G0 X32.0 Y62.5
M3 S255
G1 X32.0 Y62.5
M3 S255
G1 X0.5 Y62.5
M3 S0
M5 S0
G0 X0.5 Y63.0
M3 S255
G1 X0.5 Y63.0
M3 S255
G1 X32.0 Y63.0
M3 S0
G0 X86.0 Y63.0
M3 S255
G1 X86.0 Y63.0
M3 S255
G1 X149.5 Y63.0
M3 S0
G0 X198.0 Y63.0
M3 S255
G1 X198.0 Y63.0
M3 S255
G1 X349.5 Y63.0
M3 S0
G0 X350.5 Y63.0
M3 S255
G1 X350.5 Y63.0
M3 S255
G1 X399.5 Y63.0
M5 S0
G0 X399.5 Y63.5
M3 S255
G1 X350.5 Y63.5
M3 S0
G0 X349.5 Y63.5
M3 S255
G1 X349.5 Y63.5
M3 S255
G1 X198.0 Y63.5
M3 S0
G0 X149.5 Y63.5
M3 S255
G1 X149.5 Y63.5
M3 S255
G1 X86.0 Y63.5
M3 S0
G0 X32.0 Y63.5
M3 S255
G1 X32.0 Y63.5
M3 S255
G1 X0.5 Y63.5
M3 S0
M5 S0
G0 X0.0 Y64.0
M3 S255
G1 X4.5 Y64.0
M3 S0
G0 X7.0 Y64.0
M3 S255
G1 X7.0 Y64.0
M3 S255
G1 X32.0 Y64.0
M3 S0
G0 X84.5 Y64.0
M3 S255
G1 X84.5 Y64.0
M3 S255
G1 X137.0 Y64.0
M3 S0
G0 X140.5 Y64.0
M3 S255
G1 X140.5 Y64.0
M3 S255
G1 X148.0 Y64.0
M3 S0
G0 X198.0 Y64.0
M3 S255
G1 X198.0 Y64.0
M3 S255
G1 X349.5 Y64.0
M3 S0
G0 X350.5 Y64.0
M3 S255
G1 X350.5 Y64.0
M3 S255
G1 X399.5 Y64.0
M5 S0
G0 X399.5 Y64.5
M3 S255
G1 X350.5 Y64.5
M3 S0
G0 X349.5 Y64.5
M3 S255
G1 X349.5 Y64.5
M3 S255
G1 X198.0 Y64.5
M3 S0
G0 X148.0 Y64.5
M3 S255
G1 X148.0 Y64.5
M3 S255
G1 X140.5 Y64.5
M3 S0
G0 X137.0 Y64.5
M3 S255
G1 X137.0 Y64.5
M3 S255
G1 X84.5 Y64.5
M3 S0
G0 X32.0 Y64.5
M3 S255
G1 X32.0 Y64.5
M3 S255
G1 X7.0 Y64.5
M3 S0
G0 X4.5 Y64.5
M3 S255
G1 X4.5 Y64.5
M3 S255
G1 X0.0 Y64.5
M5 S0
G0 X9.5 Y65.0
M3 S255
G1 X9.5 Y65.0
M3 S255
G1 X31.0 Y65.0
M3 S0
G0 X83.5 Y65.0
M3 S255
G1 X83.5 Y65.0
M3 S255
G1 X134.5 Y65.0
M3 S0
G0 X142.0 Y65.0
M3 S255
G1 X142.0 Y65.0
M3 S255
G1 X148.0 Y65.0
M3 S0
G0 X198.0 Y65.0
M3 S255
G1 X198.0 Y65.0
M3 S255
G1 X348.0 Y65.0
M3 S0
G0 X349.5 Y65.0
M3 S255
G1 X349.5 Y65.0
M3 S255
G1 X399.5 Y65.0
M5 S0
G0 X399.5 Y65.5
M3 S255
G1 X349.5 Y65.5
M3 S0
G0 X348.0 Y65.5
M3 S255
G1 X348.0 Y65.5
M3 S255
G1 X198.0 Y65.5
M3 S0
G0 X148.0 Y65.5
M3 S255
G1 X148.0 Y65.5
M3 S255
G1 X142.0 Y65.5
M3 S0
G0 X134.5 Y65.5
M3 S255
G1 X134.5 Y65.5
M3 S255
G1 X83.5 Y65.5
M3 S0
G0 X31.0 Y65.5
M3 S255
G1 X31.0 Y65.5
M3 S255
G1 X9.5 Y65.5
M3 S0
M5 S0
G0 X9.5 Y66.0
M3 S255
G1 X9.5 Y66.0
M3 S255
G1 X31.0 Y66.0
M3 S0
G0 X83.5 Y66.0
M3 S255
G1 X83.5 Y66.0
M3 S255
G1 X134.5 Y66.0
M3 S0
G0 X142.0 Y66.0
M3 S255
G1 X142.0 Y66.0
M3 S255
G1 X148.0 Y66.0
M3 S0
G0 X198.0 Y66.0
M3 S255
G1 X198.0 Y66.0
M3 S255
G1 X348.0 Y66.0
M3 S0
G0 X349.5 Y66.0
M3 S255
G1 X349.5 Y66.0
M3 S255
G1 X399.5 Y66.0
M5 S0
G0 X399.5 Y66.5
M3 S255
G1 X349.5 Y66.5
M3 S0
G0 X348.0 Y66.5
M3 S255
G1 X348.0 Y66.5
M3 S255
G1 X199.5 Y66.5
M3 S0
G0 X148.0 Y66.5
M3 S255
G1 X148.0 Y66.5
M3 S255
G1 X142.0 Y66.5
M3 S0
G0 X133.0 Y66.5
M3 S255
G1 X133.0 Y66.5
M3 S255
G1 X83.5 Y66.5
M3 S0
G0 X31.0 Y66.5
M3 S255
G1 X31.0 Y66.5
M3 S255
G1 X13.0 Y66.5
M3 S0
M5 S0
G0 X13.0 Y67.0
M3 S255
G1 X13.0 Y67.0
M3 S255
G1 X31.0 Y67.0
M3 S0
G0 X83.5 Y67.0
M3 S255
G1 X83.5 Y67.0
M3 S255
G1 X133.0 Y67.0
M3 S0
G0 X142.0 Y67.0
M3 S255
G1 X142.0 Y67.0
M3 S255
G1 X148.0 Y67.0
M3 S0
G0 X199.5 Y67.0
M3 S255
G1 X199.5 Y67.0
M3 S255
G1 X348.0 Y67.0
M3 S0
G0 X349.5 Y67.0
M3 S255
G1 X349.5 Y67.0
M3 S255
G1 X399.5 Y67.0
M5 S0
G0 X399.5 Y67.5
M3 S255
G1 X199.5 Y67.5
M3 S0
G0 X148.0 Y67.5
M3 S255
G1 X148.0 Y67.5
M3 S255
G1 X140.5 Y67.5
M3 S0
G0 X132.0 Y67.5
M3 S255
G1 X132.0 Y67.5
M3 S255
G1 X100.5 Y67.5
M3 S0
G0 X98.0 Y67.5
M3 S255
G1 X98.0 Y67.5
M3 S255
G1 X82.0 Y67.5
M3 S0
G0 X29.5 Y67.5
M3 S255
G1 X29.5 Y67.5
M3 S255
G1 X13.0 Y67.5
M3 S0
M5 S0
G0 X13.0 Y68.0
M3 S255
G1 X13.0 Y68.0
M3 S255
G1 X29.5 Y68.0
M3 S0
G0 X82.0 Y68.0
M3 S255
G1 X82.0 Y68.0
M3 S255
G1 X98.0 Y68.0
M3 S0
G0 X100.5 Y68.0
M3 S255
G1 X100.5 Y68.0
M3 S255
G1 X132.0 Y68.0
M3 S0
G0 X140.5 Y68.0
M3 S255
G1 X140.5 Y68.0
M3 S255
G1 X148.0 Y68.0
M3 S0
G0 X199.5 Y68.0
M3 S255
G1 X199.5 Y68.0
M3 S255
G1 X399.5 Y68.0
M5 S0
G0 X399.5 Y68.5
M3 S255
G1 X199.5 Y68.5
M3 S0
G0 X148.0 Y68.5
M3 S255
G1 X148.0 Y68.5
M3 S255
G1 X140.5 Y68.5
M3 S0
G0 X132.0 Y68.5
M3 S255
G1 X132.0 Y68.5
M3 S255
G1 X100.5 Y68.5
M3 S0
G0 X98.0 Y68.5
M3 S255
G1 X98.0 Y68.5
M3 S255
G1 X82.0 Y68.5
M3 S0
G0 X29.5 Y68.5
M3 S255
G1 X29.5 Y68.5
M3 S255
G1 X13.0 Y68.5
M3 S0
M5 S0
G0 X13.0 Y69.0
M3 S255
G1 X13.0 Y69.0
M3 S255
G1 X29.5 Y69.0
M3 S0
G0 X82.0 Y69.0
M3 S255
G1 X82.0 Y69.0
M3 S255
G1 X97.0 Y69.0
M3 S0
G0 X103.0 Y69.0
M3 S255
G1 X103.0 Y69.0
M3 S255
G1 X130.5 Y69.0
M3 S0
G0 X140.5 Y69.0
M3 S255
G1 X140.5 Y69.0
M3 S255
G1 X147.0 Y69.0
M3 S0
G0 X199.5 Y69.0
M3 S255
G1 X199.5 Y69.0
M3 S255
G1 X243.0 Y69.0
M3 S0
G0 X265.5 Y69.0
M3 S255
G1 X265.5 Y69.0
M3 S255
G1 X399.5 Y69.0
M5 S0
G0 X399.5 Y69.5
M3 S255
G1 X265.5 Y69.5
M3 S0
G0 X243.0 Y69.5
M3 S255
G1 X243.0 Y69.5
M3 S255
G1 X199.5 Y69.5
M3 S0
G0 X147.0 Y69.5
M3 S255
G1 X147.0 Y69.5
M3 S255
G1 X140.5 Y69.5
M3 S0
G0 X130.5 Y69.5
M3 S255
G1 X130.5 Y69.5
M3 S255
G1 X103.0 Y69.5
M3 S0
G0 X97.0 Y69.5
M3 S255
G1 X97.0 Y69.5
M3 S255
G1 X82.0 Y69.5
M3 S0
G0 X29.5 Y69.5
M3 S255
G1 X29.5 Y69.5
M3 S255
G1 X13.0 Y69.5
M3 S0
M5 S0
G0 X13.0 Y70.0
M3 S255
G1 X13.0 Y70.0
M3 S255
G1 X19.5 Y70.0
M3 S0
G0 X22.0 Y70.0
M3 S255
G1 X22.0 Y70.0
M3 S255
G1 X28.5 Y70.0
M3 S0
G0 X86.0 Y70.0
M3 S255
G1 X86.0 Y70.0
M3 S255
G1 X95.5 Y70.0
M3 S0
G0 X104.5 Y70.0
M3 S255
G1 X104.5 Y70.0
M3 S255
G1 X113.0 Y70.0
M3 S0
G0 X124.5 Y70.0
M3 S255
G1 X124.5 Y70.0
M3 S255
G1 X125.5 Y70.0
M3 S0
G0 X140.5 Y70.0
M3 S255
G1 X140.5 Y70.0
M3 S255
G1 X147.0 Y70.0
M3 S0
G0 X199.5 Y70.0
M3 S255
G1 X199.5 Y70.0
M3 S255
G1 X243.0 Y70.0
M3 S0
G0 X265.5 Y70.0
M3 S255
G1 X265.5 Y70.0
M3 S255
G1 X348.0 Y70.0
M3 S0
G0 X349.5 Y70.0
M3 S255
G1 X349.5 Y70.0
M3 S255
G1 X399.5 Y70.0
M5 S0
G0 X399.5 Y70.5
M3 S255
G1 X349.5 Y70.5
M3 S0
G0 X348.0 Y70.5
M3 S255
G1 X348.0 Y70.5
M3 S255
G1 X265.5 Y70.5
M3 S0
G0 X243.0 Y70.5
M3 S255
G1 X243.0 Y70.5
M3 S255
G1 X199.5 Y70.5
M3 S0
G0 X147.0 Y70.5
M3 S255
G1 X147.0 Y70.5
M3 S255
G1 X140.5 Y70.5
M3 S0
G0 X125.5 Y70.5
M3 S255
G1 X125.5 Y70.5
M3 S255
G1 X124.5 Y70.5
M3 S0
G0 X113.0 Y70.5
M3 S255
G1 X113.0 Y70.5
M3 S255
G1 X104.5 Y70.5
M3 S0
G0 X95.5 Y70.5
M3 S255
G1 X95.5 Y70.5
M3 S255
G1 X86.0 Y70.5
M3 S0
G0 X28.5 Y70.5
M3 S255
G1 X28.5 Y70.5
M3 S255
G1 X22.0 Y70.5
M3 S0
G0 X19.5 Y70.5
M3 S255
G1 X19.5 Y70.5
M3 S255
G1 X13.0 Y70.5
M3 S0
M5 S0
G0 X13.0 Y71.0
M3 S255
G1 X13.0 Y71.0
M3 S255
G1 X19.5 Y71.0
M3 S0
G0 X22.0 Y71.0
M3 S255
G1 X22.0 Y71.0
M3 S255
G1 X28.5 Y71.0
M3 S0
G0 X86.0 Y71.0
M3 S255
G1 X86.0 Y71.0
M3 S255
G1 X95.5 Y71.0
M3 S0
G0 X104.5 Y71.0
M3 S255
G1 X104.5 Y71.0
M3 S255
G1 X113.0 Y71.0
M3 S0
G0 X124.5 Y71.0
M3 S255
G1 X124.5 Y71.0
M3 S255
G1 X125.5 Y71.0
M3 S0
G0 X140.5 Y71.0
M3 S255
G1 X140.5 Y71.0
M3 S255
G1 X147.0 Y71.0
M3 S0
G0 X199.5 Y71.0
M3 S255
G1 X199.5 Y71.0
M3 S255
G1 X243.0 Y71.0
M3 S0
G0 X265.5 Y71.0
M3 S255
G1 X265.5 Y71.0
M3 S255
G1 X348.0 Y71.0
M3 S0
G0 X349.5 Y71.0
M3 S255
G1 X349.5 Y71.0
M3 S255
G1 X399.5 Y71.0
M5 S0
G0 X399.5 Y71.5
M3 S255
G1 X349.5 Y71.5
M3 S0
G0 X348.0 Y71.5
M3 S255
G1 X348.0 Y71.5
M3 S255
G1 X265.5 Y71.5
M3 S0
G0 X247.0 Y71.5
M3 S255
G1 X247.0 Y71.5
M3 S255
G1 X200.5 Y71.5
M3 S0
G0 X147.0 Y71.5
M3 S255
G1 X147.0 Y71.5
M3 S255
G1 X139.5 Y71.5
M3 S0
G0 X97.0 Y71.5
M3 S255
G1 X97.0 Y71.5
M3 S255
G1 X87.0 Y71.5
M3 S0
G0 X28.5 Y71.5
M3 S255
G1 X28.5 Y71.5
M3 S255
G1 X26.0 Y71.5
M3 S0
G0 X14.5 Y71.5
M3 S255
G1 X14.5 Y71.5
M3 S255
G1 X13.0 Y71.5
M3 S0
M5 S0
G0 X13.0 Y72.0
M3 S255
G1 X13.0 Y72.0
M3 S255
G1 X14.5 Y72.0
M3 S0
G0 X26.0 Y72.0
M3 S255
G1 X26.0 Y72.0
M3 S255
G1 X28.5 Y72.0
M3 S0
G0 X87.0 Y72.0
M3 S255
G1 X87.0 Y72.0
M3 S255
G1 X97.0 Y72.0
M3 S0
G0 X139.5 Y72.0
M3 S255
G1 X139.5 Y72.0
M3 S255
G1 X147.0 Y72.0
M3 S0
G0 X200.5 Y72.0
M3 S255
G1 X200.5 Y72.0
M3 S255
G1 X247.0 Y72.0
M3 S0
G0 X265.5 Y72.0
M3 S255
G1 X265.5 Y72.0
M3 S255
G1 X348.0 Y72.0
M3 S0
G0 X349.5 Y72.0
M3 S255
G1 X349.5 Y72.0
M3 S255
G1 X399.5 Y72.0
M5 S0
G0 X399.5 Y72.5
M3 S255
G1 X349.5 Y72.5
M3 S0
G0 X348.0 Y72.5
M3 S255
G1 X348.0 Y72.5
M3 S255
G1 X200.5 Y72.5
M3 S0
G0 X147.0 Y72.5
M3 S255
G1 X147.0 Y72.5
M3 S255
G1 X138.0 Y72.5
M3 S0
G0 X135.5 Y72.5
M3 S255
G1 X135.5 Y72.5
M3 S255
G1 X134.5 Y72.5
M3 S0
G0 X97.0 Y72.5
M3 S255
G1 X97.0 Y72.5
M3 S255
G1 X89.5 Y72.5
M3 S0
M5 S0
G0 X89.5 Y73.0
M3 S255
G1 X89.5 Y73.0
M3 S255
G1 X97.0 Y73.0
M3 S0
G0 X134.5 Y73.0
M3 S255
G1 X134.5 Y73.0
M3 S255
G1 X135.5 Y73.0
M3 S0
G0 X138.0 Y73.0
M3 S255
G1 X138.0 Y73.0
M3 S255
G1 X147.0 Y73.0
M3 S0
G0 X200.5 Y73.0
M3 S255
G1 X200.5 Y73.0
M3 S255
G1 X348.0 Y73.0
M3 S0
G0 X349.5 Y73.0
M3 S255
G1 X349.5 Y73.0
M3 S255
G1 X399.5 Y73.0
M5 S0
G0 X399.5 Y73.5
M3 S255
G1 X349.5 Y73.5
M3 S0
G0 X348.0 Y73.5
M3 S255
G1 X348.0 Y73.5
M3 S255
G1 X200.5 Y73.5
M3 S0
G0 X147.0 Y73.5
M3 S255
G1 X147.0 Y73.5
M3 S255
G1 X138.0 Y73.5
M3 S0
G0 X135.5 Y73.5
M3 S255
G1 X135.5 Y73.5
M3 S255
G1 X134.5 Y73.5
M3 S0
G0 X97.0 Y73.5
M3 S255
G1 X97.0 Y73.5
M3 S255
G1 X89.5 Y73.5
M3 S0
M5 S0
G0 X91.0 Y74.0
M3 S255
G1 X91.0 Y74.0
M3 S255
G1 X97.0 Y74.0
M3 S0
G0 X133.0 Y74.0
M3 S255
G1 X133.0 Y74.0
M3 S255
G1 X145.5 Y74.0
M3 S0
G0 X200.5 Y74.0
M3 S255
G1 X200.5 Y74.0
M3 S255
G1 X348.0 Y74.0
M3 S0
G0 X349.5 Y74.0
M3 S255
G1 X349.5 Y74.0
M3 S255
G1 X399.5 Y74.0
M5 S0
G0 X399.5 Y74.5
M3 S255
G1 X349.5 Y74.5
M3 S0
G0 X348.0 Y74.5
M3 S255
G1 X348.0 Y74.5
M3 S255
G1 X200.5 Y74.5
M3 S0
G0 X145.5 Y74.5
M3 S255
G1 X145.5 Y74.5
M3 S255
G1 X133.0 Y74.5
M3 S0
G0 X97.0 Y74.5
M3 S255
G1 X97.0 Y74.5
M3 S255
G1 X91.0 Y74.5
M3 S0
M5 S0
G0 X92.0 Y75.0
M3 S255
G1 X92.0 Y75.0
M3 S255
G1 X98.0 Y75.0
M3 S0
G0 X133.0 Y75.0
M3 S255
G1 X133.0 Y75.0
M3 S255
G1 X143.0 Y75.0
M3 S0
G0 X200.5 Y75.0
M3 S255
G1 X200.5 Y75.0
M3 S255
G1 X348.0 Y75.0
M3 S0
G0 X349.5 Y75.0
M3 S255
G1 X349.5 Y75.0
M3 S255
G1 X399.5 Y75.0
M5 S0
G0 X399.5 Y75.5
M3 S255
G1 X349.5 Y75.5
M3 S0
G0 X348.0 Y75.5
M3 S255
G1 X348.0 Y75.5
M3 S255
G1 X200.5 Y75.5
M3 S0
G0 X143.0 Y75.5
M3 S255
G1 X143.0 Y75.5
M3 S255
G1 X133.0 Y75.5
M3 S0
G0 X98.0 Y75.5
M3 S255
G1 X98.0 Y75.5
M3 S255
G1 X92.0 Y75.5
M3 S0
M5 S0
G0 X92.0 Y76.0
M3 S255
G1 X92.0 Y76.0
M3 S255
G1 X98.0 Y76.0
M3 S0
G0 X133.0 Y76.0
M3 S255
G1 X133.0 Y76.0
M3 S255
G1 X143.0 Y76.0
M3 S0
G0 X200.5 Y76.0
M3 S255
G1 X200.5 Y76.0
M3 S255
G1 X348.0 Y76.0
M3 S0
G0 X349.5 Y76.0
M3 S255
G1 X349.5 Y76.0
M3 S255
G1 X399.5 Y76.0
M5 S0
G0 X399.5 Y76.5
M3 S255
G1 X348.0 Y76.5
M3 S0
G0 X347.0 Y76.5
M3 S255
G1 X347.0 Y76.5
M3 S255
G1 X202.0 Y76.5
M3 S0
G0 X142.0 Y76.5
M3 S255
G1 X142.0 Y76.5
M3 S255
G1 X138.0 Y76.5
M3 S0
G0 X102.0 Y76.5
M3 S255
G1 X102.0 Y76.5
M3 S255
G1 X100.5 Y76.5
M3 S0
G0 X98.0 Y76.5
M3 S255
G1 X98.0 Y76.5
M3 S255
G1 X93.0 Y76.5
M3 S0
M5 S0
G0 X93.0 Y77.0
M3 S255
G1 X93.0 Y77.0
M3 S255
G1 X98.0 Y77.0
M3 S0
G0 X100.5 Y77.0
M3 S255
G1 X100.5 Y77.0
M3 S255
G1 X102.0 Y77.0
M3 S0
G0 X138.0 Y77.0
M3 S255
G1 X138.0 Y77.0
M3 S255
G1 X142.0 Y77.0
M3 S0
G0 X202.0 Y77.0
M3 S255
G1 X202.0 Y77.0
M3 S255
G1 X347.0 Y77.0
M3 S0
G0 X348.0 Y77.0
M3 S255
G1 X348.0 Y77.0
M3 S255
G1 X399.5 Y77.0
M5 S0
G0 X399.5 Y77.5
M3 S255
G1 X202.0 Y77.5
M3 S0
G0 X102.0 Y77.5
M3 S255
G1 X102.0 Y77.5
M3 S255
G1 X100.5 Y77.5
M3 S0
G0 X99.5 Y77.5
M3 S255
G1 X99.5 Y77.5
M3 S255
G1 X94.5 Y77.5
M3 S0
M5 S0
G0 X94.5 Y78.0
M3 S255
G1 X94.5 Y78.0
M3 S255
G1 X99.5 Y78.0
M3 S0
G0 X100.5 Y78.0
M3 S255
G1 X100.5 Y78.0
M3 S255
G1 X102.0 Y78.0
M3 S0
G0 X202.0 Y78.0
M3 S255
G1 X202.0 Y78.0
M3 S255
G1 X399.5 Y78.0
M5 S0
G0 X399.5 Y78.5
M3 S255
G1 X202.0 Y78.5
M3 S0
G0 X102.0 Y78.5
M3 S255
G1 X102.0 Y78.5
M3 S255
G1 X100.5 Y78.5
M3 S0
G0 X99.5 Y78.5
M3 S255
G1 X99.5 Y78.5
M3 S255
G1 X94.5 Y78.5
M3 S0
M5 S0
G0 X97.0 Y79.0
M3 S255
G1 X97.0 Y79.0
M3 S255
G1 X99.5 Y79.0
M3 S0
G0 X168.0 Y79.0
M3 S255
G1 X168.0 Y79.0
M3 S255
G1 X174.5 Y79.0
M3 S0
G0 X202.0 Y79.0
M3 S255
G1 X202.0 Y79.0
M3 S255
G1 X399.5 Y79.0
M5 S0
G0 X399.5 Y79.5
M3 S255
G1 X202.0 Y79.5
M3 S0
G0 X174.5 Y79.5
M3 S255
G1 X174.5 Y79.5
M3 S255
G1 X168.0 Y79.5
M3 S0
G0 X99.5 Y79.5
M3 S255
G1 X99.5 Y79.5
M3 S255
G1 X97.0 Y79.5
M3 S0
M5 S0
G0 X163.0 Y80.0
M3 S255
G1 X163.0 Y80.0
M3 S255
G1 X177.0 Y80.0
M3 S0
G0 X202.0 Y80.0
M3 S255
G1 X202.0 Y80.0
M3 S255
G1 X399.5 Y80.0
M5 S0
G0 X399.5 Y80.5
M3 S255
G1 X202.0 Y80.5
M3 S0
G0 X177.0 Y80.5
M3 S255
G1 X177.0 Y80.5
M3 S255
G1 X163.0 Y80.5
M3 S0
M5 S0
G0 X163.0 Y81.0
M3 S255
G1 X163.0 Y81.0
M3 S255
G1 X177.0 Y81.0
M3 S0
G0 X202.0 Y81.0
M3 S255
G1 X202.0 Y81.0
M3 S255
G1 X399.5 Y81.0
M5 S0
G0 X399.5 Y81.5
M3 S255
G1 X348.0 Y81.5
M3 S0
G0 X347.0 Y81.5
M3 S255
G1 X347.0 Y81.5
M3 S255
G1 X202.0 Y81.5
M3 S0
G0 X179.5 Y81.5
M3 S255
G1 X179.5 Y81.5
M3 S255
G1 X159.5 Y81.5
M3 S0
M5 S0
G0 X159.5 Y82.0
M3 S255
G1 X159.5 Y82.0
M3 S255
G1 X179.5 Y82.0
M3 S0
G0 X202.0 Y82.0
M3 S255
G1 X202.0 Y82.0
M3 S255
G1 X347.0 Y82.0
M3 S0
G0 X348.0 Y82.0
M3 S255
G1 X348.0 Y82.0
M3 S255
G1 X399.5 Y82.0
M5 S0
G0 X399.5 Y82.5
M3 S255
G1 X202.0 Y82.5
M3 S0
G0 X182.0 Y82.5
M3 S255
G1 X182.0 Y82.5
M3 S255
G1 X157.0 Y82.5
M3 S0
M5 S0
G0 X157.0 Y83.0
M3 S255
G1 X157.0 Y83.0
M3 S255
G1 X182.0 Y83.0
M3 S0
G0 X202.0 Y83.0
M3 S255
G1 X202.0 Y83.0
M3 S255
G1 X399.5 Y83.0
M5 S0
G0 X399.5 Y83.5
M3 S255
G1 X202.0 Y83.5
M3 S0
G0 X182.0 Y83.5
M3 S255
G1 X182.0 Y83.5
M3 S255
G1 X157.0 Y83.5
M3 S0
M5 S0
G0 X154.5 Y84.0
M3 S255
G1 X154.5 Y84.0
M3 S255
G1 X187.0 Y84.0
M3 S0
G0 X203.0 Y84.0
M3 S255
G1 X203.0 Y84.0
M3 S255
G1 X347.0 Y84.0
M3 S0
G0 X348.0 Y84.0
M3 S255
G1 X348.0 Y84.0
M3 S255
G1 X399.5 Y84.0
M5 S0
G0 X399.5 Y84.5
M3 S255
G1 X348.0 Y84.5
M3 S0
G0 X347.0 Y84.5
M3 S255
G1 X347.0 Y84.5
M3 S255
G1 X203.0 Y84.5
M3 S0
G0 X187.0 Y84.5
M3 S255
G1 X187.0 Y84.5
M3 S255
G1 X154.5 Y84.5
M3 S0
M5 S0
G0 X153.0 Y85.0
M3 S255
G1 X153.0 Y85.0
M3 S255
G1 X190.5 Y85.0
M3 S0
G0 X203.0 Y85.0
M3 S255
G1 X203.0 Y85.0
M3 S255
G1 X347.0 Y85.0
M3 S0
G0 X348.0 Y85.0
M3 S255
G1 X348.0 Y85.0
M3 S255
G1 X399.5 Y85.0
M5 S0
G0 X399.5 Y85.5
M3 S255
G1 X348.0 Y85.5
M3 S0
G0 X347.0 Y85.5
M3 S255
G1 X347.0 Y85.5
M3 S255
G1 X203.0 Y85.5
M3 S0
G0 X190.5 Y85.5
M3 S255
G1 X190.5 Y85.5
M3 S255
G1 X153.0 Y85.5
M3 S0
M5 S0
G0 X153.0 Y86.0
M3 S255
G1 X153.0 Y86.0
M3 S255
G1 X190.5 Y86.0
M3 S0
G0 X203.0 Y86.0
M3 S255
G1 X203.0 Y86.0
M3 S255
G1 X347.0 Y86.0
M3 S0
G0 X348.0 Y86.0
M3 S255
G1 X348.0 Y86.0
M3 S255
G1 X399.5 Y86.0
M5 S0
G0 X399.5 Y86.5
M3 S255
G1 X265.5 Y86.5
M3 S0
G0 X257.0 Y86.5
M3 S255
G1 X257.0 Y86.5
M3 S255
G1 X203.0 Y86.5
M3 S0
G0 X192.0 Y86.5
M3 S255
G1 X192.0 Y86.5
M3 S255
G1 X152.0 Y86.5
M3 S0
M5 S0
G0 X152.0 Y87.0
M3 S255
G1 X152.0 Y87.0
M3 S255
G1 X192.0 Y87.0
M3 S0
G0 X203.0 Y87.0
M3 S255
G1 X203.0 Y87.0
M3 S255
G1 X257.0 Y87.0
M3 S0
G0 X265.5 Y87.0
M3 S255
G1 X265.5 Y87.0
M3 S255
G1 X399.5 Y87.0
M5 S0
G0 X399.5 Y87.5
M3 S255
G1 X265.5 Y87.5
M3 S0
G0 X258.0 Y87.5
M3 S255
G1 X258.0 Y87.5
M3 S255
G1 X203.0 Y87.5
M3 S0
G0 X193.0 Y87.5
M3 S255
G1 X193.0 Y87.5
M3 S255
G1 X149.5 Y87.5
M3 S0
M5 S0
G0 X149.5 Y88.0
M3 S255
G1 X149.5 Y88.0
M3 S255
G1 X193.0 Y88.0
M3 S0
G0 X203.0 Y88.0
M3 S255
G1 X203.0 Y88.0
M3 S255
G1 X258.0 Y88.0
M3 S0
G0 X265.5 Y88.0
M3 S255
G1 X265.5 Y88.0
M3 S255
G1 X399.5 Y88.0
M5 S0
G0 X399.5 Y88.5
M3 S255
G1 X265.5 Y88.5
M3 S0
G0 X258.0 Y88.5
M3 S255
G1 X258.0 Y88.5
M3 S255
G1 X203.0 Y88.5
M3 S0
G0 X193.0 Y88.5
M3 S255
G1 X193.0 Y88.5
M3 S255
G1 X149.5 Y88.5
M3 S0
M5 S0
G0 X148.0 Y89.0
M3 S255
G1 X148.0 Y89.0
M3 S255
G1 X194.5 Y89.0
M3 S0
G0 X203.0 Y89.0
M3 S255
G1 X203.0 Y89.0
M3 S255
G1 X258.0 Y89.0
M3 S0
G0 X265.5 Y89.0
M3 S255
G1 X265.5 Y89.0
M3 S255
G1 X399.5 Y89.0
M5 S0
G0 X399.5 Y89.5
M3 S255
G1 X265.5 Y89.5
M3 S0
G0 X258.0 Y89.5
M3 S255
G1 X258.0 Y89.5
M3 S255
G1 X203.0 Y89.5
M3 S0
G0 X194.5 Y89.5
M3 S255
G1 X194.5 Y89.5
M3 S255
G1 X148.0 Y89.5
M3 S0
M5 S0
G0 X145.5 Y90.0
M3 S255
G1 X145.5 Y90.0
M3 S255
G1 X194.5 Y90.0
M3 S0
G0 X203.0 Y90.0
M3 S255
G1 X203.0 Y90.0
M3 S255
G1 X259.5 Y90.0
M3 S0
G0 X264.5 Y90.0
M3 S255
G1 X264.5 Y90.0
M3 S255
G1 X399.5 Y90.0
M5 S0
G0 X399.5 Y90.5
M3 S255
G1 X264.5 Y90.5
M3 S0
G0 X259.5 Y90.5
M3 S255
G1 X259.5 Y90.5
M3 S255
G1 X203.0 Y90.5
M3 S0
G0 X194.5 Y90.5
M3 S255
G1 X194.5 Y90.5
M3 S255
G1 X145.5 Y90.5
M3 S0
M5 S0
G0 X145.5 Y91.0
M3 S255
G1 X145.5 Y91.0
M3 S255
G1 X194.5 Y91.0
M3 S0
G0 X203.0 Y91.0
M3 S255
G1 X203.0 Y91.0
M3 S255
G1 X259.5 Y91.0
M3 S0
G0 X264.5 Y91.0
M3 S255
G1 X264.5 Y91.0
M3 S255
G1 X399.5 Y91.0
M5 S0
G0 X399.5 Y91.5
M3 S255
G1 X203.0 Y91.5
M3 S0
G0 X194.5 Y91.5
M3 S255
G1 X194.5 Y91.5
M3 S255
G1 X144.5 Y91.5
M3 S0
M5 S0
G0 X144.5 Y92.0
M3 S255
G1 X144.5 Y92.0
M3 S255
G1 X194.5 Y92.0
M3 S0
G0 X203.0 Y92.0
M3 S255
G1 X203.0 Y92.0
M3 S255
G1 X399.5 Y92.0
M5 S0
G0 X399.5 Y92.5
M3 S255
G1 X203.0 Y92.5
M3 S0
G0 X194.5 Y92.5
M3 S255
G1 X194.5 Y92.5
M3 S255
G1 X143.0 Y92.5
M3 S0
G0 X94.5 Y92.5
M3 S255
G1 X94.5 Y92.5
M3 S255
G1 X83.5 Y92.5
M3 S0
M5 S0
G0 X83.5 Y93.0
M3 S255
G1 X83.5 Y93.0
M3 S255
G1 X94.5 Y93.0
M3 S0
G0 X143.0 Y93.0
M3 S255
G1 X143.0 Y93.0
M3 S255
G1 X194.5 Y93.0
M3 S0
G0 X203.0 Y93.0
M3 S255
G1 X203.0 Y93.0
M3 S255
G1 X399.5 Y93.0
M5 S0
G0 X399.5 Y93.5
M3 S255
G1 X203.0 Y93.5
M3 S0
G0 X194.5 Y93.5
M3 S255
G1 X194.5 Y93.5
M3 S255
G1 X143.0 Y93.5
M3 S0
G0 X94.5 Y93.5
M3 S255
G1 X94.5 Y93.5
M3 S255
G1 X83.5 Y93.5
M3 S0
M5 S0
G0 X79.5 Y94.0
M3 S255
G1 X79.5 Y94.0
M3 S255
G1 X98.0 Y94.0
M3 S0
G0 X140.5 Y94.0
M3 S255
G1 X140.5 Y94.0
M3 S255
G1 X194.5 Y94.0
M3 S0
G0 X203.0 Y94.0
M3 S255
G1 X203.0 Y94.0
M3 S255
G1 X332.0 Y94.0
M3 S0
G0 X333.0 Y94.0
M3 S255
G1 X333.0 Y94.0
M3 S255
G1 X335.5 Y94.0
M3 S0
G0 X343.0 Y94.0
M3 S255
G1 X343.0 Y94.0
M3 S255
G1 X399.5 Y94.0
M5 S0
G0 X399.5 Y94.5
M3 S255
G1 X343.0 Y94.5
M3 S0
G0 X335.5 Y94.5
M3 S255
G1 X335.5 Y94.5
M3 S255
G1 X333.0 Y94.5
M3 S0
G0 X332.0 Y94.5
M3 S255
G1 X332.0 Y94.5
M3 S255
G1 X203.0 Y94.5
M3 S0
G0 X194.5 Y94.5
M3 S255
G1 X194.5 Y94.5
M3 S255
G1 X140.5 Y94.5
M3 S0
G0 X98.0 Y94.5
M3 S255
G1 X98.0 Y94.5
M3 S255
G1 X79.5 Y94.5
M3 S0
M5 S0
G0 X78.5 Y95.0
M3 S255
G1 X78.5 Y95.0
M3 S255
G1 X100.5 Y95.0
M3 S0
G0 X140.5 Y95.0
M3 S255
G1 X140.5 Y95.0
M3 S255
G1 X194.5 Y95.0
M3 S0
G0 X203.0 Y95.0
M3 S255
G1 X203.0 Y95.0
M3 S255
G1 X399.5 Y95.0
M5 S0
G0 X399.5 Y95.5
M3 S255
G1 X203.0 Y95.5
M3 S0
G0 X194.5 Y95.5
M3 S255
G1 X194.5 Y95.5
M3 S255
G1 X140.5 Y95.5
M3 S0
G0 X100.5 Y95.5
M3 S255
G1 X100.5 Y95.5
M3 S255
G1 X78.5 Y95.5
M3 S0
M5 S0
G0 X78.5 Y96.0
M3 S255
G1 X78.5 Y96.0
M3 S255
G1 X100.5 Y96.0
M3 S0
G0 X140.5 Y96.0
M3 S255
G1 X140.5 Y96.0
M3 S255
G1 X194.5 Y96.0
M3 S0
G0 X203.0 Y96.0
M3 S255
G1 X203.0 Y96.0
M3 S255
G1 X399.5 Y96.0
M5 S0
G0 X399.5 Y96.5
M3 S255
G1 X203.0 Y96.5
M3 S0
G0 X194.5 Y96.5
M3 S255
G1 X194.5 Y96.5
M3 S255
G1 X139.5 Y96.5
M3 S0
G0 X103.0 Y96.5
M3 S255
G1 X103.0 Y96.5
M3 S255
G1 X77.0 Y96.5
M3 S0
M5 S0
G0 X77.0 Y97.0
M3 S255
G1 X77.0 Y97.0
M3 S255
G1 X103.0 Y97.0
M3 S0
G0 X139.5 Y97.0
M3 S255
G1 X139.5 Y97.0
M3 S255
G1 X194.5 Y97.0
M3 S0
G0 X203.0 Y97.0
M3 S255
G1 X203.0 Y97.0
M3 S255
G1 X399.5 Y97.0
M5 S0
G0 X399.5 Y97.5
M3 S255
G1 X203.0 Y97.5
M3 S0
G0 X194.5 Y97.5
M3 S255
G1 X194.5 Y97.5
M3 S255
G1 X138.0 Y97.5
M3 S0
G0 X105.5 Y97.5
M3 S255
G1 X105.5 Y97.5
M3 S255
G1 X76.0 Y97.5
M3 S0
M5 S0
G0 X76.0 Y98.0
M3 S255
G1 X76.0 Y98.0
M3 S255
G1 X105.5 Y98.0
M3 S0
G0 X138.0 Y98.0
M3 S255
G1 X138.0 Y98.0
M3 S255
G1 X194.5 Y98.0
M3 S0
G0 X203.0 Y98.0
M3 S255
G1 X203.0 Y98.0
M3 S255
G1 X399.5 Y98.0
M5 S0
G0 X399.5 Y98.5
M3 S255
G1 X203.0 Y98.5
M3 S0
G0 X194.5 Y98.5
M3 S255
G1 X194.5 Y98.5
M3 S255
G1 X138.0 Y98.5
M3 S0
G0 X105.5 Y98.5
M3 S255
G1 X105.5 Y98.5
M3 S255
G1 X76.0 Y98.5
M3 S0
M5 S0
G0 X76.0 Y99.0
M3 S255
G1 X76.0 Y99.0
M3 S255
G1 X108.0 Y99.0
M3 S0
G0 X138.0 Y99.0
M3 S255
G1 X138.0 Y99.0
M3 S255
G1 X193.0 Y99.0
M3 S0
G0 X202.0 Y99.0
M3 S255
G1 X202.0 Y99.0
M3 S255
G1 X399.5 Y99.0
M5 S0
G0 X399.5 Y99.5
M3 S255
G1 X202.0 Y99.5
M3 S0
G0 X193.0 Y99.5
M3 S255
G1 X193.0 Y99.5
M3 S255
G1 X138.0 Y99.5
M3 S0
G0 X108.0 Y99.5
M3 S255
G1 X108.0 Y99.5
M3 S255
G1 X76.0 Y99.5
M3 S0
M5 S0
G0 X76.0 Y100.0
M3 S255
G1 X76.0 Y100.0
M3 S255
G1 X110.5 Y100.0
M3 S0
G0 X137.0 Y100.0
M3 S255
G1 X137.0 Y100.0
M3 S255
G1 X193.0 Y100.0
M3 S0
G0 X202.0 Y100.0
M3 S255
G1 X202.0 Y100.0
M3 S255
G1 X399.5 Y100.0
M5 S0
G0 X399.5 Y100.5
M3 S255
G1 X202.0 Y100.5
M3 S0
G0 X193.0 Y100.5
M3 S255
G1 X193.0 Y100.5
M3 S255
G1 X137.0 Y100.5
M3 S0
G0 X110.5 Y100.5
M3 S255
G1 X110.5 Y100.5
M3 S255
G1 X76.0 Y100.5
M3 S0
M5 S0
G0 X76.0 Y101.0
M3 S255
G1 X76.0 Y101.0
M3 S255
G1 X110.5 Y101.0
M3 S0
G0 X137.0 Y101.0
M3 S255
G1 X137.0 Y101.0
M3 S255
G1 X193.0 Y101.0
M3 S0
G0 X202.0 Y101.0
M3 S255
G1 X202.0 Y101.0
M3 S255
G1 X399.5 Y101.0
M5 S0
G0 X399.5 Y101.5
M3 S255
G1 X200.5 Y101.5
M3 S0
G0 X192.0 Y101.5
M3 S255
G1 X192.0 Y101.5
M3 S255
G1 X164.5 Y101.5
M3 S0
G0 X160.5 Y101.5
M3 S255
G1 X160.5 Y101.5
M3 S255
G1 X134.5 Y101.5
M3 S0
G0 X112.0 Y101.5
M3 S255
G1 X112.0 Y101.5
M3 S255
G1 X76.0 Y101.5
M3 S0
G0 X58.5 Y101.5
M3 S255
G1 X58.5 Y101.5
M3 S255
G1 X57.0 Y101.5
M3 S0
M5 S0
G0 X57.0 Y102.0
M3 S255
G1 X57.0 Y102.0
M3 S255
G1 X58.5 Y102.0
M3 S0
G0 X76.0 Y102.0
M3 S255
G1 X76.0 Y102.0
M3 S255
G1 X112.0 Y102.0
M3 S0
G0 X134.5 Y102.0
M3 S255
G1 X134.5 Y102.0
M3 S255
G1 X160.5 Y102.0
M3 S0
G0 X164.5 Y102.0
M3 S255
G1 X164.5 Y102.0
M3 S255
G1 X192.0 Y102.0
M3 S0
G0 X200.5 Y102.0
M3 S255
G1 X200.5 Y102.0
M3 S255
G1 X399.5 Y102.0
M5 S0
G0 X399.5 Y102.5
M3 S255
G1 X200.5 Y102.5
M3 S0
G0 X190.5 Y102.5
M3 S255
G1 X190.5 Y102.5
M3 S255
G1 X165.5 Y102.5
M3 S0
G0 X159.5 Y102.5
M3 S255
G1 X159.5 Y102.5
M3 S255
G1 X134.5 Y102.5
M3 S0
G0 X112.0 Y102.5
M3 S255
G1 X112.0 Y102.5
M3 S255
G1 X73.5 Y102.5
M3 S0
G0 X58.5 Y102.5
M3 S255
G1 X58.5 Y102.5
M3 S255
G1 X57.0 Y102.5
M3 S0
M5 S0
G0 X57.0 Y103.0
M3 S255
G1 X57.0 Y103.0
M3 S255
G1 X58.5 Y103.0
M3 S0
G0 X73.5 Y103.0
M3 S255
G1 X73.5 Y103.0
M3 S255
G1 X112.0 Y103.0
M3 S0
G0 X134.5 Y103.0
M3 S255
G1 X134.5 Y103.0
M3 S255
G1 X159.5 Y103.0
M3 S0
G0 X165.5 Y103.0
M3 S255
G1 X165.5 Y103.0
M3 S255
G1 X190.5 Y103.0
M3 S0
G0 X200.5 Y103.0
M3 S255
G1 X200.5 Y103.0
M3 S255
G1 X399.5 Y103.0
M5 S0
G0 X399.5 Y103.5
M3 S255
G1 X200.5 Y103.5
M3 S0
G0 X190.5 Y103.5
M3 S255
G1 X190.5 Y103.5
M3 S255
G1 X165.5 Y103.5
M3 S0
G0 X159.5 Y103.5
M3 S255
G1 X159.5 Y103.5
M3 S255
G1 X134.5 Y103.5
M3 S0
G0 X112.0 Y103.5
M3 S255
G1 X112.0 Y103.5
M3 S255
G1 X73.5 Y103.5
M3 S0
G0 X58.5 Y103.5
M3 S255
G1 X58.5 Y103.5
M3 S255
G1 X57.0 Y103.5
M3 S0
M5 S0
G0 X57.0 Y104.0
M3 S255
G1 X57.0 Y104.0
M3 S255
G1 X58.5 Y104.0
M3 S0
G0 X72.0 Y104.0
M3 S255
G1 X72.0 Y104.0
M3 S255
G1 X113.0 Y104.0
M3 S0
G0 X134.5 Y104.0
M3 S255
G1 X134.5 Y104.0
M3 S255
G1 X159.5 Y104.0
M3 S0
G0 X165.5 Y104.0
M3 S255
G1 X165.5 Y104.0
M3 S255
G1 X190.5 Y104.0
M3 S0
G0 X200.5 Y104.0
M3 S255
G1 X200.5 Y104.0
M3 S255
G1 X399.5 Y104.0
M5 S0
G0 X399.5 Y104.5
M3 S255
G1 X200.5 Y104.5
M3 S0
G0 X190.5 Y104.5
M3 S255
G1 X190.5 Y104.5
M3 S255
G1 X165.5 Y104.5
M3 S0
G0 X159.5 Y104.5
M3 S255
G1 X159.5 Y104.5
M3 S255
G1 X134.5 Y104.5
M3 S0
G0 X113.0 Y104.5
M3 S255
G1 X113.0 Y104.5
M3 S255
G1 X72.0 Y104.5
M3 S0
G0 X58.5 Y104.5
M3 S255
G1 X58.5 Y104.5
M3 S255
G1 X57.0 Y104.5
M3 S0
M5 S0
G0 X56.0 Y105.0
M3 S255
G1 X56.0 Y105.0
M3 S255
G1 X59.5 Y105.0
M3 S0
G0 X71.0 Y105.0
M3 S255
G1 X71.0 Y105.0
M3 S255
G1 X114.5 Y105.0
M3 S0
G0 X134.5 Y105.0
M3 S255
G1 X134.5 Y105.0
M3 S255
G1 X159.5 Y105.0
M3 S0
G0 X164.5 Y105.0
M3 S255
G1 X164.5 Y105.0
M3 S255
G1 X169.5 Y105.0
M3 S0
G0 X173.0 Y105.0
M3 S255
G1 X173.0 Y105.0
M3 S255
G1 X189.5 Y105.0
M3 S0
G0 X199.5 Y105.0
M3 S255
G1 X199.5 Y105.0
M3 S255
G1 X399.5 Y105.0
M5 S0
G0 X399.5 Y105.5
M3 S255
G1 X199.5 Y105.5
M3 S0
G0 X189.5 Y105.5
M3 S255
G1 X189.5 Y105.5
M3 S255
G1 X173.0 Y105.5
M3 S0
G0 X169.5 Y105.5
M3 S255
G1 X169.5 Y105.5
M3 S255
G1 X164.5 Y105.5
M3 S0
G0 X159.5 Y105.5
M3 S255
G1 X159.5 Y105.5
M3 S255
G1 X134.5 Y105.5
M3 S0
G0 X114.5 Y105.5
M3 S255
G1 X114.5 Y105.5
M3 S255
G1 X71.0 Y105.5
M3 S0
G0 X59.5 Y105.5
M3 S255
G1 X59.5 Y105.5
M3 S255
G1 X56.0 Y105.5
M3 S0
M5 S0
G0 X56.0 Y106.0
M3 S255
G1 X56.0 Y106.0
M3 S255
G1 X59.5 Y106.0
M3 S0
G0 X71.0 Y106.0
M3 S255
G1 X71.0 Y106.0
M3 S255
G1 X114.5 Y106.0
M3 S0
G0 X134.5 Y106.0
M3 S255
G1 X134.5 Y106.0
M3 S255
G1 X159.5 Y106.0
M3 S0
G0 X164.5 Y106.0
M3 S255
G1 X164.5 Y106.0
M3 S255
G1 X169.5 Y106.0
M3 S0
G0 X173.0 Y106.0
M3 S255
G1 X173.0 Y106.0
M3 S255
G1 X189.5 Y106.0
M3 S0
G0 X199.5 Y106.0
M3 S255
G1 X199.5 Y106.0
M3 S255
G1 X399.5 Y106.0
M5 S0
G0 X399.5 Y106.5
M3 S255
G1 X199.5 Y106.5
M3 S0
G0 X192.0 Y106.5
M3 S255
G1 X192.0 Y106.5
M3 S255
G1 X173.0 Y106.5
M3 S0
G0 X164.5 Y106.5
M3 S255
G1 X164.5 Y106.5
M3 S255
G1 X133.0 Y106.5
M3 S0
G0 X114.5 Y106.5
M3 S255
G1 X114.5 Y106.5
M3 S255
G1 X71.0 Y106.5
M3 S0
G0 X59.5 Y106.5
M3 S255
G1 X59.5 Y106.5
M3 S255
G1 X54.5 Y106.5
M3 S0
M5 S0
G0 X54.5 Y107.0
M3 S255
G1 X54.5 Y107.0
M3 S255
G1 X59.5 Y107.0
M3 S0
G0 X71.0 Y107.0
M3 S255
G1 X71.0 Y107.0
M3 S255
G1 X114.5 Y107.0
M3 S0
G0 X133.0 Y107.0
M3 S255
G1 X133.0 Y107.0
M3 S255
G1 X164.5 Y107.0
M3 S0
G0 X173.0 Y107.0
M3 S255
G1 X173.0 Y107.0
M3 S255
G1 X192.0 Y107.0
M3 S0
G0 X199.5 Y107.0
M3 S255
G1 X199.5 Y107.0
M3 S255
G1 X399.5 Y107.0
M5 S0
G0 X399.5 Y107.5
M3 S255
G1 X198.0 Y107.5
M3 S0
G0 X193.0 Y107.5
M3 S255
G1 X193.0 Y107.5
M3 S255
G1 X172.0 Y107.5
M3 S0
G0 X162.0 Y107.5
M3 S255
G1 X162.0 Y107.5
M3 S255
G1 X133.0 Y107.5
M3 S0
G0 X115.5 Y107.5
M3 S255
G1 X115.5 Y107.5
M3 S255
G1 X71.0 Y107.5
M3 S0
G0 X59.5 Y107.5
M3 S255
G1 X59.5 Y107.5
M3 S255
G1 X54.5 Y107.5
M3 S0
M5 S0
G0 X54.5 Y108.0
M3 S255
G1 X54.5 Y108.0
M3 S255
G1 X59.5 Y108.0
M3 S0
G0 X71.0 Y108.0
M3 S255
G1 X71.0 Y108.0
M3 S255
G1 X115.5 Y108.0
M3 S0
G0 X133.0 Y108.0
M3 S255
G1 X133.0 Y108.0
M3 S255
G1 X162.0 Y108.0
M3 S0
G0 X172.0 Y108.0
M3 S255
G1 X172.0 Y108.0
M3 S255
G1 X193.0 Y108.0
M3 S0
G0 X198.0 Y108.0
M3 S255
G1 X198.0 Y108.0
M3 S255
G1 X399.5 Y108.0
M5 S0
G0 X399.5 Y108.5
M3 S255
G1 X198.0 Y108.5
M3 S0
G0 X193.0 Y108.5
M3 S255
G1 X193.0 Y108.5
M3 S255
G1 X172.0 Y108.5
M3 S0
G0 X162.0 Y108.5
M3 S255
G1 X162.0 Y108.5
M3 S255
G1 X133.0 Y108.5
M3 S0
G0 X115.5 Y108.5
M3 S255
G1 X115.5 Y108.5
M3 S255
G1 X71.0 Y108.5
M3 S0
G0 X59.5 Y108.5
M3 S255
G1 X59.5 Y108.5
M3 S255
G1 X54.5 Y108.5
M3 S0
M5 S0
G0 X53.5 Y109.0
M3 S255
G1 X53.5 Y109.0
M3 S255
G1 X61.0 Y109.0
M3 S0
G0 X71.0 Y109.0
M3 S255
G1 X71.0 Y109.0
M3 S255
G1 X117.0 Y109.0
M3 S0
G0 X132.0 Y109.0
M3 S255
G1 X132.0 Y109.0
M3 S255
G1 X167.0 Y109.0
M3 S0
G0 X169.5 Y109.0
M3 S255
G1 X169.5 Y109.0
M3 S255
G1 X193.0 Y109.0
M3 S0
G0 X198.0 Y109.0
M3 S255
G1 X198.0 Y109.0
M3 S255
G1 X399.5 Y109.0
M5 S0
G0 X399.5 Y109.5
M3 S255
G1 X198.0 Y109.5
M3 S0
G0 X193.0 Y109.5
M3 S255
G1 X193.0 Y109.5
M3 S255
G1 X169.5 Y109.5
M3 S0
G0 X167.0 Y109.5
M3 S255
G1 X167.0 Y109.5
M3 S255
G1 X132.0 Y109.5
M3 S0
G0 X117.0 Y109.5
M3 S255
G1 X117.0 Y109.5
M3 S255
G1 X71.0 Y109.5
M3 S0
G0 X61.0 Y109.5
M3 S255
G1 X61.0 Y109.5
M3 S255
G1 X53.5 Y109.5
M3 S0
M5 S0
G0 X53.5 Y110.0
M3 S255
G1 X53.5 Y110.0
M3 S255
G1 X61.0 Y110.0
M3 S0
G0 X69.5 Y110.0
M3 S255
G1 X69.5 Y110.0
M3 S255
G1 X118.0 Y110.0
M3 S0
G0 X132.0 Y110.0
M3 S255
G1 X132.0 Y110.0
M3 S255
G1 X193.0 Y110.0
M3 S0
G0 X198.0 Y110.0
M3 S255
G1 X198.0 Y110.0
M3 S255
G1 X399.5 Y110.0
M5 S0
G0 X399.5 Y110.5
M3 S255
G1 X198.0 Y110.5
M3 S0
G0 X193.0 Y110.5
M3 S255
G1 X193.0 Y110.5
M3 S255
G1 X132.0 Y110.5
M3 S0
G0 X118.0 Y110.5
M3 S255
G1 X118.0 Y110.5
M3 S255
G1 X69.5 Y110.5
M3 S0
G0 X61.0 Y110.5
M3 S255
G1 X61.0 Y110.5
M3 S255
G1 X53.5 Y110.5
M3 S0
M5 S0
G0 X53.5 Y111.0
M3 S255
G1 X53.5 Y111.0
M3 S255
G1 X61.0 Y111.0
M3 S0
G0 X69.5 Y111.0
M3 S255
G1 X69.5 Y111.0
M3 S255
G1 X118.0 Y111.0
M3 S0
G0 X132.0 Y111.0
M3 S255
G1 X132.0 Y111.0
M3 S255
G1 X193.0 Y111.0
M3 S0
G0 X198.0 Y111.0
M3 S255
G1 X198.0 Y111.0
M3 S255
G1 X399.5 Y111.0
M5 S0
G0 X399.5 Y111.5
M3 S255
G1 X198.0 Y111.5
M3 S0
G0 X193.0 Y111.5
M3 S255
G1 X193.0 Y111.5
M3 S255
G1 X130.5 Y111.5
M3 S0
G0 X119.5 Y111.5
M3 S255
G1 X119.5 Y111.5
M3 S255
G1 X78.5 Y111.5
M3 S0
G0 X76.0 Y111.5
M3 S255
G1 X76.0 Y111.5
M3 S255
G1 X69.5 Y111.5
M3 S0
G0 X61.0 Y111.5
M3 S255
G1 X61.0 Y111.5
M3 S255
G1 X52.0 Y111.5
M3 S0
M5 S0
G0 X52.0 Y112.0
M3 S255
G1 X52.0 Y112.0
M3 S255
G1 X61.0 Y112.0
M3 S0
G0 X69.5 Y112.0
M3 S255
G1 X69.5 Y112.0
M3 S255
G1 X76.0 Y112.0
M3 S0
G0 X78.5 Y112.0
M3 S255
G1 X78.5 Y112.0
M3 S255
G1 X119.5 Y112.0
M3 S0
G0 X130.5 Y112.0
M3 S255
G1 X130.5 Y112.0
M3 S255
G1 X193.0 Y112.0
M3 S0
G0 X198.0 Y112.0
M3 S255
G1 X198.0 Y112.0
M3 S255
G1 X399.5 Y112.0
M5 S0
G0 X399.5 Y112.5
M3 S255
G1 X344.5 Y112.5
M3 S0
G0 X343.0 Y112.5
M3 S255
G1 X343.0 Y112.5
M3 S255
G1 X335.5 Y112.5
M3 S0
G0 X299.5 Y112.5
M3 S255
G1 X299.5 Y112.5
M3 S255
G1 X298.0 Y112.5
M3 S0
G0 X295.5 Y112.5
M3 S255
G1 X295.5 Y112.5
M3 S255
G1 X198.0 Y112.5
M3 S0
G0 X192.0 Y112.5
M3 S255
G1 X192.0 Y112.5
M3 S255
G1 X129.5 Y112.5
M3 S0
G0 X120.5 Y112.5
M3 S255
G1 X120.5 Y112.5
M3 S255
G1 X93.0 Y112.5
M3 S0
G0 X87.0 Y112.5
M3 S255
G1 X87.0 Y112.5
M3 S255
G1 X81.0 Y112.5
M3 S0
G0 X76.0 Y112.5
M3 S255
G1 X76.0 Y112.5
M3 S255
G1 X69.5 Y112.5
M3 S0
G0 X62.0 Y112.5
M3 S255
G1 X62.0 Y112.5
M3 S255
G1 X52.0 Y112.5
M3 S0
M5 S0
G0 X52.0 Y113.0
M3 S255
G1 X52.0 Y113.0
M3 S255
G1 X62.0 Y113.0
M3 S0
G0 X69.5 Y113.0
M3 S255
G1 X69.5 Y113.0
M3 S255
G1 X76.0 Y113.0
M3 S0
G0 X81.0 Y113.0
M3 S255
G1 X81.0 Y113.0
M3 S255
G1 X87.0 Y113.0
M3 S0
G0 X93.0 Y113.0
M3 S255
G1 X93.0 Y113.0
M3 S255
G1 X120.5 Y113.0
M3 S0
G0 X129.5 Y113.0
M3 S255
G1 X129.5 Y113.0
M3 S255
G1 X192.0 Y113.0
M3 S0
G0 X198.0 Y113.0
M3 S255
G1 X198.0 Y113.0
M3 S255
G1 X295.5 Y113.0
M3 S0
G0 X298.0 Y113.0
M3 S255
G1 X298.0 Y113.0
M3 S255
G1 X299.5 Y113.0
M3 S0
G0 X335.5 Y113.0
M3 S255
G1 X335.5 Y113.0
M3 S255
G1 X343.0 Y113.0
M3 S0
G0 X344.5 Y113.0
M3 S255
G1 X344.5 Y113.0
M3 S255
G1 X399.5 Y113.0
M5 S0
G0 X399.5 Y113.5
M3 S255
G1 X344.5 Y113.5
M3 S0
G0 X343.0 Y113.5
M3 S255
G1 X343.0 Y113.5
M3 S255
G1 X335.5 Y113.5
M3 S0
G0 X299.5 Y113.5
M3 S255
G1 X299.5 Y113.5
M3 S255
G1 X298.0 Y113.5
M3 S0
G0 X295.5 Y113.5
M3 S255
G1 X295.5 Y113.5
M3 S255
G1 X198.0 Y113.5
M3 S0
G0 X192.0 Y113.5
M3 S255
G1 X192.0 Y113.5
M3 S255
G1 X129.5 Y113.5
M3 S0
G0 X120.5 Y113.5
M3 S255
G1 X120.5 Y113.5
M3 S255
G1 X93.0 Y113.5
M3 S0
G0 X87.0 Y113.5
M3 S255
G1 X87.0 Y113.5
M3 S255
G1 X81.0 Y113.5
M3 S0
G0 X76.0 Y113.5
M3 S255
G1 X76.0 Y113.5
M3 S255
G1 X69.5 Y113.5
M3 S0
G0 X62.0 Y113.5
M3 S255
G1 X62.0 Y113.5
M3 S255
G1 X52.0 Y113.5
M3 S0
M5 S0
G0 X52.0 Y114.0
M3 S255
G1 X52.0 Y114.0
M3 S255
G1 X62.0 Y114.0
M3 S0
G0 X69.5 Y114.0
M3 S255
G1 X69.5 Y114.0
M3 S255
G1 X76.0 Y114.0
M3 S0
G0 X81.0 Y114.0
M3 S255
G1 X81.0 Y114.0
M3 S255
G1 X88.5 Y114.0
M3 S0
G0 X94.5 Y114.0
M3 S255
G1 X94.5 Y114.0
M3 S255
G1 X123.0 Y114.0
M3 S0
G0 X129.5 Y114.0
M3 S255
G1 X129.5 Y114.0
M3 S255
G1 X190.5 Y114.0
M3 S0
G0 X198.0 Y114.0
M3 S255
G1 X198.0 Y114.0
M3 S255
G1 X285.5 Y114.0
M3 S0
G0 X335.5 Y114.0
M3 S255
G1 X335.5 Y114.0
M3 S255
G1 X343.0 Y114.0
M3 S0
G0 X354.5 Y114.0
M3 S255
G1 X354.5 Y114.0
M3 S255
G1 X399.5 Y114.0
M5 S0
G0 X399.5 Y114.5
M3 S255
G1 X354.5 Y114.5
M3 S0
G0 X343.0 Y114.5
M3 S255
G1 X343.0 Y114.5
M3 S255
G1 X335.5 Y114.5
M3 S0
G0 X285.5 Y114.5
M3 S255
G1 X285.5 Y114.5
M3 S255
G1 X198.0 Y114.5
M3 S0
G0 X190.5 Y114.5
M3 S255
G1 X190.5 Y114.5
M3 S255
G1 X129.5 Y114.5
M3 S0
G0 X123.0 Y114.5
M3 S255
G1 X123.0 Y114.5
M3 S255
G1 X94.5 Y114.5
M3 S0
G0 X88.5 Y114.5
M3 S255
G1 X88.5 Y114.5
M3 S255
G1 X81.0 Y114.5
M3 S0
G0 X76.0 Y114.5
M3 S255
G1 X76.0 Y114.5
M3 S255
G1 X69.5 Y114.5
M3 S0
G0 X62.0 Y114.5
M3 S255
G1 X62.0 Y114.5
M3 S255
G1 X52.0 Y114.5
M3 S0
M5 S0
G0 X51.0 Y115.0
M3 S255
G1 X51.0 Y115.0
M3 S255
G1 X62.0 Y115.0
M3 S0
G0 X69.5 Y115.0
M3 S255
G1 X69.5 Y115.0
M3 S255
G1 X76.0 Y115.0
M3 S0
G0 X81.0 Y115.0
M3 S255
G1 X81.0 Y115.0
M3 S255
G1 X88.5 Y115.0
M3 S0
G0 X94.5 Y115.0
M3 S255
G1 X94.5 Y115.0
M3 S255
G1 X123.0 Y115.0
M3 S0
G0 X129.5 Y115.0
M3 S255
G1 X129.5 Y115.0
M3 S255
G1 X189.5 Y115.0
M3 S0
G0 X198.0 Y115.0
M3 S255
G1 X198.0 Y115.0
M3 S255
G1 X285.5 Y115.0
M3 S0
G0 X335.5 Y115.0
M3 S255
G1 X335.5 Y115.0
M3 S255
G1 X342.0 Y115.0
M3 S0
G0 X357.0 Y115.0
M3 S255
G1 X357.0 Y115.0
M3 S255
G1 X399.5 Y115.0
M5 S0
G0 X399.5 Y115.5
M3 S255
G1 X357.0 Y115.5
M3 S0
G0 X342.0 Y115.5
M3 S255
G1 X342.0 Y115.5
M3 S255
G1 X335.5 Y115.5
M3 S0
G0 X285.5 Y115.5
M3 S255
G1 X285.5 Y115.5
M3 S255
G1 X198.0 Y115.5
M3 S0
G0 X189.5 Y115.5
M3 S255
G1 X189.5 Y115.5
M3 S255
G1 X129.5 Y115.5
M3 S0
G0 X123.0 Y115.5
M3 S255
G1 X123.0 Y115.5
M3 S255
G1 X94.5 Y115.5
M3 S0
G0 X88.5 Y115.5
M3 S255
G1 X88.5 Y115.5
M3 S255
G1 X81.0 Y115.5
M3 S0
G0 X76.0 Y115.5
M3 S255
G1 X76.0 Y115.5
M3 S255
G1 X69.5 Y115.5
M3 S0
G0 X62.0 Y115.5
M3 S255
G1 X62.0 Y115.5
M3 S255
G1 X51.0 Y115.5
M3 S0
M5 S0
G0 X51.0 Y116.0
M3 S255
G1 X51.0 Y116.0
M3 S255
G1 X62.0 Y116.0
M3 S0
G0 X69.5 Y116.0
M3 S255
G1 X69.5 Y116.0
M3 S255
G1 X76.0 Y116.0
M3 S0
G0 X81.0 Y116.0
M3 S255
G1 X81.0 Y116.0
M3 S255
G1 X88.5 Y116.0
M3 S0
G0 X94.5 Y116.0
M3 S255
G1 X94.5 Y116.0
M3 S255
G1 X123.0 Y116.0
M3 S0
G0 X129.5 Y116.0
M3 S255
G1 X129.5 Y116.0
M3 S255
G1 X189.5 Y116.0
M3 S0
G0 X198.0 Y116.0
M3 S255
G1 X198.0 Y116.0
M3 S255
G1 X285.5 Y116.0
M3 S0
G0 X335.5 Y116.0
M3 S255
G1 X335.5 Y116.0
M3 S255
G1 X342.0 Y116.0
M3 S0
G0 X357.0 Y116.0
M3 S255
G1 X357.0 Y116.0
M3 S255
G1 X399.5 Y116.0
M5 S0
G0 X399.5 Y116.5
M3 S255
G1 X359.5 Y116.5
M3 S0
G0 X342.0 Y116.5
M3 S255
G1 X342.0 Y116.5
M3 S255
G1 X335.5 Y116.5
M3 S0
G0 X287.0 Y116.5
M3 S255
G1 X287.0 Y116.5
M3 S255
G1 X198.0 Y116.5
M3 S0
G0 X187.0 Y116.5
M3 S255
G1 X187.0 Y116.5
M3 S255
G1 X129.5 Y116.5
M3 S0
G0 X124.5 Y116.5
M3 S255
G1 X124.5 Y116.5
M3 S255
G1 X82.0 Y116.5
M3 S0
G0 X76.0 Y116.5
M3 S255
G1 X76.0 Y116.5
M3 S255
G1 X71.0 Y116.5
M3 S0
G0 X63.5 Y116.5
M3 S255
G1 X63.5 Y116.5
M3 S255
G1 X49.5 Y116.5
M3 S0
M5 S0
G0 X49.5 Y117.0
M3 S255
G1 X49.5 Y117.0
M3 S255
G1 X63.5 Y117.0
M3 S0
G0 X71.0 Y117.0
M3 S255
G1 X71.0 Y117.0
M3 S255
G1 X76.0 Y117.0
M3 S0
G0 X82.0 Y117.0
M3 S255
G1 X82.0 Y117.0
M3 S255
G1 X124.5 Y117.0
M3 S0
G0 X129.5 Y117.0
M3 S255
G1 X129.5 Y117.0
M3 S255
G1 X187.0 Y117.0
M3 S0
G0 X198.0 Y117.0
M3 S255
G1 X198.0 Y117.0
M3 S255
G1 X287.0 Y117.0
M3 S0
G0 X335.5 Y117.0
M3 S255
G1 X335.5 Y117.0
M3 S255
G1 X342.0 Y117.0
M3 S0
G0 X359.5 Y117.0
M3 S255
G1 X359.5 Y117.0
M3 S255
G1 X399.5 Y117.0
M5 S0
G0 X399.5 Y117.5
M3 S255
G1 X360.5 Y117.5
M3 S0
G0 X340.5 Y117.5
M3 S255
G1 X340.5 Y117.5
M3 S255
G1 X335.5 Y117.5
M3 S0
G0 X288.0 Y117.5
M3 S255
G1 X288.0 Y117.5
M3 S255
G1 X198.0 Y117.5
M3 S0
G0 X184.5 Y117.5
M3 S255
G1 X184.5 Y117.5
M3 S255
G1 X129.5 Y117.5
M3 S0
G0 X125.5 Y117.5
M3 S255
G1 X125.5 Y117.5
M3 S255
G1 X95.5 Y117.5
M3 S0
G0 X77.0 Y117.5
M3 S255
G1 X77.0 Y117.5
M3 S255
G1 X72.0 Y117.5
M3 S0
G0 X63.5 Y117.5
M3 S255
G1 X63.5 Y117.5
M3 S255
G1 X48.5 Y117.5
M3 S0
M5 S0
G0 X48.5 Y118.0
M3 S255
G1 X48.5 Y118.0
M3 S255
G1 X63.5 Y118.0
M3 S0
G0 X72.0 Y118.0
M3 S255
G1 X72.0 Y118.0
M3 S255
G1 X77.0 Y118.0
M3 S0
G0 X95.5 Y118.0
M3 S255
G1 X95.5 Y118.0
M3 S255
G1 X125.5 Y118.0
M3 S0
G0 X129.5 Y118.0
M3 S255
G1 X129.5 Y118.0
M3 S255
G1 X184.5 Y118.0
M3 S0
G0 X198.0 Y118.0
M3 S255
G1 X198.0 Y118.0
M3 S255
G1 X288.0 Y118.0
M3 S0
G0 X335.5 Y118.0
M3 S255
G1 X335.5 Y118.0
M3 S255
G1 X340.5 Y118.0
M3 S0
G0 X360.5 Y118.0
M3 S255
G1 X360.5 Y118.0
M3 S255
G1 X399.5 Y118.0
M5 S0
G0 X399.5 Y118.5
M3 S255
G1 X360.5 Y118.5
M3 S0
G0 X340.5 Y118.5
M3 S255
G1 X340.5 Y118.5
M3 S255
G1 X335.5 Y118.5
M3 S0
G0 X288.0 Y118.5
M3 S255
G1 X288.0 Y118.5
M3 S255
G1 X198.0 Y118.5
M3 S0
G0 X184.5 Y118.5
M3 S255
G1 X184.5 Y118.5
M3 S255
G1 X129.5 Y118.5
M3 S0
G0 X125.5 Y118.5
M3 S255
G1 X125.5 Y118.5
M3 S255
G1 X95.5 Y118.5
M3 S0
G0 X77.0 Y118.5
M3 S255
G1 X77.0 Y118.5
M3 S255
G1 X72.0 Y118.5
M3 S0
G0 X63.5 Y118.5
M3 S255
G1 X63.5 Y118.5
M3 S255
G1 X48.5 Y118.5
M3 S0
M5 S0
G0 X47.0 Y119.0
M3 S255
G1 X47.0 Y119.0
M3 S255
G1 X64.5 Y119.0
M3 S0
G0 X73.5 Y119.0
M3 S255
G1 X73.5 Y119.0
M3 S255
G1 X77.0 Y119.0
M3 S0
G0 X95.5 Y119.0
M3 S255
G1 X95.5 Y119.0
M3 S255
G1 X183.0 Y119.0
M3 S0
G0 X197.0 Y119.0
M3 S255
G1 X197.0 Y119.0
M3 S255
G1 X289.5 Y119.0
M3 S0
G0 X327.0 Y119.0
M3 S255
G1 X327.0 Y119.0
M3 S255
G1 X340.5 Y119.0
M3 S0
G0 X344.5 Y119.0
M3 S255
G1 X344.5 Y119.0
M3 S255
G1 X399.5 Y119.0
M5 S0
G0 X399.5 Y119.5
M3 S255
G1 X344.5 Y119.5
M3 S0
G0 X340.5 Y119.5
M3 S255
G1 X340.5 Y119.5
M3 S255
G1 X327.0 Y119.5
M3 S0
G0 X289.5 Y119.5
M3 S255
G1 X289.5 Y119.5
M3 S255
G1 X197.0 Y119.5
M3 S0
G0 X183.0 Y119.5
M3 S255
G1 X183.0 Y119.5
M3 S255
G1 X95.5 Y119.5
M3 S0
G0 X77.0 Y119.5
M3 S255
G1 X77.0 Y119.5
M3 S255
G1 X73.5 Y119.5
M3 S0
G0 X64.5 Y119.5
M3 S255
G1 X64.5 Y119.5
M3 S255
G1 X47.0 Y119.5
M3 S0
M5 S0
G0 X44.5 Y120.0
M3 S255
G1 X44.5 Y120.0
M3 S255
G1 X64.5 Y120.0
M3 S0
G0 X73.5 Y120.0
M3 S255
G1 X73.5 Y120.0
M3 S255
G1 X78.5 Y120.0
M3 S0
G0 X94.5 Y120.0
M3 S255
G1 X94.5 Y120.0
M3 S255
G1 X180.5 Y120.0
M3 S0
G0 X197.0 Y120.0
M3 S255
G1 X197.0 Y120.0
M3 S255
G1 X340.5 Y120.0
M3 S0
G0 X344.5 Y120.0
M3 S255
G1 X344.5 Y120.0
M3 S255
G1 X399.5 Y120.0
M5 S0
G0 X399.5 Y120.5
M3 S255
G1 X344.5 Y120.5
M3 S0
G0 X340.5 Y120.5
M3 S255
G1 X340.5 Y120.5
M3 S255
G1 X197.0 Y120.5
M3 S0
G0 X180.5 Y120.5
M3 S255
G1 X180.5 Y120.5
M3 S255
G1 X94.5 Y120.5
M3 S0
G0 X78.5 Y120.5
M3 S255
G1 X78.5 Y120.5
M3 S255
G1 X73.5 Y120.5
M3 S0
G0 X64.5 Y120.5
M3 S255
G1 X64.5 Y120.5
M3 S255
G1 X44.5 Y120.5
M3 S0
M5 S0
G0 X44.5 Y121.0
M3 S255
G1 X44.5 Y121.0
M3 S255
G1 X64.5 Y121.0
M3 S0
G0 X73.5 Y121.0
M3 S255
G1 X73.5 Y121.0
M3 S255
G1 X78.5 Y121.0
M3 S0
G0 X94.5 Y121.0
M3 S255
G1 X94.5 Y121.0
M3 S255
G1 X180.5 Y121.0
M3 S0
G0 X197.0 Y121.0
M3 S255
G1 X197.0 Y121.0
M3 S255
G1 X340.5 Y121.0
M3 S0
G0 X344.5 Y121.0
M3 S255
G1 X344.5 Y121.0
M3 S255
G1 X399.5 Y121.0
M5 S0
G0 X399.5 Y121.5
M3 S255
G1 X344.5 Y121.5
M3 S0
G0 X340.5 Y121.5
M3 S255
G1 X340.5 Y121.5
M3 S255
G1 X197.0 Y121.5
M3 S0
G0 X178.0 Y121.5
M3 S255
G1 X178.0 Y121.5
M3 S255
G1 X129.5 Y121.5
M3 S0
G0 X127.0 Y121.5
M3 S255
G1 X127.0 Y121.5
M3 S255
G1 X91.0 Y121.5
M3 S0
G0 X79.5 Y121.5
M3 S255
G1 X79.5 Y121.5
M3 S255
G1 X74.5 Y121.5
M3 S0
G0 X64.5 Y121.5
M3 S255
G1 X64.5 Y121.5
M3 S255
G1 X43.5 Y121.5
M3 S0
M5 S0
G0 X43.5 Y122.0
M3 S255
G1 X43.5 Y122.0
M3 S255
G1 X64.5 Y122.0
M3 S0
G0 X74.5 Y122.0
M3 S255
G1 X74.5 Y122.0
M3 S255
G1 X79.5 Y122.0
M3 S0
G0 X91.0 Y122.0
M3 S255
G1 X91.0 Y122.0
M3 S255
G1 X127.0 Y122.0
M3 S0
G0 X129.5 Y122.0
M3 S255
G1 X129.5 Y122.0
M3 S255
G1 X178.0 Y122.0
M3 S0
G0 X197.0 Y122.0
M3 S255
G1 X197.0 Y122.0
M3 S255
G1 X340.5 Y122.0
M3 S0
G0 X344.5 Y122.0
M3 S255
G1 X344.5 Y122.0
M3 S255
G1 X399.5 Y122.0
M5 S0
G0 X399.5 Y122.5
M3 S255
G1 X343.0 Y122.5
M3 S0
G0 X342.0 Y122.5
M3 S255
G1 X342.0 Y122.5
M3 S255
G1 X197.0 Y122.5
M3 S0
G0 X174.5 Y122.5
M3 S255
G1 X174.5 Y122.5
M3 S255
G1 X130.5 Y122.5
M3 S0
G0 X127.0 Y122.5
M3 S255
G1 X127.0 Y122.5
M3 S255
G1 X76.0 Y122.5
M3 S0
G0 X66.0 Y122.5
M3 S255
G1 X66.0 Y122.5
M3 S255
G1 X41.0 Y122.5
M3 S0
M5 S0
G0 X41.0 Y123.0
M3 S255
G1 X41.0 Y123.0
M3 S255
G1 X66.0 Y123.0
M3 S0
G0 X76.0 Y123.0
M3 S255
G1 X76.0 Y123.0
M3 S255
G1 X127.0 Y123.0
M3 S0
G0 X130.5 Y123.0
M3 S255
G1 X130.5 Y123.0
M3 S255
G1 X174.5 Y123.0
M3 S0
G0 X197.0 Y123.0
M3 S255
G1 X197.0 Y123.0
M3 S255
G1 X342.0 Y123.0
M3 S0
G0 X343.0 Y123.0
M3 S255
G1 X343.0 Y123.0
M3 S255
G1 X399.5 Y123.0
M5 S0
G0 X399.5 Y123.5
M3 S255
G1 X343.0 Y123.5
M3 S0
G0 X342.0 Y123.5
M3 S255
G1 X342.0 Y123.5
M3 S255
G1 X197.0 Y123.5
M3 S0
G0 X174.5 Y123.5
M3 S255
G1 X174.5 Y123.5
M3 S255
G1 X130.5 Y123.5
M3 S0
G0 X127.0 Y123.5
M3 S255
G1 X127.0 Y123.5
M3 S255
G1 X76.0 Y123.5
M3 S0
G0 X66.0 Y123.5
M3 S255
G1 X66.0 Y123.5
M3 S255
G1 X41.0 Y123.5
M3 S0
M5 S0
G0 X39.5 Y124.0
M3 S255
G1 X39.5 Y124.0
M3 S255
G1 X66.0 Y124.0
M3 S0
G0 X76.0 Y124.0
M3 S255
G1 X76.0 Y124.0
M3 S255
G1 X127.0 Y124.0
M3 S0
G0 X130.5 Y124.0
M3 S255
G1 X130.5 Y124.0
M3 S255
G1 X172.0 Y124.0
M3 S0
G0 X197.0 Y124.0
M3 S255
G1 X197.0 Y124.0
M3 S255
G1 X399.5 Y124.0
M5 S0
G0 X399.5 Y124.5
M3 S255
G1 X197.0 Y124.5
M3 S0
G0 X172.0 Y124.5
M3 S255
G1 X172.0 Y124.5
M3 S255
G1 X130.5 Y124.5
M3 S0
G0 X127.0 Y124.5
M3 S255
G1 X127.0 Y124.5
M3 S255
G1 X76.0 Y124.5
M3 S0
G0 X66.0 Y124.5
M3 S255
G1 X66.0 Y124.5
M3 S255
G1 X39.5 Y124.5
M3 S0
M5 S0
G0 X37.0 Y125.0
M3 S255
G1 X37.0 Y125.0
M3 S255
G1 X67.0 Y125.0
M3 S0
G0 X76.0 Y125.0
M3 S255
G1 X76.0 Y125.0
M3 S255
G1 X127.0 Y125.0
M3 S0
G0 X129.5 Y125.0
M3 S255
G1 X129.5 Y125.0
M3 S255
G1 X168.0 Y125.0
M3 S0
G0 X197.0 Y125.0
M3 S255
G1 X197.0 Y125.0
M3 S255
G1 X399.5 Y125.0
M5 S0
G0 X399.5 Y125.5
M3 S255
G1 X197.0 Y125.5
M3 S0
G0 X168.0 Y125.5
M3 S255
G1 X168.0 Y125.5
M3 S255
G1 X129.5 Y125.5
M3 S0
G0 X127.0 Y125.5
M3 S255
G1 X127.0 Y125.5
M3 S255
G1 X76.0 Y125.5
M3 S0
G0 X67.0 Y125.5
M3 S255
G1 X67.0 Y125.5
M3 S255
G1 X37.0 Y125.5
M3 S0
M5 S0
G0 X37.0 Y126.0
M3 S255
G1 X37.0 Y126.0
M3 S255
G1 X67.0 Y126.0
M3 S0
G0 X76.0 Y126.0
M3 S255
G1 X76.0 Y126.0
M3 S255
G1 X127.0 Y126.0
M3 S0
G0 X129.5 Y126.0
M3 S255
G1 X129.5 Y126.0
M3 S255
G1 X168.0 Y126.0
M3 S0
G0 X197.0 Y126.0
M3 S255
G1 X197.0 Y126.0
M3 S255
G1 X399.5 Y126.0
M5 S0
G0 X399.5 Y126.5
M3 S255
G1 X197.0 Y126.5
M3 S0
G0 X160.5 Y126.5
M3 S255
G1 X160.5 Y126.5
M3 S255
G1 X134.5 Y126.5
M3 S0
G0 X129.5 Y126.5
M3 S255
G1 X129.5 Y126.5
M3 S255
G1 X128.0 Y126.5
M3 S0
G0 X127.0 Y126.5
M3 S255
G1 X127.0 Y126.5
M3 S255
G1 X74.5 Y126.5
M3 S0
G0 X67.0 Y126.5
M3 S255
G1 X67.0 Y126.5
M3 S255
G1 X36.0 Y126.5
M3 S0
M5 S0
G0 X36.0 Y127.0
M3 S255
G1 X36.0 Y127.0
M3 S255
G1 X67.0 Y127.0
M3 S0
G0 X74.5 Y127.0
M3 S255
G1 X74.5 Y127.0
M3 S255
G1 X127.0 Y127.0
M3 S0
G0 X128.0 Y127.0
M3 S255
G1 X128.0 Y127.0
M3 S255
G1 X129.5 Y127.0
M3 S0
G0 X134.5 Y127.0
M3 S255
G1 X134.5 Y127.0
M3 S255
G1 X160.5 Y127.0
M3 S0
G0 X197.0 Y127.0
M3 S255
G1 X197.0 Y127.0
M3 S255
G1 X399.5 Y127.0
M5 S0
G0 X399.5 Y127.5
M3 S255
G1 X197.0 Y127.5
M3 S0
G0 X157.0 Y127.5
M3 S255
G1 X157.0 Y127.5
M3 S255
G1 X145.5 Y127.5
M3 S0
G0 X142.0 Y127.5
M3 S255
G1 X142.0 Y127.5
M3 S255
G1 X137.0 Y127.5
M3 S0
G0 X125.5 Y127.5
M3 S255
G1 X125.5 Y127.5
M3 S255
G1 X73.5 Y127.5
M3 S0
G0 X67.0 Y127.5
M3 S255
G1 X67.0 Y127.5
M3 S255
G1 X33.5 Y127.5
M3 S0
G0 X15.5 Y127.5
M3 S255
G1 X15.5 Y127.5
M3 S255
G1 X14.5 Y127.5
M3 S0
M5 S0
G0 X14.5 Y128.0
M3 S255
G1 X14.5 Y128.0
M3 S255
G1 X15.5 Y128.0
M3 S0
G0 X33.5 Y128.0
M3 S255
G1 X33.5 Y128.0
M3 S255
G1 X67.0 Y128.0
M3 S0
G0 X73.5 Y128.0
M3 S255
G1 X73.5 Y128.0
M3 S255
G1 X125.5 Y128.0
M3 S0
G0 X137.0 Y128.0
M3 S255
G1 X137.0 Y128.0
M3 S255
G1 X142.0 Y128.0
M3 S0
G0 X145.5 Y128.0
M3 S255
G1 X145.5 Y128.0
M3 S255
G1 X157.0 Y128.0
M3 S0
G0 X197.0 Y128.0
M3 S255
G1 X197.0 Y128.0
M3 S255
G1 X399.5 Y128.0
M5 S0
G0 X399.5 Y128.5
M3 S255
G1 X197.0 Y128.5
M3 S0
G0 X157.0 Y128.5
M3 S255
G1 X157.0 Y128.5
M3 S255
G1 X145.5 Y128.5
M3 S0
G0 X142.0 Y128.5
M3 S255
G1 X142.0 Y128.5
M3 S255
G1 X137.0 Y128.5
M3 S0
G0 X125.5 Y128.5
M3 S255
G1 X125.5 Y128.5
M3 S255
G1 X73.5 Y128.5
M3 S0
G0 X67.0 Y128.5
M3 S255
G1 X67.0 Y128.5
M3 S255
G1 X33.5 Y128.5
M3 S0
G0 X15.5 Y128.5
M3 S255
G1 X15.5 Y128.5
M3 S255
G1 X14.5 Y128.5
M3 S0
M5 S0
G0 X14.5 Y129.0
M3 S255
G1 X14.5 Y129.0
M3 S255
G1 X15.5 Y129.0
M3 S0
G0 X32.0 Y129.0
M3 S255
G1 X32.0 Y129.0
M3 S255
G1 X68.5 Y129.0
M3 S0
G0 X72.0 Y129.0
M3 S255
G1 X72.0 Y129.0
M3 S255
G1 X127.0 Y129.0
M3 S0
G0 X195.5 Y129.0
M3 S255
G1 X195.5 Y129.0
M3 S255
G1 X399.5 Y129.0
M5 S0
G0 X399.5 Y129.5
M3 S255
G1 X195.5 Y129.5
M3 S0
G0 X127.0 Y129.5
M3 S255
G1 X127.0 Y129.5
M3 S255
G1 X72.0 Y129.5
M3 S0
G0 X68.5 Y129.5
M3 S255
G1 X68.5 Y129.5
M3 S255
G1 X32.0 Y129.5
M3 S0
G0 X15.5 Y129.5
M3 S255
G1 X15.5 Y129.5
M3 S255
G1 X14.5 Y129.5
M3 S0
M5 S0
G0 X29.5 Y130.0
M3 S255
G1 X29.5 Y130.0
M3 S255
G1 X68.5 Y130.0
M3 S0
G0 X73.5 Y130.0
M3 S255
G1 X73.5 Y130.0
M3 S255
G1 X118.0 Y130.0
M3 S0
G0 X123.0 Y130.0
M3 S255
G1 X123.0 Y130.0
M3 S255
G1 X125.5 Y130.0
M3 S0
G0 X195.5 Y130.0
M3 S255
G1 X195.5 Y130.0
M3 S255
G1 X399.5 Y130.0
M5 S0
G0 X399.5 Y130.5
M3 S255
G1 X195.5 Y130.5
M3 S0
G0 X125.5 Y130.5
M3 S255
G1 X125.5 Y130.5
M3 S255
G1 X123.0 Y130.5
M3 S0
G0 X118.0 Y130.5
M3 S255
G1 X118.0 Y130.5
M3 S255
G1 X73.5 Y130.5
M3 S0
G0 X68.5 Y130.5
M3 S255
G1 X68.5 Y130.5
M3 S255
G1 X29.5 Y130.5
M3 S0
M5 S0
G0 X29.5 Y131.0
M3 S255
G1 X29.5 Y131.0
M3 S255
G1 X68.5 Y131.0
M3 S0
G0 X73.5 Y131.0
M3 S255
G1 X73.5 Y131.0
M3 S255
G1 X118.0 Y131.0
M3 S0
G0 X123.0 Y131.0
M3 S255
G1 X123.0 Y131.0
M3 S255
G1 X125.5 Y131.0
M3 S0
G0 X195.5 Y131.0
M3 S255
G1 X195.5 Y131.0
M3 S255
G1 X399.5 Y131.0
M5 S0
G0 X399.5 Y131.5
M3 S255
G1 X194.5 Y131.5
M3 S0
G0 X117.0 Y131.5
M3 S255
G1 X117.0 Y131.5
M3 S255
G1 X73.5 Y131.5
M3 S0
G0 X69.5 Y131.5
M3 S255
G1 X69.5 Y131.5
M3 S255
G1 X27.0 Y131.5
M3 S0
M5 S0
G0 X27.0 Y132.0
M3 S255
G1 X27.0 Y132.0
M3 S255
G1 X69.5 Y132.0
M3 S0
G0 X73.5 Y132.0
M3 S255
G1 X73.5 Y132.0
M3 S255
G1 X117.0 Y132.0
M3 S0
G0 X194.5 Y132.0
M3 S255
G1 X194.5 Y132.0
M3 S255
G1 X399.5 Y132.0
M5 S0
G0 X399.5 Y132.5
M3 S255
G1 X194.5 Y132.5
M3 S0
G0 X113.0 Y132.5
M3 S255
G1 X113.0 Y132.5
M3 S255
G1 X76.0 Y132.5
M3 S0
G0 X69.5 Y132.5
M3 S255
G1 X69.5 Y132.5
M3 S255
G1 X26.0 Y132.5
M3 S0
G0 X22.0 Y132.5
M3 S255
G1 X22.0 Y132.5
M3 S255
G1 X20.5 Y132.5
M3 S0
G0 X17.0 Y132.5
M3 S255
G1 X17.0 Y132.5
M3 S255
G1 X15.5 Y132.5
M3 S0
M5 S0
G0 X15.5 Y133.0
M3 S255
G1 X15.5 Y133.0
M3 S255
G1 X17.0 Y133.0
M3 S0
G0 X20.5 Y133.0
M3 S255
G1 X20.5 Y133.0
M3 S255
G1 X22.0 Y133.0
M3 S0
G0 X26.0 Y133.0
M3 S255
G1 X26.0 Y133.0
M3 S255
G1 X69.5 Y133.0
M3 S0
G0 X76.0 Y133.0
M3 S255
G1 X76.0 Y133.0
M3 S255
G1 X113.0 Y133.0
M3 S0
G0 X194.5 Y133.0
M3 S255
G1 X194.5 Y133.0
M3 S255
G1 X399.5 Y133.0
M5 S0
G0 X399.5 Y133.5
M3 S255
G1 X194.5 Y133.5
M3 S0
G0 X113.0 Y133.5
M3 S255
G1 X113.0 Y133.5
M3 S255
G1 X76.0 Y133.5
M3 S0
G0 X69.5 Y133.5
M3 S255
G1 X69.5 Y133.5
M3 S255
G1 X26.0 Y133.5
M3 S0
G0 X22.0 Y133.5
M3 S255
G1 X22.0 Y133.5
M3 S255
G1 X20.5 Y133.5
M3 S0
G0 X17.0 Y133.5
M3 S255
G1 X17.0 Y133.5
M3 S255
G1 X15.5 Y133.5
M3 S0
M5 S0
G0 X15.5 Y134.0
M3 S255
G1 X15.5 Y134.0
M3 S255
G1 X17.0 Y134.0
M3 S0
G0 X26.0 Y134.0
M3 S255
G1 X26.0 Y134.0
M3 S255
G1 X69.5 Y134.0
M3 S0
G0 X78.5 Y134.0
M3 S255
G1 X78.5 Y134.0
M3 S255
G1 X105.5 Y134.0
M3 S0
G0 X193.0 Y134.0
M3 S255
G1 X193.0 Y134.0
M3 S255
G1 X399.5 Y134.0
M5 S0
G0 X399.5 Y134.5
M3 S255
G1 X193.0 Y134.5
M3 S0
G0 X105.5 Y134.5
M3 S255
G1 X105.5 Y134.5
M3 S255
G1 X78.5 Y134.5
M3 S0
G0 X69.5 Y134.5
M3 S255
G1 X69.5 Y134.5
M3 S255
G1 X26.0 Y134.5
M3 S0
G0 X17.0 Y134.5
M3 S255
G1 X17.0 Y134.5
M3 S255
G1 X15.5 Y134.5
M3 S0
M5 S0
G0 X12.0 Y135.0
M3 S255
G1 X12.0 Y135.0
M3 S255
G1 X14.5 Y135.0
M3 S0
G0 X15.5 Y135.0
M3 S255
G1 X15.5 Y135.0
M3 S255
G1 X17.0 Y135.0
M3 S0
G0 X24.5 Y135.0
M3 S255
G1 X24.5 Y135.0
M3 S255
G1 X71.0 Y135.0
M3 S0
G0 X82.0 Y135.0
M3 S255
G1 X82.0 Y135.0
M3 S255
G1 X103.0 Y135.0
M3 S0
G0 X193.0 Y135.0
M3 S255
G1 X193.0 Y135.0
M3 S255
G1 X399.5 Y135.0
M5 S0
G0 X399.5 Y135.5
M3 S255
G1 X193.0 Y135.5
M3 S0
G0 X103.0 Y135.5
M3 S255
G1 X103.0 Y135.5
M3 S255
G1 X82.0 Y135.5
M3 S0
G0 X71.0 Y135.5
M3 S255
G1 X71.0 Y135.5
M3 S255
G1 X24.5 Y135.5
M3 S0
G0 X17.0 Y135.5
M3 S255
G1 X17.0 Y135.5
M3 S255
G1 X15.5 Y135.5
M3 S0
G0 X14.5 Y135.5
M3 S255
G1 X14.5 Y135.5
M3 S255
G1 X12.0 Y135.5
M3 S0
M5 S0
G0 X12.0 Y136.0
M3 S255
G1 X12.0 Y136.0
M3 S255
G1 X14.5 Y136.0
M3 S0
G0 X15.5 Y136.0
M3 S255
G1 X15.5 Y136.0
M3 S255
G1 X17.0 Y136.0
M3 S0
G0 X24.5 Y136.0
M3 S255
G1 X24.5 Y136.0
M3 S255
G1 X71.0 Y136.0
M3 S0
G0 X82.0 Y136.0
M3 S255
G1 X82.0 Y136.0
M3 S255
G1 X103.0 Y136.0
M3 S0
G0 X193.0 Y136.0
M3 S255
G1 X193.0 Y136.0
M3 S255
G1 X399.5 Y136.0
M5 S0
G0 X399.5 Y136.5
M3 S255
G1 X193.0 Y136.5
M3 S0
G0 X71.0 Y136.5
M3 S255
G1 X71.0 Y136.5
M3 S255
G1 X28.5 Y136.5
M3 S0
G0 X27.0 Y136.5
M3 S255
G1 X27.0 Y136.5
M3 S255
G1 X22.0 Y136.5
M3 S0
G0 X17.0 Y136.5
M3 S255
G1 X17.0 Y136.5
M3 S255
G1 X15.5 Y136.5
M3 S0
M5 S0
G0 X15.5 Y137.0
M3 S255
G1 X15.5 Y137.0
M3 S255
G1 X17.0 Y137.0
M3 S0
G0 X22.0 Y137.0
M3 S255
G1 X22.0 Y137.0
M3 S255
G1 X27.0 Y137.0
M3 S0
G0 X28.5 Y137.0
M3 S255
G1 X28.5 Y137.0
M3 S255
G1 X71.0 Y137.0
M3 S0
G0 X193.0 Y137.0
M3 S255
G1 X193.0 Y137.0
M3 S255
G1 X399.5 Y137.0
M5 S0
G0 X399.5 Y137.5
M3 S255
G1 X192.0 Y137.5
M3 S0
G0 X72.0 Y137.5
M3 S255
G1 X72.0 Y137.5
M3 S255
G1 X56.0 Y137.5
M3 S0
G0 X53.5 Y137.5
M3 S255
G1 X53.5 Y137.5
M3 S255
G1 X36.0 Y137.5
M3 S0
G0 X34.5 Y137.5
M3 S255
G1 X34.5 Y137.5
M3 S255
G1 X27.0 Y137.5
M3 S0
G0 X24.5 Y137.5
M3 S255
G1 X24.5 Y137.5
M3 S255
G1 X20.5 Y137.5
M3 S0
M5 S0
G0 X20.5 Y138.0
M3 S255
G1 X20.5 Y138.0
M3 S255
G1 X24.5 Y138.0
M3 S0
G0 X27.0 Y138.0
M3 S255
G1 X27.0 Y138.0
M3 S255
G1 X34.5 Y138.0
M3 S0
G0 X36.0 Y138.0
M3 S255
G1 X36.0 Y138.0
M3 S255
G1 X53.5 Y138.0
M3 S0
G0 X56.0 Y138.0
M3 S255
G1 X56.0 Y138.0
M3 S255
G1 X72.0 Y138.0
M3 S0
G0 X192.0 Y138.0
M3 S255
G1 X192.0 Y138.0
M3 S255
G1 X399.5 Y138.0
M5 S0
G0 X399.5 Y138.5
M3 S255
G1 X192.0 Y138.5
M3 S0
G0 X72.0 Y138.5
M3 S255
G1 X72.0 Y138.5
M3 S255
G1 X56.0 Y138.5
M3 S0
G0 X53.5 Y138.5
M3 S255
G1 X53.5 Y138.5
M3 S255
G1 X36.0 Y138.5
M3 S0
G0 X34.5 Y138.5
M3 S255
G1 X34.5 Y138.5
M3 S255
G1 X27.0 Y138.5
M3 S0
G0 X24.5 Y138.5
M3 S255
G1 X24.5 Y138.5
M3 S255
G1 X20.5 Y138.5
M3 S0
M5 S0
G0 X27.0 Y139.0
M3 S255
G1 X27.0 Y139.0
M3 S255
G1 X29.5 Y139.0
M3 S0
G0 X49.5 Y139.0
M3 S255
G1 X49.5 Y139.0
M3 S255
G1 X51.0 Y139.0
M3 S0
G0 X57.0 Y139.0
M3 S255
G1 X57.0 Y139.0
M3 S255
G1 X72.0 Y139.0
M3 S0
G0 X192.0 Y139.0
M3 S255
G1 X192.0 Y139.0
M3 S255
G1 X399.5 Y139.0
M5 S0
G0 X399.5 Y139.5
M3 S255
G1 X192.0 Y139.5
M3 S0
G0 X72.0 Y139.5
M3 S255
G1 X72.0 Y139.5
M3 S255
G1 X57.0 Y139.5
M3 S0
G0 X51.0 Y139.5
M3 S255
G1 X51.0 Y139.5
M3 S255
G1 X49.5 Y139.5
M3 S0
G0 X29.5 Y139.5
M3 S255
G1 X29.5 Y139.5
M3 S255
G1 X27.0 Y139.5
M3 S0
M5 S0
G0 X58.5 Y140.0
M3 S255
G1 X58.5 Y140.0
M3 S255
G1 X73.5 Y140.0
M3 S0
G0 X190.5 Y140.0
M3 S255
G1 X190.5 Y140.0
M3 S255
G1 X399.5 Y140.0
M5 S0
G0 X399.5 Y140.5
M3 S255
G1 X190.5 Y140.5
M3 S0
G0 X73.5 Y140.5
M3 S255
G1 X73.5 Y140.5
M3 S255
G1 X58.5 Y140.5
M3 S0
M5 S0
G0 X58.5 Y141.0
M3 S255
G1 X58.5 Y141.0
M3 S255
G1 X73.5 Y141.0
M3 S0
G0 X190.5 Y141.0
M3 S255
G1 X190.5 Y141.0
M3 S255
G1 X399.5 Y141.0
M5 S0
G0 X399.5 Y141.5
M3 S255
G1 X235.5 Y141.5
M3 S0
G0 X234.5 Y141.5
M3 S255
G1 X234.5 Y141.5
M3 S255
G1 X233.0 Y141.5
M3 S0
G0 X225.5 Y141.5
M3 S255
G1 X225.5 Y141.5
M3 S255
G1 X190.5 Y141.5
M3 S0
G0 X73.5 Y141.5
M3 S255
G1 X73.5 Y141.5
M3 S255
G1 X59.5 Y141.5
M3 S0
M5 S0
G0 X59.5 Y142.0
M3 S255
G1 X59.5 Y142.0
M3 S255
G1 X73.5 Y142.0
M3 S0
G0 X190.5 Y142.0
M3 S255
G1 X190.5 Y142.0
M3 S255
G1 X225.5 Y142.0
M3 S0
G0 X233.0 Y142.0
M3 S255
G1 X233.0 Y142.0
M3 S255
G1 X234.5 Y142.0
M3 S0
G0 X235.5 Y142.0
M3 S255
G1 X235.5 Y142.0
M3 S255
G1 X399.5 Y142.0
M5 S0
G0 X399.5 Y142.5
M3 S255
G1 X245.5 Y142.5
M3 S0
G0 X244.5 Y142.5
M3 S255
G1 X244.5 Y142.5
M3 S255
G1 X242.0 Y142.5
M3 S0
G0 X218.0 Y142.5
M3 S255
G1 X218.0 Y142.5
M3 S255
G1 X189.5 Y142.5
M3 S0
G0 X74.5 Y142.5
M3 S255
G1 X74.5 Y142.5
M3 S255
G1 X59.5 Y142.5
M3 S0
M5 S0
G0 X59.5 Y143.0
M3 S255
G1 X59.5 Y143.0
M3 S255
G1 X74.5 Y143.0
M3 S0
G0 X189.5 Y143.0
M3 S255
G1 X189.5 Y143.0
M3 S255
G1 X218.0 Y143.0
M3 S0
G0 X242.0 Y143.0
M3 S255
G1 X242.0 Y143.0
M3 S255
G1 X244.5 Y143.0
M3 S0
G0 X245.5 Y143.0
M3 S255
G1 X245.5 Y143.0
M3 S255
G1 X399.5 Y143.0
M5 S0
G0 X399.5 Y143.5
M3 S255
G1 X245.5 Y143.5
M3 S0
G0 X244.5 Y143.5
M3 S255
G1 X244.5 Y143.5
M3 S255
G1 X242.0 Y143.5
M3 S0
G0 X218.0 Y143.5
M3 S255
G1 X218.0 Y143.5
M3 S255
G1 X189.5 Y143.5
M3 S0
G0 X74.5 Y143.5
M3 S255
G1 X74.5 Y143.5
M3 S255
G1 X59.5 Y143.5
M3 S0
M5 S0
G0 X61.0 Y144.0
M3 S255
G1 X61.0 Y144.0
M3 S255
G1 X74.5 Y144.0
M3 S0
G0 X189.5 Y144.0
M3 S255
G1 X189.5 Y144.0
M3 S255
G1 X218.0 Y144.0
M3 S0
G0 X242.0 Y144.0
M3 S255
G1 X242.0 Y144.0
M3 S255
G1 X384.5 Y144.0
M3 S0
G0 X386.0 Y144.0
M3 S255
G1 X386.0 Y144.0
M3 S255
G1 X399.5 Y144.0
M5 S0
G0 X399.5 Y144.5
M3 S255
G1 X386.0 Y144.5
M3 S0
G0 X384.5 Y144.5
M3 S255
G1 X384.5 Y144.5
M3 S255
G1 X242.0 Y144.5
M3 S0
G0 X218.0 Y144.5
M3 S255
G1 X218.0 Y144.5
M3 S255
G1 X189.5 Y144.5
M3 S0
G0 X74.5 Y144.5
M3 S255
G1 X74.5 Y144.5
M3 S255
G1 X61.0 Y144.5
M3 S0
M5 S0
G0 X61.0 Y145.0
M3 S255
G1 X61.0 Y145.0
M3 S255
G1 X76.0 Y145.0
M3 S0
G0 X188.0 Y145.0
M3 S255
G1 X188.0 Y145.0
M3 S255
G1 X220.5 Y145.0
M3 S0
G0 X227.0 Y145.0
M3 S255
G1 X227.0 Y145.0
M3 S255
G1 X228.0 Y145.0
M3 S0
G0 X235.5 Y145.0
M3 S255
G1 X235.5 Y145.0
M3 S255
G1 X347.0 Y145.0
M3 S0
G0 X358.0 Y145.0
M3 S255
G1 X358.0 Y145.0
M3 S255
G1 X364.5 Y145.0
M3 S0
M5 S0
G0 X364.5 Y145.5
M3 S255
G1 X364.5 Y145.5
M3 S255
G1 X358.0 Y145.5
M3 S0
G0 X347.0 Y145.5
M3 S255
G1 X347.0 Y145.5
M3 S255
G1 X235.5 Y145.5
M3 S0
G0 X228.0 Y145.5
M3 S255
G1 X228.0 Y145.5
M3 S255
G1 X227.0 Y145.5
M3 S0
G0 X220.5 Y145.5
M3 S255
G1 X220.5 Y145.5
M3 S255
G1 X188.0 Y145.5
M3 S0
G0 X76.0 Y145.5
M3 S255
G1 X76.0 Y145.5
M3 S255
G1 X61.0 Y145.5
M3 S0
M5 S0
G0 X61.0 Y146.0
M3 S255
G1 X61.0 Y146.0
M3 S255
G1 X76.0 Y146.0
M3 S0
G0 X188.0 Y146.0
M3 S255
G1 X188.0 Y146.0
M3 S255
G1 X220.5 Y146.0
M3 S0
G0 X227.0 Y146.0
M3 S255
G1 X227.0 Y146.0
M3 S255
G1 X228.0 Y146.0
M3 S0
G0 X235.5 Y146.0
M3 S255
G1 X235.5 Y146.0
M3 S255
G1 X347.0 Y146.0
M3 S0
G0 X358.0 Y146.0
M3 S255
G1 X358.0 Y146.0
M3 S255
G1 X364.5 Y146.0
M3 S0
M5 S0
G0 X364.5 Y146.5
M3 S255
G1 X364.5 Y146.5
M3 S255
G1 X360.5 Y146.5
M3 S0
G0 X324.5 Y146.5
M3 S255
G1 X324.5 Y146.5
M3 S255
G1 X319.5 Y146.5
M3 S0
G0 X318.0 Y146.5
M3 S255
G1 X318.0 Y146.5
M3 S255
G1 X310.5 Y146.5
M3 S0
G0 X293.0 Y146.5
M3 S255
G1 X293.0 Y146.5
M3 S255
G1 X292.0 Y146.5
M3 S0
G0 X270.5 Y146.5
M3 S255
G1 X270.5 Y146.5
M3 S255
G1 X269.5 Y146.5
M3 S0
G0 X268.0 Y146.5
M3 S255
G1 X268.0 Y146.5
M3 S255
G1 X262.0 Y146.5
M3 S0
G0 X217.0 Y146.5
M3 S255
G1 X217.0 Y146.5
M3 S255
G1 X214.5 Y146.5
M3 S0
G0 X213.0 Y146.5
M3 S255
G1 X213.0 Y146.5
M3 S255
G1 X188.0 Y146.5
M3 S0
G0 X76.0 Y146.5
M3 S255
G1 X76.0 Y146.5
M3 S255
G1 X59.5 Y146.5
M3 S0
M5 S0
G0 X59.5 Y147.0
M3 S255
G1 X59.5 Y147.0
M3 S255
G1 X76.0 Y147.0
M3 S0
G0 X188.0 Y147.0
M3 S255
G1 X188.0 Y147.0
M3 S255
G1 X213.0 Y147.0
M3 S0
G0 X214.5 Y147.0
M3 S255
G1 X214.5 Y147.0
M3 S255
G1 X217.0 Y147.0
M3 S0
G0 X262.0 Y147.0
M3 S255
G1 X262.0 Y147.0
M3 S255
G1 X268.0 Y147.0
M3 S0
G0 X269.5 Y147.0
M3 S255
G1 X269.5 Y147.0
M3 S255
G1 X270.5 Y147.0
M3 S0
G0 X292.0 Y147.0
M3 S255
G1 X292.0 Y147.0
M3 S255
G1 X293.0 Y147.0
M3 S0
G0 X310.5 Y147.0
M3 S255
G1 X310.5 Y147.0
M3 S255
G1 X318.0 Y147.0
M3 S0
G0 X319.5 Y147.0
M3 S255
G1 X319.5 Y147.0
M3 S255
G1 X324.5 Y147.0
M3 S0
G0 X360.5 Y147.0
M3 S255
G1 X360.5 Y147.0
M3 S255
G1 X364.5 Y147.0
M3 S0
M5 S0
G0 X367.0 Y147.5
M3 S255
G1 X367.0 Y147.5
M3 S255
G1 X363.0 Y147.5
M3 S0
G0 X318.0 Y147.5
M3 S255
G1 X318.0 Y147.5
M3 S255
G1 X312.0 Y147.5
M3 S0
G0 X293.0 Y147.5
M3 S255
G1 X293.0 Y147.5
M3 S255
G1 X292.0 Y147.5
M3 S0
G0 X267.0 Y147.5
M3 S255
G1 X267.0 Y147.5
M3 S255
G1 X263.0 Y147.5
M3 S0
G0 X217.0 Y147.5
M3 S255
G1 X217.0 Y147.5
M3 S255
G1 X215.5 Y147.5
M3 S0
G0 X212.0 Y147.5
M3 S255
G1 X212.0 Y147.5
M3 S255
G1 X187.0 Y147.5
M3 S0
G0 X77.0 Y147.5
M3 S255
G1 X77.0 Y147.5
M3 S255
G1 X61.0 Y147.5
M3 S0
M5 S0
G0 X61.0 Y148.0
M3 S255
G1 X61.0 Y148.0
M3 S255
G1 X77.0 Y148.0
M3 S0
G0 X187.0 Y148.0
M3 S255
G1 X187.0 Y148.0
M3 S255
G1 X212.0 Y148.0
M3 S0
G0 X215.5 Y148.0
M3 S255
G1 X215.5 Y148.0
M3 S255
G1 X217.0 Y148.0
M3 S0
G0 X263.0 Y148.0
M3 S255
G1 X263.0 Y148.0
M3 S255
G1 X267.0 Y148.0
M3 S0
G0 X292.0 Y148.0
M3 S255
G1 X292.0 Y148.0
M3 S255
G1 X293.0 Y148.0
M3 S0
G0 X312.0 Y148.0
M3 S255
G1 X312.0 Y148.0
M3 S255
G1 X318.0 Y148.0
M3 S0
G0 X363.0 Y148.0
M3 S255
G1 X363.0 Y148.0
M3 S255
G1 X367.0 Y148.0
M3 S0
M5 S0
G0 X367.0 Y148.5
M3 S255
G1 X367.0 Y148.5
M3 S255
G1 X363.0 Y148.5
M3 S0
G0 X318.0 Y148.5
M3 S255
G1 X318.0 Y148.5
M3 S255
G1 X312.0 Y148.5
M3 S0
G0 X293.0 Y148.5
M3 S255
G1 X293.0 Y148.5
M3 S255
G1 X292.0 Y148.5
M3 S0
G0 X267.0 Y148.5
M3 S255
G1 X267.0 Y148.5
M3 S255
G1 X263.0 Y148.5
M3 S0
G0 X217.0 Y148.5
M3 S255
G1 X217.0 Y148.5
M3 S255
G1 X215.5 Y148.5
M3 S0
G0 X212.0 Y148.5
M3 S255
G1 X212.0 Y148.5
M3 S255
G1 X187.0 Y148.5
M3 S0
G0 X77.0 Y148.5
M3 S255
G1 X77.0 Y148.5
M3 S255
G1 X61.0 Y148.5
M3 S0
M5 S0
G0 X62.0 Y149.0
M3 S255
G1 X62.0 Y149.0
M3 S255
G1 X77.0 Y149.0
M3 S0
G0 X187.0 Y149.0
M3 S255
G1 X187.0 Y149.0
M3 S255
G1 X212.0 Y149.0
M3 S0
G0 X215.5 Y149.0
M3 S255
G1 X215.5 Y149.0
M3 S255
G1 X217.0 Y149.0
M3 S0
G0 X264.5 Y149.0
M3 S255
G1 X264.5 Y149.0
M3 S255
G1 X268.0 Y149.0
M3 S0
G0 X292.0 Y149.0
M3 S255
G1 X292.0 Y149.0
M3 S255
G1 X293.0 Y149.0
M3 S0
