H5 S0 
F100
G0 Z0 ( for some grbl senders compatibility )
 
G0 X0.0 Y1900.0 
M3 S255
G1 X0.0 Y1900.0 
M3 S255
G1 X0.0 Y1925.0 
M3 S0
M5 S0
G0 X5.0 Y2330.0 
M3 S255
G1 X5.0 Y2330.0 
M3 S255
G1 X5.0 Y2250.0 
M3 S0
G0 X5.0 Y1945.0 
M3 S255
G1 X5.0 Y1945.0 
M3 S255
G1 X5.0 Y1875.0 
M3 S0
M5 S0
G0 X10.0 Y1865.0 
M3 S255
G1 X10.0 Y1865.0 
M3 S255
G1 X10.0 Y2085.0 
M3 S0
G0 X10.0 Y2235.0 
M3 S255
G1 X10.0 Y2235.0 
M3 S255
G1 X10.0 Y2420.0 
M3 S0
M5 S0
G0 X15.0 Y2445.0 
M3 S255
G1 X15.0 Y2445.0 
M3 S255
G1 X15.0 Y2230.0 
M3 S0
G0 X15.0 Y2155.0 
M3 S255
G1 X15.0 Y2155.0 
M3 S255
G1 X15.0 Y1830.0 
M3 S0
M5 S0
G0 X20.0 Y1745.0 
M3 S255
G1 X20.0 Y1745.0 
M3 S255
G1 X20.0 Y2270.0 
M3 S0
G0 X20.0 Y2325.0 
M3 S255
G1 X20.0 Y2325.0 
M3 S255
G1 X20.0 Y2425.0 
M3 S0
G0 X20.0 Y2435.0 
M3 S255
G1 X20.0 Y2435.0 
M3 S255
G1 X20.0 Y2465.0 
M3 S0
M5 S0
G0 X25.0 Y2465.0 
M3 S255
G1 X25.0 Y2465.0 
M3 S255
G1 X25.0 Y2435.0 
M3 S0
G0 X25.0 Y2430.0 
M3 S255
G1 X25.0 Y2430.0 
M3 S255
G1 X25.0 Y2425.0 
M3 S0
G0 X25.0 Y2420.0 
M3 S255
G1 X25.0 Y2420.0 
M3 S255
G1 X25.0 Y2325.0 
M3 S0
G0 X25.0 Y2270.0 
M3 S255
G1 X25.0 Y2270.0 
M3 S255
G1 X25.0 Y1745.0 
M3 S0
M5 S0
G0 X30.0 Y1685.0 
M3 S255
G1 X30.0 Y1685.0 
M3 S255
G1 X30.0 Y1980.0 
M3 S0
G0 X30.0 Y2000.0 
M3 S255
G1 X30.0 Y2000.0 
M3 S255
G1 X30.0 Y2025.0 
M3 S0
G0 X30.0 Y2045.0 
M3 S255
G1 X30.0 Y2045.0 
M3 S255
G1 X30.0 Y2305.0 
M3 S0
G0 X30.0 Y2375.0 
M3 S255
G1 X30.0 Y2375.0 
M3 S255
G1 X30.0 Y2385.0 
M3 S0
G0 X30.0 Y2455.0 
M3 S255
G1 X30.0 Y2455.0 
M3 S255
G1 X30.0 Y2470.0 
M3 S0
M5 S0
G0 X35.0 Y2480.0 
M3 S255
G1 X35.0 Y2480.0 
M3 S255
G1 X35.0 Y2465.0 
M3 S0
G0 X35.0 Y2355.0 
M3 S255
G1 X35.0 Y2355.0 
M3 S255
G1 X35.0 Y2190.0 
M3 S0
G0 X35.0 Y2120.0 
M3 S255
G1 X35.0 Y2120.0 
M3 S255
G1 X35.0 Y2080.0 
M3 S0
G0 X35.0 Y2015.0 
M3 S255
G1 X35.0 Y2015.0 
M3 S255
G1 X35.0 Y2000.0 
M3 S0
G0 X35.0 Y1990.0 
M3 S255
G1 X35.0 Y1990.0 
M3 S255
G1 X35.0 Y1930.0 
M3 S0
G0 X35.0 Y1920.0 
M3 S255
G1 X35.0 Y1920.0 
M3 S255
G1 X35.0 Y1900.0 
M3 S0
G0 X35.0 Y1895.0 
M3 S255
G1 X35.0 Y1895.0 
M3 S255
G1 X35.0 Y1875.0 
M3 S0
G0 X35.0 Y1870.0 
M3 S255
G1 X35.0 Y1870.0 
M3 S255
G1 X35.0 Y1850.0 
M3 S0
G0 X35.0 Y1845.0 
M3 S255
G1 X35.0 Y1845.0 
M3 S255
G1 X35.0 Y1825.0 
M3 S0
G0 X35.0 Y1805.0 
M3 S255
G1 X35.0 Y1805.0 
M3 S255
G1 X35.0 Y1640.0 
M3 S0
M5 S0
G0 X40.0 Y1635.0 
M3 S255
G1 X40.0 Y1635.0 
M3 S255
G1 X40.0 Y1810.0 
M3 S0
G0 X40.0 Y1825.0 
M3 S255
G1 X40.0 Y1825.0 
M3 S255
G1 X40.0 Y1840.0 
M3 S0
G0 X40.0 Y1850.0 
M3 S255
G1 X40.0 Y1850.0 
M3 S255
G1 X40.0 Y1870.0 
M3 S0
G0 X40.0 Y1875.0 
M3 S255
G1 X40.0 Y1875.0 
M3 S255
G1 X40.0 Y1920.0 
M3 S0
G0 X40.0 Y1930.0 
M3 S255
G1 X40.0 Y1930.0 
M3 S255
G1 X40.0 Y1990.0 
M3 S0
G0 X40.0 Y2000.0 
M3 S255
G1 X40.0 Y2000.0 
M3 S255
G1 X40.0 Y2015.0 
M3 S0
G0 X40.0 Y2085.0 
M3 S255
G1 X40.0 Y2085.0 
M3 S255
G1 X40.0 Y2125.0 
M3 S0
G0 X40.0 Y2185.0 
M3 S255
G1 X40.0 Y2185.0 
M3 S255
G1 X40.0 Y2350.0 
M3 S0
G0 X40.0 Y2465.0 
M3 S255
G1 X40.0 Y2465.0 
M3 S255
G1 X40.0 Y2480.0 
M3 S0
M5 S0
G0 X45.0 Y2480.0 
M3 S255
G1 X45.0 Y2480.0 
M3 S255
G1 X45.0 Y2465.0 
M3 S0
G0 X45.0 Y2395.0 
M3 S255
G1 X45.0 Y2395.0 
M3 S255
G1 X45.0 Y2265.0 
M3 S0
G0 X45.0 Y2110.0 
M3 S255
G1 X45.0 Y2110.0 
M3 S255
G1 X45.0 Y2080.0 
M3 S0
G0 X45.0 Y2015.0 
M3 S255
G1 X45.0 Y2015.0 
M3 S255
G1 X45.0 Y1975.0 
M3 S0
G0 X45.0 Y1965.0 
M3 S255
G1 X45.0 Y1965.0 
M3 S255
G1 X45.0 Y1925.0 
M3 S0
G0 X45.0 Y1910.0 
M3 S255
G1 X45.0 Y1910.0 
M3 S255
G1 X45.0 Y1880.0 
M3 S0
G0 X45.0 Y1870.0 
M3 S255
G1 X45.0 Y1870.0 
M3 S255
G1 X45.0 Y1855.0 
M3 S0
G0 X45.0 Y1840.0 
M3 S255
G1 X45.0 Y1840.0 
M3 S255
G1 X45.0 Y1825.0 
M3 S0
G0 X45.0 Y1810.0 
M3 S255
G1 X45.0 Y1810.0 
M3 S255
G1 X45.0 Y1775.0 
M3 S0
G0 X45.0 Y1725.0 
M3 S255
G1 X45.0 Y1725.0 
M3 S255
G1 X45.0 Y1595.0 
M3 S0
M5 S0
G0 X50.0 Y1550.0 
M3 S255
G1 X50.0 Y1550.0 
M3 S255
G1 X50.0 Y1670.0 
M3 S0
G0 X50.0 Y1775.0 
M3 S255
G1 X50.0 Y1775.0 
M3 S255
G1 X50.0 Y1810.0 
M3 S0
G0 X50.0 Y1825.0 
M3 S255
G1 X50.0 Y1825.0 
M3 S255
G1 X50.0 Y1840.0 
M3 S0
G0 X50.0 Y1855.0 
M3 S255
G1 X50.0 Y1855.0 
M3 S255
G1 X50.0 Y1870.0 
M3 S0
G0 X50.0 Y1880.0 
M3 S255
G1 X50.0 Y1880.0 
M3 S255
G1 X50.0 Y1900.0 
M3 S0
G0 X50.0 Y1920.0 
M3 S255
G1 X50.0 Y1920.0 
M3 S255
G1 X50.0 Y1965.0 
M3 S0
G0 X50.0 Y1980.0 
M3 S255
G1 X50.0 Y1980.0 
M3 S255
G1 X50.0 Y2015.0 
M3 S0
G0 X50.0 Y2320.0 
M3 S255
G1 X50.0 Y2320.0 
M3 S255
G1 X50.0 Y2440.0 
M3 S0
G0 X50.0 Y2455.0 
M3 S255
G1 X50.0 Y2455.0 
M3 S255
G1 X50.0 Y2470.0 
M3 S0
M5 S0
G0 X55.0 Y2470.0 
M3 S255
G1 X55.0 Y2470.0 
M3 S255
G1 X55.0 Y2455.0 
M3 S0
G0 X55.0 Y2440.0 
M3 S255
G1 X55.0 Y2440.0 
M3 S255
G1 X55.0 Y2320.0 
M3 S0
G0 X55.0 Y2015.0 
M3 S255
G1 X55.0 Y2015.0 
M3 S255
G1 X55.0 Y1980.0 
M3 S0
G0 X55.0 Y1965.0 
M3 S255
G1 X55.0 Y1965.0 
M3 S255
G1 X55.0 Y1920.0 
M3 S0
G0 X55.0 Y1895.0 
M3 S255
G1 X55.0 Y1895.0 
M3 S255
G1 X55.0 Y1880.0 
M3 S0
G0 X55.0 Y1870.0 
M3 S255
G1 X55.0 Y1870.0 
M3 S255
G1 X55.0 Y1855.0 
M3 S0
G0 X55.0 Y1840.0 
M3 S255
G1 X55.0 Y1840.0 
M3 S255
G1 X55.0 Y1825.0 
M3 S0
G0 X55.0 Y1810.0 
M3 S255
G1 X55.0 Y1810.0 
M3 S255
G1 X55.0 Y1775.0 
M3 S0
G0 X55.0 Y1670.0 
M3 S255
G1 X55.0 Y1670.0 
M3 S255
G1 X55.0 Y1550.0 
M3 S0
M5 S0
G0 X60.0 Y1520.0 
M3 S255
G1 X60.0 Y1520.0 
M3 S255
G1 X60.0 Y1620.0 
M3 S0
G0 X60.0 Y1775.0 
M3 S255
G1 X60.0 Y1775.0 
M3 S255
G1 X60.0 Y1810.0 
M3 S0
G0 X60.0 Y1825.0 
M3 S255
G1 X60.0 Y1825.0 
M3 S255
G1 X60.0 Y1840.0 
M3 S0
G0 X60.0 Y1855.0 
M3 S255
G1 X60.0 Y1855.0 
M3 S255
G1 X60.0 Y1870.0 
M3 S0
G0 X60.0 Y1875.0 
M3 S255
G1 X60.0 Y1875.0 
M3 S255
G1 X60.0 Y1905.0 
M3 S0
G0 X60.0 Y1920.0 
M3 S255
G1 X60.0 Y1920.0 
M3 S255
G1 X60.0 Y1960.0 
M3 S0
G0 X60.0 Y1965.0 
M3 S255
G1 X60.0 Y1965.0 
M3 S255
G1 X60.0 Y1980.0 
M3 S0
G0 X60.0 Y2000.0 
M3 S255
G1 X60.0 Y2000.0 
M3 S255
G1 X60.0 Y2015.0 
M3 S0
G0 X60.0 Y2295.0 
M3 S255
G1 X60.0 Y2295.0 
M3 S255
G1 X60.0 Y2305.0 
M3 S0
G0 X60.0 Y2370.0 
M3 S255
G1 X60.0 Y2370.0 
M3 S255
G1 X60.0 Y2470.0 
M3 S0
M5 S0
G0 X65.0 Y2485.0 
M3 S255
G1 X65.0 Y2485.0 
M3 S255
G1 X65.0 Y2375.0 
M3 S0
G0 X65.0 Y2305.0 
M3 S255
G1 X65.0 Y2305.0 
M3 S255
G1 X65.0 Y2290.0 
M3 S0
G0 X65.0 Y2015.0 
M3 S255
G1 X65.0 Y2015.0 
M3 S255
G1 X65.0 Y1990.0 
M3 S0
G0 X65.0 Y1960.0 
M3 S255
G1 X65.0 Y1960.0 
M3 S255
G1 X65.0 Y1950.0 
M3 S0
G0 X65.0 Y1935.0 
M3 S255
G1 X65.0 Y1935.0 
M3 S255
G1 X65.0 Y1850.0 
M3 S0
G0 X65.0 Y1835.0 
M3 S255
G1 X65.0 Y1835.0 
M3 S255
G1 X65.0 Y1825.0 
M3 S0
G0 X65.0 Y1795.0 
M3 S255
G1 X65.0 Y1795.0 
M3 S255
G1 X65.0 Y1775.0 
M3 S0
G0 X65.0 Y1600.0 
M3 S255
G1 X65.0 Y1600.0 
M3 S255
G1 X65.0 Y1505.0 
M3 S0
M5 S0
G0 X70.0 Y1485.0 
M3 S255
G1 X70.0 Y1485.0 
M3 S255
G1 X70.0 Y1585.0 
M3 S0
G0 X70.0 Y1775.0 
M3 S255
G1 X70.0 Y1775.0 
M3 S255
G1 X70.0 Y1795.0 
M3 S0
G0 X70.0 Y1820.0 
M3 S255
G1 X70.0 Y1820.0 
M3 S255
G1 X70.0 Y1835.0 
M3 S0
G0 X70.0 Y1850.0 
M3 S255
G1 X70.0 Y1850.0 
M3 S255
G1 X70.0 Y1885.0 
M3 S0
G0 X70.0 Y1895.0 
M3 S255
G1 X70.0 Y1895.0 
M3 S255
G1 X70.0 Y1935.0 
M3 S0
G0 X70.0 Y1950.0 
M3 S255
G1 X70.0 Y1950.0 
M3 S255
G1 X70.0 Y1965.0 
M3 S0
G0 X70.0 Y1975.0 
M3 S255
G1 X70.0 Y1975.0 
M3 S255
G1 X70.0 Y2010.0 
M3 S0
G0 X70.0 Y2285.0 
M3 S255
G1 X70.0 Y2285.0 
M3 S255
G1 X70.0 Y2300.0 
M3 S0
G0 X70.0 Y2350.0 
M3 S255
G1 X70.0 Y2350.0 
M3 S255
G1 X70.0 Y2500.0 
M3 S0
M5 S0
G0 X75.0 Y2535.0 
M3 S255
G1 X75.0 Y2535.0 
M3 S255
G1 X75.0 Y2510.0 
M3 S0
G0 X75.0 Y2495.0 
M3 S255
G1 X75.0 Y2495.0 
M3 S255
G1 X75.0 Y2445.0 
M3 S0
G0 X75.0 Y2405.0 
M3 S255
G1 X75.0 Y2405.0 
M3 S255
G1 X75.0 Y2320.0 
M3 S0
G0 X75.0 Y2280.0 
M3 S255
G1 X75.0 Y2280.0 
M3 S255
G1 X75.0 Y2265.0 
M3 S0
G0 X75.0 Y2010.0 
M3 S255
G1 X75.0 Y2010.0 
M3 S255
G1 X75.0 Y1950.0 
M3 S0
G0 X75.0 Y1910.0 
M3 S255
G1 X75.0 Y1910.0 
M3 S255
G1 X75.0 Y1905.0 
M3 S0
G0 X75.0 Y1870.0 
M3 S255
G1 X75.0 Y1870.0 
M3 S255
G1 X75.0 Y1850.0 
M3 S0
G0 X75.0 Y1790.0 
M3 S255
G1 X75.0 Y1790.0 
M3 S255
G1 X75.0 Y1775.0 
M3 S0
G0 X75.0 Y1545.0 
M3 S255
G1 X75.0 Y1545.0 
M3 S255
G1 X75.0 Y1455.0 
M3 S0
M5 S0
G0 X80.0 Y1445.0 
M3 S255
G1 X80.0 Y1445.0 
M3 S255
G1 X80.0 Y1525.0 
M3 S0
G0 X80.0 Y1775.0 
M3 S255
G1 X80.0 Y1775.0 
M3 S255
G1 X80.0 Y1790.0 
M3 S0
G0 X80.0 Y1950.0 
M3 S255
G1 X80.0 Y1950.0 
M3 S255
G1 X80.0 Y2015.0 
M3 S0
G0 X80.0 Y2265.0 
M3 S255
G1 X80.0 Y2265.0 
M3 S255
G1 X80.0 Y2270.0 
M3 S0
G0 X80.0 Y2310.0 
M3 S255
G1 X80.0 Y2310.0 
M3 S255
G1 X80.0 Y2385.0 
M3 S0
G0 X80.0 Y2465.0 
M3 S255
G1 X80.0 Y2465.0 
M3 S255
G1 X80.0 Y2490.0 
M3 S0
G0 X80.0 Y2510.0 
M3 S255
G1 X80.0 Y2510.0 
M3 S255
G1 X80.0 Y2545.0 
M3 S0
M5 S0
G0 X85.0 Y2560.0 
M3 S255
G1 X85.0 Y2560.0 
M3 S255
G1 X85.0 Y2505.0 
M3 S0
G0 X85.0 Y2485.0 
M3 S255
G1 X85.0 Y2485.0 
M3 S255
G1 X85.0 Y2480.0 
M3 S0
G0 X85.0 Y2345.0 
M3 S255
G1 X85.0 Y2345.0 
M3 S255
G1 X85.0 Y2295.0 
M3 S0
G0 X85.0 Y2015.0 
M3 S255
G1 X85.0 Y2015.0 
M3 S255
G1 X85.0 Y2000.0 
M3 S0
G0 X85.0 Y1980.0 
M3 S255
G1 X85.0 Y1980.0 
M3 S255
G1 X85.0 Y1950.0 
M3 S0
G0 X85.0 Y1790.0 
M3 S255
G1 X85.0 Y1790.0 
M3 S255
G1 X85.0 Y1775.0 
M3 S0
G0 X85.0 Y1510.0 
M3 S255
G1 X85.0 Y1510.0 
M3 S255
G1 X85.0 Y1430.0 
M3 S0
M5 S0
G0 X90.0 Y1400.0 
M3 S255
G1 X90.0 Y1400.0 
M3 S255
G1 X90.0 Y1480.0 
M3 S0
G0 X90.0 Y1775.0 
M3 S255
G1 X90.0 Y1775.0 
M3 S255
G1 X90.0 Y1790.0 
M3 S0
G0 X90.0 Y1950.0 
M3 S255
G1 X90.0 Y1950.0 
M3 S255
G1 X90.0 Y1975.0 
M3 S0
G0 X90.0 Y2000.0 
M3 S255
G1 X90.0 Y2000.0 
M3 S255
G1 X90.0 Y2015.0 
M3 S0
G0 X90.0 Y2085.0 
M3 S255
G1 X90.0 Y2085.0 
M3 S255
G1 X90.0 Y2090.0 
M3 S0
G0 X90.0 Y2280.0 
M3 S255
G1 X90.0 Y2280.0 
M3 S255
G1 X90.0 Y2315.0 
M3 S0
G0 X90.0 Y2510.0 
M3 S255
G1 X90.0 Y2510.0 
M3 S255
G1 X90.0 Y2580.0 
M3 S0
M5 S0
G0 X95.0 Y2580.0 
M3 S255
G1 X95.0 Y2580.0 
M3 S255
G1 X95.0 Y2525.0 
M3 S0
G0 X95.0 Y2310.0 
M3 S255
G1 X95.0 Y2310.0 
M3 S255
G1 X95.0 Y2270.0 
M3 S0
G0 X95.0 Y2095.0 
M3 S255
G1 X95.0 Y2095.0 
M3 S255
G1 X95.0 Y2085.0 
M3 S0
G0 X95.0 Y2025.0 
M3 S255
G1 X95.0 Y2025.0 
M3 S255
G1 X95.0 Y2000.0 
M3 S0
G0 X95.0 Y1965.0 
M3 S255
G1 X95.0 Y1965.0 
M3 S255
G1 X95.0 Y1950.0 
M3 S0
G0 X95.0 Y1850.0 
M3 S255
G1 X95.0 Y1850.0 
M3 S255
G1 X95.0 Y1840.0 
M3 S0
G0 X95.0 Y1815.0 
M3 S255
G1 X95.0 Y1815.0 
M3 S255
G1 X95.0 Y1810.0 
M3 S0
G0 X95.0 Y1790.0 
M3 S255
G1 X95.0 Y1790.0 
M3 S255
G1 X95.0 Y1775.0 
M3 S0
G0 X95.0 Y1465.0 
M3 S255
G1 X95.0 Y1465.0 
M3 S255
G1 X95.0 Y1385.0 
M3 S0
M5 S0
G0 X100.0 Y1375.0 
M3 S255
G1 X100.0 Y1375.0 
M3 S255
G1 X100.0 Y1455.0 
M3 S0
G0 X100.0 Y1775.0 
M3 S255
G1 X100.0 Y1775.0 
M3 S255
G1 X100.0 Y1790.0 
M3 S0
G0 X100.0 Y1805.0 
M3 S255
G1 X100.0 Y1805.0 
M3 S255
G1 X100.0 Y1820.0 
M3 S0
G0 X100.0 Y1840.0 
M3 S255
G1 X100.0 Y1840.0 
M3 S255
G1 X100.0 Y1850.0 
M3 S0
G0 X100.0 Y1950.0 
M3 S255
G1 X100.0 Y1950.0 
M3 S255
G1 X100.0 Y1965.0 
M3 S0
G0 X100.0 Y2000.0 
M3 S255
G1 X100.0 Y2000.0 
M3 S255
G1 X100.0 Y2025.0 
M3 S0
G0 X100.0 Y2085.0 
M3 S255
G1 X100.0 Y2085.0 
M3 S255
G1 X100.0 Y2095.0 
M3 S0
G0 X100.0 Y2265.0 
M3 S255
G1 X100.0 Y2265.0 
M3 S255
G1 X100.0 Y2300.0 
M3 S0
G0 X100.0 Y2535.0 
M3 S255
G1 X100.0 Y2535.0 
M3 S255
G1 X100.0 Y2580.0 
M3 S0
M5 S0
G0 X105.0 Y2580.0 
M3 S255
G1 X105.0 Y2580.0 
M3 S255
G1 X105.0 Y2550.0 
M3 S0
G0 X105.0 Y2290.0 
M3 S255
G1 X105.0 Y2290.0 
M3 S255
G1 X105.0 Y2255.0 
M3 S0
G0 X105.0 Y2095.0 
M3 S255
G1 X105.0 Y2095.0 
M3 S255
G1 X105.0 Y2085.0 
M3 S0
G0 X105.0 Y2025.0 
M3 S255
G1 X105.0 Y2025.0 
M3 S255
G1 X105.0 Y2000.0 
M3 S0
G0 X105.0 Y1965.0 
M3 S255
G1 X105.0 Y1965.0 
M3 S255
G1 X105.0 Y1945.0 
M3 S0
G0 X105.0 Y1820.0 
M3 S255
G1 X105.0 Y1820.0 
M3 S255
G1 X105.0 Y1805.0 
M3 S0
G0 X105.0 Y1790.0 
M3 S255
G1 X105.0 Y1790.0 
M3 S255
G1 X105.0 Y1775.0 
M3 S0
G0 X105.0 Y1440.0 
M3 S255
G1 X105.0 Y1440.0 
M3 S255
G1 X105.0 Y1405.0 
M3 S0
G0 X105.0 Y1395.0 
M3 S255
G1 X105.0 Y1395.0 
M3 S255
G1 X105.0 Y1365.0 
M3 S0
M5 S0
G0 X110.0 Y1340.0 
M3 S255
G1 X110.0 Y1340.0 
M3 S255
G1 X110.0 Y1390.0 
M3 S0
G0 X110.0 Y1775.0 
M3 S255
G1 X110.0 Y1775.0 
M3 S255
G1 X110.0 Y1790.0 
M3 S0
G0 X110.0 Y1800.0 
M3 S255
G1 X110.0 Y1800.0 
M3 S255
G1 X110.0 Y1815.0 
M3 S0
G0 X110.0 Y1945.0 
M3 S255
G1 X110.0 Y1945.0 
M3 S255
G1 X110.0 Y1960.0 
M3 S0
G0 X110.0 Y2005.0 
M3 S255
G1 X110.0 Y2005.0 
M3 S255
G1 X110.0 Y2025.0 
M3 S0
G0 X110.0 Y2045.0 
M3 S255
G1 X110.0 Y2045.0 
M3 S255
G1 X110.0 Y2070.0 
M3 S0
G0 X110.0 Y2085.0 
M3 S255
G1 X110.0 Y2085.0 
M3 S255
G1 X110.0 Y2100.0 
M3 S0
G0 X110.0 Y2240.0 
M3 S255
G1 X110.0 Y2240.0 
M3 S255
G1 X110.0 Y2270.0 
M3 S0
G0 X110.0 Y2640.0 
M3 S255
G1 X110.0 Y2640.0 
M3 S255
G1 X110.0 Y2650.0 
M3 S0
M5 S0
G0 X115.0 Y2660.0 
M3 S255
G1 X115.0 Y2660.0 
M3 S255
G1 X115.0 Y2645.0 
M3 S0
G0 X115.0 Y2265.0 
M3 S255
G1 X115.0 Y2265.0 
M3 S255
G1 X115.0 Y2235.0 
M3 S0
G0 X115.0 Y2100.0 
M3 S255
G1 X115.0 Y2100.0 
M3 S255
G1 X115.0 Y2085.0 
M3 S0
G0 X115.0 Y2070.0 
M3 S255
G1 X115.0 Y2070.0 
M3 S255
G1 X115.0 Y2045.0 
M3 S0
G0 X115.0 Y2025.0 
M3 S255
G1 X115.0 Y2025.0 
M3 S255
G1 X115.0 Y2005.0 
M3 S0
G0 X115.0 Y1960.0 
M3 S255
G1 X115.0 Y1960.0 
M3 S255
G1 X115.0 Y1945.0 
M3 S0
G0 X115.0 Y1815.0 
M3 S255
G1 X115.0 Y1815.0 
M3 S255
G1 X115.0 Y1800.0 
M3 S0
G0 X115.0 Y1790.0 
M3 S255
G1 X115.0 Y1790.0 
M3 S255
G1 X115.0 Y1775.0 
M3 S0
G0 X115.0 Y1385.0 
M3 S255
G1 X115.0 Y1385.0 
M3 S255
G1 X115.0 Y1335.0 
M3 S0
M5 S0
G0 X120.0 Y1320.0 
M3 S255
G1 X120.0 Y1320.0 
M3 S255
G1 X120.0 Y1380.0 
M3 S0
G0 X120.0 Y1775.0 
M3 S255
G1 X120.0 Y1775.0 
M3 S255
G1 X120.0 Y1790.0 
M3 S0
G0 X120.0 Y1800.0 
M3 S255
G1 X120.0 Y1800.0 
M3 S255
G1 X120.0 Y1810.0 
M3 S0
G0 X120.0 Y1940.0 
M3 S255
G1 X120.0 Y1940.0 
M3 S255
G1 X120.0 Y1960.0 
M3 S0
G0 X120.0 Y2010.0 
M3 S255
G1 X120.0 Y2010.0 
M3 S255
G1 X120.0 Y2025.0 
M3 S0
G0 X120.0 Y2040.0 
M3 S255
G1 X120.0 Y2040.0 
M3 S255
G1 X120.0 Y2065.0 
M3 S0
G0 X120.0 Y2090.0 
M3 S255
G1 X120.0 Y2090.0 
M3 S255
G1 X120.0 Y2100.0 
M3 S0
G0 X120.0 Y2230.0 
M3 S255
G1 X120.0 Y2230.0 
M3 S255
G1 X120.0 Y2250.0 
M3 S0
G0 X120.0 Y2645.0 
M3 S255
G1 X120.0 Y2645.0 
M3 S255
G1 X120.0 Y2670.0 
M3 S0
M5 S0
G0 X125.0 Y2690.0 
M3 S255
G1 X125.0 Y2690.0 
M3 S255
G1 X125.0 Y2655.0 
M3 S0
G0 X125.0 Y2240.0 
M3 S255
G1 X125.0 Y2240.0 
M3 S255
G1 X125.0 Y2215.0 
M3 S0
G0 X125.0 Y2055.0 
M3 S255
G1 X125.0 Y2055.0 
M3 S255
G1 X125.0 Y2040.0 
M3 S0
G0 X125.0 Y2030.0 
M3 S255
G1 X125.0 Y2030.0 
M3 S255
G1 X125.0 Y2010.0 
M3 S0
G0 X125.0 Y1950.0 
M3 S255
G1 X125.0 Y1950.0 
M3 S255
G1 X125.0 Y1935.0 
M3 S0
G0 X125.0 Y1810.0 
M3 S255
G1 X125.0 Y1810.0 
M3 S255
G1 X125.0 Y1780.0 
M3 S0
G0 X125.0 Y1360.0 
M3 S255
G1 X125.0 Y1360.0 
M3 S255
G1 X125.0 Y1295.0 
M3 S0
M5 S0
G0 X130.0 Y1275.0 
M3 S255
G1 X130.0 Y1275.0 
M3 S255
G1 X130.0 Y1335.0 
M3 S0
G0 X130.0 Y1785.0 
M3 S255
G1 X130.0 Y1785.0 
M3 S255
G1 X130.0 Y1825.0 
M3 S0
G0 X130.0 Y1930.0 
M3 S255
G1 X130.0 Y1930.0 
M3 S255
G1 X130.0 Y1950.0 
M3 S0
G0 X130.0 Y2010.0 
M3 S255
G1 X130.0 Y2010.0 
M3 S255
G1 X130.0 Y2030.0 
M3 S0
G0 X130.0 Y2040.0 
M3 S255
G1 X130.0 Y2040.0 
M3 S255
G1 X130.0 Y2055.0 
M3 S0
G0 X130.0 Y2205.0 
M3 S255
G1 X130.0 Y2205.0 
M3 S255
G1 X130.0 Y2225.0 
M3 S0
G0 X130.0 Y2660.0 
M3 S255
G1 X130.0 Y2660.0 
M3 S255
G1 X130.0 Y2715.0 
M3 S0
M5 S0
G0 X135.0 Y2715.0 
M3 S255
G1 X135.0 Y2715.0 
M3 S255
G1 X135.0 Y2665.0 
M3 S0
G0 X135.0 Y2225.0 
M3 S255
G1 X135.0 Y2225.0 
M3 S255
G1 X135.0 Y2205.0 
M3 S0
G0 X135.0 Y2055.0 
M3 S255
G1 X135.0 Y2055.0 
M3 S255
G1 X135.0 Y2040.0 
M3 S0
G0 X135.0 Y2030.0 
M3 S255
G1 X135.0 Y2030.0 
M3 S255
G1 X135.0 Y2010.0 
M3 S0
G0 X135.0 Y1950.0 
M3 S255
G1 X135.0 Y1950.0 
M3 S255
G1 X135.0 Y1930.0 
M3 S0
G0 X135.0 Y1825.0 
M3 S255
G1 X135.0 Y1825.0 
M3 S255
G1 X135.0 Y1785.0 
M3 S0
G0 X135.0 Y1335.0 
M3 S255
G1 X135.0 Y1335.0 
M3 S255
G1 X135.0 Y1275.0 
M3 S0
M5 S0
G0 X140.0 Y1255.0 
M3 S255
G1 X140.0 Y1255.0 
M3 S255
G1 X140.0 Y1315.0 
M3 S0
G0 X140.0 Y1785.0 
M3 S255
G1 X140.0 Y1785.0 
M3 S255
G1 X140.0 Y1800.0 
M3 S0
G0 X140.0 Y1810.0 
M3 S255
G1 X140.0 Y1810.0 
M3 S255
G1 X140.0 Y1825.0 
M3 S0
G0 X140.0 Y1925.0 
M3 S255
G1 X140.0 Y1925.0 
M3 S255
G1 X140.0 Y1945.0 
M3 S0
G0 X140.0 Y2015.0 
M3 S255
G1 X140.0 Y2015.0 
M3 S255
G1 X140.0 Y2030.0 
M3 S0
G0 X140.0 Y2040.0 
M3 S255
G1 X140.0 Y2040.0 
M3 S255
G1 X140.0 Y2045.0 
M3 S0
G0 X140.0 Y2195.0 
M3 S255
G1 X140.0 Y2195.0 
M3 S255
G1 X140.0 Y2215.0 
M3 S0
G0 X140.0 Y2675.0 
M3 S255
G1 X140.0 Y2675.0 
M3 S255
G1 X140.0 Y2735.0 
M3 S0
M5 S0
G0 X145.0 Y2745.0 
M3 S255
G1 X145.0 Y2745.0 
M3 S255
G1 X145.0 Y2685.0 
M3 S0
G0 X145.0 Y2210.0 
M3 S255
G1 X145.0 Y2210.0 
M3 S255
G1 X145.0 Y2190.0 
M3 S0
G0 X145.0 Y2045.0 
M3 S255
G1 X145.0 Y2045.0 
M3 S255
G1 X145.0 Y2040.0 
M3 S0
G0 X145.0 Y2030.0 
M3 S255
G1 X145.0 Y2030.0 
M3 S255
G1 X145.0 Y2015.0 
M3 S0
G0 X145.0 Y1945.0 
M3 S255
G1 X145.0 Y1945.0 
M3 S255
G1 X145.0 Y1925.0 
M3 S0
G0 X145.0 Y1865.0 
M3 S255
G1 X145.0 Y1865.0 
M3 S255
G1 X145.0 Y1855.0 
M3 S0
G0 X145.0 Y1830.0 
M3 S255
G1 X145.0 Y1830.0 
M3 S255
G1 X145.0 Y1810.0 
M3 S0
G0 X145.0 Y1800.0 
M3 S255
G1 X145.0 Y1800.0 
M3 S255
G1 X145.0 Y1785.0 
M3 S0
G0 X145.0 Y1305.0 
M3 S255
G1 X145.0 Y1305.0 
M3 S255
G1 X145.0 Y1245.0 
M3 S0
M5 S0
G0 X150.0 Y1235.0 
M3 S255
G1 X150.0 Y1235.0 
M3 S255
G1 X150.0 Y1295.0 
M3 S0
G0 X150.0 Y1790.0 
M3 S255
G1 X150.0 Y1790.0 
M3 S255
G1 X150.0 Y1800.0 
M3 S0
G0 X150.0 Y1815.0 
M3 S255
G1 X150.0 Y1815.0 
M3 S255
G1 X150.0 Y1830.0 
M3 S0
G0 X150.0 Y1850.0 
M3 S255
G1 X150.0 Y1850.0 
M3 S255
G1 X150.0 Y1865.0 
M3 S0
G0 X150.0 Y1925.0 
M3 S255
G1 X150.0 Y1925.0 
M3 S255
G1 X150.0 Y1945.0 
M3 S0
G0 X150.0 Y2015.0 
M3 S255
G1 X150.0 Y2015.0 
M3 S255
G1 X150.0 Y2030.0 
M3 S0
G0 X150.0 Y2040.0 
M3 S255
G1 X150.0 Y2040.0 
M3 S255
G1 X150.0 Y2045.0 
M3 S0
G0 X150.0 Y2185.0 
M3 S255
G1 X150.0 Y2185.0 
M3 S255
G1 X150.0 Y2205.0 
M3 S0
G0 X150.0 Y2695.0 
M3 S255
G1 X150.0 Y2695.0 
M3 S255
G1 X150.0 Y2750.0 
M3 S0
M5 S0
G0 X155.0 Y2775.0 
M3 S255
G1 X155.0 Y2775.0 
M3 S255
G1 X155.0 Y2720.0 
M3 S0
G0 X155.0 Y2200.0 
M3 S255
G1 X155.0 Y2200.0 
M3 S255
G1 X155.0 Y2175.0 
M3 S0
G0 X155.0 Y2120.0 
M3 S255
G1 X155.0 Y2120.0 
M3 S255
G1 X155.0 Y2115.0 
M3 S0
G0 X155.0 Y2095.0 
M3 S255
G1 X155.0 Y2095.0 
M3 S255
G1 X155.0 Y2085.0 
M3 S0
G0 X155.0 Y2045.0 
M3 S255
G1 X155.0 Y2045.0 
M3 S255
G1 X155.0 Y2040.0 
M3 S0
G0 X155.0 Y2030.0 
M3 S255
G1 X155.0 Y2030.0 
M3 S255
G1 X155.0 Y2015.0 
M3 S0
G0 X155.0 Y1945.0 
M3 S255
G1 X155.0 Y1945.0 
M3 S255
G1 X155.0 Y1925.0 
M3 S0
G0 X155.0 Y1885.0 
M3 S255
G1 X155.0 Y1885.0 
M3 S255
G1 X155.0 Y1880.0 
M3 S0
G0 X155.0 Y1865.0 
M3 S255
G1 X155.0 Y1865.0 
M3 S255
G1 X155.0 Y1850.0 
M3 S0
G0 X155.0 Y1825.0 
M3 S255
G1 X155.0 Y1825.0 
M3 S255
G1 X155.0 Y1820.0 
M3 S0
G0 X155.0 Y1805.0 
M3 S255
G1 X155.0 Y1805.0 
M3 S255
G1 X155.0 Y1790.0 
M3 S0
G0 X155.0 Y1270.0 
M3 S255
G1 X155.0 Y1270.0 
M3 S255
G1 X155.0 Y1215.0 
M3 S0
M5 S0
G0 X160.0 Y1205.0 
M3 S255
G1 X160.0 Y1205.0 
M3 S255
G1 X160.0 Y1265.0 
M3 S0
G0 X160.0 Y1790.0 
M3 S255
G1 X160.0 Y1790.0 
M3 S255
G1 X160.0 Y1805.0 
M3 S0
G0 X160.0 Y1850.0 
M3 S255
G1 X160.0 Y1850.0 
M3 S255
G1 X160.0 Y1855.0 
M3 S0
G0 X160.0 Y1875.0 
M3 S255
G1 X160.0 Y1875.0 
M3 S255
G1 X160.0 Y1905.0 
M3 S0
G0 X160.0 Y1925.0 
M3 S255
G1 X160.0 Y1925.0 
M3 S255
G1 X160.0 Y1945.0 
M3 S0
G0 X160.0 Y2010.0 
M3 S255
G1 X160.0 Y2010.0 
M3 S255
G1 X160.0 Y2025.0 
M3 S0
G0 X160.0 Y2030.0 
M3 S255
G1 X160.0 Y2030.0 
M3 S255
G1 X160.0 Y2045.0 
M3 S0
G0 X160.0 Y2085.0 
M3 S255
G1 X160.0 Y2085.0 
M3 S255
G1 X160.0 Y2095.0 
M3 S0
G0 X160.0 Y2110.0 
M3 S255
G1 X160.0 Y2110.0 
M3 S255
G1 X160.0 Y2120.0 
M3 S0
G0 X160.0 Y2175.0 
M3 S255
G1 X160.0 Y2175.0 
M3 S255
G1 X160.0 Y2195.0 
M3 S0
G0 X160.0 Y2725.0 
M3 S255
G1 X160.0 Y2725.0 
M3 S255
G1 X160.0 Y2785.0 
M3 S0
M5 S0
G0 X165.0 Y2790.0 
M3 S255
G1 X165.0 Y2790.0 
M3 S255
G1 X165.0 Y2735.0 
M3 S0
G0 X165.0 Y2190.0 
M3 S255
G1 X165.0 Y2190.0 
M3 S255
G1 X165.0 Y2170.0 
M3 S0
G0 X165.0 Y2120.0 
M3 S255
G1 X165.0 Y2120.0 
M3 S255
G1 X165.0 Y2105.0 
M3 S0
G0 X165.0 Y2090.0 
M3 S255
G1 X165.0 Y2090.0 
M3 S255
G1 X165.0 Y2085.0 
M3 S0
G0 X165.0 Y2040.0 
M3 S255
G1 X165.0 Y2040.0 
M3 S255
G1 X165.0 Y2030.0 
M3 S0
G0 X165.0 Y2025.0 
M3 S255
G1 X165.0 Y2025.0 
M3 S255
G1 X165.0 Y2010.0 
M3 S0
G0 X165.0 Y1945.0 
M3 S255
G1 X165.0 Y1945.0 
M3 S255
G1 X165.0 Y1925.0 
M3 S0
G0 X165.0 Y1905.0 
M3 S255
G1 X165.0 Y1905.0 
M3 S255
G1 X165.0 Y1875.0 
M3 S0
G0 X165.0 Y1855.0 
M3 S255
G1 X165.0 Y1855.0 
M3 S255
G1 X165.0 Y1850.0 
M3 S0
G0 X165.0 Y1805.0 
M3 S255
G1 X165.0 Y1805.0 
M3 S255
G1 X165.0 Y1790.0 
M3 S0
G0 X165.0 Y1255.0 
M3 S255
G1 X165.0 Y1255.0 
M3 S255
G1 X165.0 Y1195.0 
M3 S0
M5 S0
G0 X170.0 Y1180.0 
M3 S255
G1 X170.0 Y1180.0 
M3 S255
G1 X170.0 Y1235.0 
M3 S0
G0 X170.0 Y1790.0 
M3 S255
G1 X170.0 Y1790.0 
M3 S255
G1 X170.0 Y1805.0 
M3 S0
G0 X170.0 Y1870.0 
M3 S255
G1 X170.0 Y1870.0 
M3 S255
G1 X170.0 Y1885.0 
M3 S0
G0 X170.0 Y1895.0 
M3 S255
G1 X170.0 Y1895.0 
M3 S255
G1 X170.0 Y1900.0 
M3 S0
G0 X170.0 Y1925.0 
M3 S255
G1 X170.0 Y1925.0 
M3 S255
G1 X170.0 Y1945.0 
M3 S0
G0 X170.0 Y2005.0 
M3 S255
G1 X170.0 Y2005.0 
M3 S255
G1 X170.0 Y2025.0 
M3 S0
G0 X170.0 Y2030.0 
M3 S255
G1 X170.0 Y2030.0 
M3 S255
G1 X170.0 Y2040.0 
M3 S0
G0 X170.0 Y2085.0 
M3 S255
G1 X170.0 Y2085.0 
M3 S255
G1 X170.0 Y2090.0 
M3 S0
G0 X170.0 Y2105.0 
M3 S255
G1 X170.0 Y2105.0 
M3 S255
G1 X170.0 Y2115.0 
M3 S0
G0 X170.0 Y2145.0 
M3 S255
G1 X170.0 Y2145.0 
M3 S255
G1 X170.0 Y2150.0 
M3 S0
G0 X170.0 Y2165.0 
M3 S255
G1 X170.0 Y2165.0 
M3 S255
G1 X170.0 Y2185.0 
M3 S0
G0 X170.0 Y2755.0 
M3 S255
G1 X170.0 Y2755.0 
M3 S255
G1 X170.0 Y2810.0 
M3 S0
M5 S0
G0 X175.0 Y2815.0 
M3 S255
G1 X175.0 Y2815.0 
M3 S255
G1 X175.0 Y2765.0 
M3 S0
G0 X175.0 Y2180.0 
M3 S255
G1 X175.0 Y2180.0 
M3 S255
G1 X175.0 Y2165.0 
M3 S0
G0 X175.0 Y2150.0 
M3 S255
G1 X175.0 Y2150.0 
M3 S255
G1 X175.0 Y2140.0 
M3 S0
G0 X175.0 Y2115.0 
M3 S255
G1 X175.0 Y2115.0 
M3 S255
G1 X175.0 Y2105.0 
M3 S0
G0 X175.0 Y2090.0 
M3 S255
G1 X175.0 Y2090.0 
M3 S255
G1 X175.0 Y2085.0 
M3 S0
G0 X175.0 Y2040.0 
M3 S255
G1 X175.0 Y2040.0 
M3 S255
G1 X175.0 Y2030.0 
M3 S0
G0 X175.0 Y2025.0 
M3 S255
G1 X175.0 Y2025.0 
M3 S255
G1 X175.0 Y2005.0 
M3 S0
G0 X175.0 Y1945.0 
M3 S255
G1 X175.0 Y1945.0 
M3 S255
G1 X175.0 Y1925.0 
M3 S0
G0 X175.0 Y1880.0 
M3 S255
G1 X175.0 Y1880.0 
M3 S255
G1 X175.0 Y1870.0 
M3 S0
G0 X175.0 Y1805.0 
M3 S255
G1 X175.0 Y1805.0 
M3 S255
G1 X175.0 Y1790.0 
M3 S0
G0 X175.0 Y1225.0 
M3 S255
G1 X175.0 Y1225.0 
M3 S255
G1 X175.0 Y1175.0 
M3 S0
M5 S0
G0 X180.0 Y1160.0 
M3 S255
G1 X180.0 Y1160.0 
M3 S255
G1 X180.0 Y1215.0 
M3 S0
G0 X180.0 Y1790.0 
M3 S255
G1 X180.0 Y1790.0 
M3 S255
G1 X180.0 Y1805.0 
M3 S0
G0 X180.0 Y1870.0 
M3 S255
G1 X180.0 Y1870.0 
M3 S255
G1 X180.0 Y1875.0 
M3 S0
G0 X180.0 Y1920.0 
M3 S255
G1 X180.0 Y1920.0 
M3 S255
G1 X180.0 Y1945.0 
M3 S0
G0 X180.0 Y2005.0 
M3 S255
G1 X180.0 Y2005.0 
M3 S255
G1 X180.0 Y2025.0 
M3 S0
G0 X180.0 Y2030.0 
M3 S255
G1 X180.0 Y2030.0 
M3 S255
G1 X180.0 Y2040.0 
M3 S0
G0 X180.0 Y2085.0 
M3 S255
G1 X180.0 Y2085.0 
M3 S255
G1 X180.0 Y2090.0 
M3 S0
G0 X180.0 Y2105.0 
M3 S255
G1 X180.0 Y2105.0 
M3 S255
G1 X180.0 Y2110.0 
M3 S0
G0 X180.0 Y2135.0 
M3 S255
G1 X180.0 Y2135.0 
M3 S255
G1 X180.0 Y2150.0 
M3 S0
G0 X180.0 Y2165.0 
M3 S255
G1 X180.0 Y2165.0 
M3 S255
G1 X180.0 Y2180.0 
M3 S0
G0 X180.0 Y2775.0 
M3 S255
G1 X180.0 Y2775.0 
M3 S255
G1 X180.0 Y2825.0 
M3 S0
M5 S0
G0 X185.0 Y2835.0 
M3 S255
G1 X185.0 Y2835.0 
M3 S255
G1 X185.0 Y2785.0 
M3 S0
G0 X185.0 Y2175.0 
M3 S255
G1 X185.0 Y2175.0 
M3 S255
G1 X185.0 Y2165.0 
M3 S0
G0 X185.0 Y2150.0 
M3 S255
G1 X185.0 Y2150.0 
M3 S255
G1 X185.0 Y2135.0 
M3 S0
G0 X185.0 Y2090.0 
M3 S255
G1 X185.0 Y2090.0 
M3 S255
G1 X185.0 Y2085.0 
M3 S0
G0 X185.0 Y2040.0 
M3 S255
G1 X185.0 Y2040.0 
M3 S255
G1 X185.0 Y2030.0 
M3 S0
G0 X185.0 Y2025.0 
M3 S255
G1 X185.0 Y2025.0 
M3 S255
G1 X185.0 Y2000.0 
M3 S0
G0 X185.0 Y1935.0 
M3 S255
G1 X185.0 Y1935.0 
M3 S255
G1 X185.0 Y1920.0 
M3 S0
G0 X185.0 Y1805.0 
M3 S255
G1 X185.0 Y1805.0 
M3 S255
G1 X185.0 Y1790.0 
M3 S0
G0 X185.0 Y1205.0 
M3 S255
G1 X185.0 Y1205.0 
M3 S255
G1 X185.0 Y1155.0 
M3 S0
M5 S0
G0 X190.0 Y1140.0 
M3 S255
G1 X190.0 Y1140.0 
M3 S255
G1 X190.0 Y1190.0 
M3 S0
G0 X190.0 Y1790.0 
M3 S255
G1 X190.0 Y1790.0 
M3 S255
G1 X190.0 Y1805.0 
M3 S0
G0 X190.0 Y1915.0 
M3 S255
G1 X190.0 Y1915.0 
M3 S255
G1 X190.0 Y1935.0 
M3 S0
G0 X190.0 Y2000.0 
M3 S255
G1 X190.0 Y2000.0 
M3 S255
G1 X190.0 Y2025.0 
M3 S0
G0 X190.0 Y2030.0 
M3 S255
G1 X190.0 Y2030.0 
M3 S255
G1 X190.0 Y2040.0 
M3 S0
G0 X190.0 Y2135.0 
M3 S255
G1 X190.0 Y2135.0 
M3 S255
G1 X190.0 Y2140.0 
M3 S0
G0 X190.0 Y2160.0 
M3 S255
G1 X190.0 Y2160.0 
M3 S255
G1 X190.0 Y2170.0 
M3 S0
G0 X190.0 Y2800.0 
M3 S255
G1 X190.0 Y2800.0 
M3 S255
G1 X190.0 Y2850.0 
M3 S0
M5 S0
G0 X195.0 Y2860.0 
M3 S255
G1 X195.0 Y2860.0 
M3 S255
G1 X195.0 Y2810.0 
M3 S0
G0 X195.0 Y2785.0 
M3 S255
G1 X195.0 Y2785.0 
M3 S255
G1 X195.0 Y2750.0 
M3 S0
G0 X195.0 Y2165.0 
M3 S255
G1 X195.0 Y2165.0 
M3 S255
G1 X195.0 Y2155.0 
M3 S0
G0 X195.0 Y2040.0 
M3 S255
G1 X195.0 Y2040.0 
M3 S255
G1 X195.0 Y2030.0 
M3 S0
G0 X195.0 Y2025.0 
M3 S255
G1 X195.0 Y2025.0 
M3 S255
G1 X195.0 Y2000.0 
M3 S0
G0 X195.0 Y1935.0 
M3 S255
G1 X195.0 Y1935.0 
M3 S255
G1 X195.0 Y1915.0 
M3 S0
G0 X195.0 Y1805.0 
M3 S255
G1 X195.0 Y1805.0 
M3 S255
G1 X195.0 Y1790.0 
M3 S0
G0 X195.0 Y1180.0 
M3 S255
G1 X195.0 Y1180.0 
M3 S255
G1 X195.0 Y1130.0 
M3 S0
M5 S0
G0 X200.0 Y1125.0 
M3 S255
G1 X200.0 Y1125.0 
M3 S255
G1 X200.0 Y1170.0 
M3 S0
G0 X200.0 Y1790.0 
M3 S255
G1 X200.0 Y1790.0 
M3 S255
G1 X200.0 Y1805.0 
M3 S0
G0 X200.0 Y1910.0 
M3 S255
G1 X200.0 Y1910.0 
M3 S255
G1 X200.0 Y1935.0 
M3 S0
G0 X200.0 Y2000.0 
M3 S255
G1 X200.0 Y2000.0 
M3 S255
G1 X200.0 Y2015.0 
M3 S0
G0 X200.0 Y2155.0 
M3 S255
G1 X200.0 Y2155.0 
M3 S255
G1 X200.0 Y2165.0 
M3 S0
G0 X200.0 Y2745.0 
M3 S255
G1 X200.0 Y2745.0 
M3 S255
G1 X200.0 Y2800.0 
M3 S0
G0 X200.0 Y2815.0 
M3 S255
G1 X200.0 Y2815.0 
M3 S255
G1 X200.0 Y2865.0 
M3 S0
M5 S0
G0 X205.0 Y2880.0 
M3 S255
G1 X205.0 Y2880.0 
M3 S255
G1 X205.0 Y2835.0 
M3 S0
G0 X205.0 Y2820.0 
M3 S255
G1 X205.0 Y2820.0 
M3 S255
G1 X205.0 Y2800.0 
M3 S0
G0 X205.0 Y2755.0 
M3 S255
G1 X205.0 Y2755.0 
M3 S255
G1 X205.0 Y2735.0 
M3 S0
G0 X205.0 Y2165.0 
M3 S255
G1 X205.0 Y2165.0 
M3 S255
G1 X205.0 Y2155.0 
M3 S0
G0 X205.0 Y2015.0 
M3 S255
G1 X205.0 Y2015.0 
M3 S255
G1 X205.0 Y2000.0 
M3 S0
G0 X205.0 Y1925.0 
M3 S255
G1 X205.0 Y1925.0 
M3 S255
G1 X205.0 Y1905.0 
M3 S0
G0 X205.0 Y1805.0 
M3 S255
G1 X205.0 Y1805.0 
M3 S255
G1 X205.0 Y1790.0 
M3 S0
G0 X205.0 Y1155.0 
M3 S255
G1 X205.0 Y1155.0 
M3 S255
G1 X205.0 Y1110.0 
M3 S0
M5 S0
G0 X210.0 Y1095.0 
M3 S255
G1 X210.0 Y1095.0 
M3 S255
G1 X210.0 Y1145.0 
M3 S0
G0 X210.0 Y1790.0 
M3 S255
G1 X210.0 Y1790.0 
M3 S255
G1 X210.0 Y1805.0 
M3 S0
G0 X210.0 Y1900.0 
M3 S255
G1 X210.0 Y1900.0 
M3 S255
G1 X210.0 Y1920.0 
M3 S0
G0 X210.0 Y1995.0 
M3 S255
G1 X210.0 Y1995.0 
M3 S255
G1 X210.0 Y2015.0 
M3 S0
G0 X210.0 Y2150.0 
M3 S255
G1 X210.0 Y2150.0 
M3 S255
G1 X210.0 Y2160.0 
M3 S0
G0 X210.0 Y2740.0 
M3 S255
G1 X210.0 Y2740.0 
M3 S255
G1 X210.0 Y2750.0 
M3 S0
G0 X210.0 Y2810.0 
M3 S255
G1 X210.0 Y2810.0 
M3 S255
G1 X210.0 Y2830.0 
M3 S0
G0 X210.0 Y2845.0 
M3 S255
G1 X210.0 Y2845.0 
M3 S255
G1 X210.0 Y2890.0 
M3 S0
M5 S0
G0 X215.0 Y2895.0 
M3 S255
G1 X215.0 Y2895.0 
M3 S255
G1 X215.0 Y2850.0 
M3 S0
G0 X215.0 Y2835.0 
M3 S255
G1 X215.0 Y2835.0 
M3 S255
G1 X215.0 Y2815.0 
M3 S0
G0 X215.0 Y2160.0 
M3 S255
G1 X215.0 Y2160.0 
M3 S255
G1 X215.0 Y2150.0 
M3 S0
G0 X215.0 Y2090.0 
M3 S255
G1 X215.0 Y2090.0 
M3 S255
G1 X215.0 Y2085.0 
M3 S0
G0 X215.0 Y2015.0 
M3 S255
G1 X215.0 Y2015.0 
M3 S255
G1 X215.0 Y1995.0 
M3 S0
G0 X215.0 Y1920.0 
M3 S255
G1 X215.0 Y1920.0 
M3 S255
G1 X215.0 Y1900.0 
M3 S0
G0 X215.0 Y1805.0 
M3 S255
G1 X215.0 Y1805.0 
M3 S255
G1 X215.0 Y1790.0 
M3 S0
G0 X215.0 Y1140.0 
M3 S255
G1 X215.0 Y1140.0 
M3 S255
G1 X215.0 Y1085.0 
M3 S0
M5 S0
G0 X220.0 Y1070.0 
M3 S255
G1 X220.0 Y1070.0 
M3 S255
G1 X220.0 Y1120.0 
M3 S0
G0 X220.0 Y1790.0 
M3 S255
G1 X220.0 Y1790.0 
M3 S255
G1 X220.0 Y1805.0 
M3 S0
G0 X220.0 Y1895.0 
M3 S255
G1 X220.0 Y1895.0 
M3 S255
G1 X220.0 Y1915.0 
M3 S0
G0 X220.0 Y1995.0 
M3 S255
G1 X220.0 Y1995.0 
M3 S255
G1 X220.0 Y2010.0 
M3 S0
G0 X220.0 Y2085.0 
M3 S255
G1 X220.0 Y2085.0 
M3 S255
G1 X220.0 Y2090.0 
M3 S0
G0 X220.0 Y2150.0 
M3 S255
G1 X220.0 Y2150.0 
M3 S255
G1 X220.0 Y2155.0 
M3 S0
G0 X220.0 Y2725.0 
M3 S255
G1 X220.0 Y2725.0 
M3 S255
G1 X220.0 Y2730.0 
M3 S0
G0 X220.0 Y2825.0 
M3 S255
G1 X220.0 Y2825.0 
M3 S255
G1 X220.0 Y2845.0 
M3 S0
G0 X220.0 Y2865.0 
M3 S255
G1 X220.0 Y2865.0 
M3 S255
G1 X220.0 Y2910.0 
M3 S0
M5 S0
G0 X225.0 Y2920.0 
M3 S255
G1 X225.0 Y2920.0 
M3 S255
G1 X225.0 Y2875.0 
M3 S0
G0 X225.0 Y2855.0 
M3 S255
G1 X225.0 Y2855.0 
M3 S255
G1 X225.0 Y2830.0 
M3 S0
G0 X225.0 Y2735.0 
M3 S255
G1 X225.0 Y2735.0 
M3 S255
G1 X225.0 Y2720.0 
M3 S0
G0 X225.0 Y2155.0 
M3 S255
G1 X225.0 Y2155.0 
M3 S255
G1 X225.0 Y2150.0 
M3 S0
G0 X225.0 Y2010.0 
M3 S255
G1 X225.0 Y2010.0 
M3 S255
G1 X225.0 Y1990.0 
M3 S0
G0 X225.0 Y1910.0 
M3 S255
G1 X225.0 Y1910.0 
M3 S255
G1 X225.0 Y1890.0 
M3 S0
G0 X225.0 Y1805.0 
M3 S255
G1 X225.0 Y1805.0 
M3 S255
G1 X225.0 Y1790.0 
M3 S0
G0 X225.0 Y1110.0 
M3 S255
G1 X225.0 Y1110.0 
M3 S255
G1 X225.0 Y1070.0 
M3 S0
M5 S0
G0 X230.0 Y1065.0 
M3 S255
G1 X230.0 Y1065.0 
M3 S255
G1 X230.0 Y1110.0 
M3 S0
G0 X230.0 Y1785.0 
M3 S255
G1 X230.0 Y1785.0 
M3 S255
G1 X230.0 Y1805.0 
M3 S0
G0 X230.0 Y1890.0 
M3 S255
G1 X230.0 Y1890.0 
M3 S255
G1 X230.0 Y1910.0 
M3 S0
G0 X230.0 Y1990.0 
M3 S255
G1 X230.0 Y1990.0 
M3 S255
G1 X230.0 Y2005.0 
M3 S0
G0 X230.0 Y2080.0 
M3 S255
G1 X230.0 Y2080.0 
M3 S255
G1 X230.0 Y2085.0 
M3 S0
G0 X230.0 Y2150.0 
M3 S255
G1 X230.0 Y2150.0 
M3 S255
G1 X230.0 Y2155.0 
M3 S0
G0 X230.0 Y2720.0 
M3 S255
G1 X230.0 Y2720.0 
M3 S255
G1 X230.0 Y2735.0 
M3 S0
G0 X230.0 Y2830.0 
M3 S255
G1 X230.0 Y2830.0 
M3 S255
G1 X230.0 Y2865.0 
M3 S0
G0 X230.0 Y2880.0 
M3 S255
G1 X230.0 Y2880.0 
M3 S255
G1 X230.0 Y2925.0 
M3 S0
M5 S0
G0 X235.0 Y2945.0 
M3 S255
G1 X235.0 Y2945.0 
M3 S255
G1 X235.0 Y2895.0 
M3 S0
G0 X235.0 Y2875.0 
M3 S255
G1 X235.0 Y2875.0 
M3 S255
G1 X235.0 Y2830.0 
M3 S0
G0 X235.0 Y2735.0 
M3 S255
G1 X235.0 Y2735.0 
M3 S255
G1 X235.0 Y2720.0 
M3 S0
G0 X235.0 Y2150.0 
M3 S255
G1 X235.0 Y2150.0 
M3 S255
G1 X235.0 Y2145.0 
M3 S0
G0 X235.0 Y2085.0 
M3 S255
G1 X235.0 Y2085.0 
M3 S255
G1 X235.0 Y2075.0 
M3 S0
G0 X235.0 Y2005.0 
M3 S255
G1 X235.0 Y2005.0 
M3 S255
G1 X235.0 Y1990.0 
M3 S0
G0 X235.0 Y1905.0 
M3 S255
G1 X235.0 Y1905.0 
M3 S255
G1 X235.0 Y1890.0 
M3 S0
G0 X235.0 Y1805.0 
M3 S255
G1 X235.0 Y1805.0 
M3 S255
G1 X235.0 Y1785.0 
M3 S0
G0 X235.0 Y1095.0 
M3 S255
G1 X235.0 Y1095.0 
M3 S255
G1 X235.0 Y1045.0 
M3 S0
M5 S0
G0 X240.0 Y1040.0 
M3 S255
G1 X240.0 Y1040.0 
M3 S255
G1 X240.0 Y1085.0 
M3 S0
G0 X240.0 Y1785.0 
M3 S255
G1 X240.0 Y1785.0 
M3 S255
G1 X240.0 Y1805.0 
M3 S0
G0 X240.0 Y1885.0 
M3 S255
G1 X240.0 Y1885.0 
M3 S255
G1 X240.0 Y1905.0 
M3 S0
G0 X240.0 Y1990.0 
M3 S255
G1 X240.0 Y1990.0 
M3 S255
G1 X240.0 Y2000.0 
M3 S0
G0 X240.0 Y2075.0 
M3 S255
G1 X240.0 Y2075.0 
M3 S255
G1 X240.0 Y2080.0 
M3 S0
G0 X240.0 Y2145.0 
M3 S255
G1 X240.0 Y2145.0 
M3 S255
G1 X240.0 Y2150.0 
M3 S0
G0 X240.0 Y2720.0 
M3 S255
G1 X240.0 Y2720.0 
M3 S255
G1 X240.0 Y2730.0 
M3 S0
G0 X240.0 Y2830.0 
M3 S255
G1 X240.0 Y2830.0 
M3 S255
G1 X240.0 Y2880.0 
M3 S0
G0 X240.0 Y2905.0 
M3 S255
G1 X240.0 Y2905.0 
M3 S255
G1 X240.0 Y2950.0 
M3 S0
M5 S0
G0 X245.0 Y2960.0 
M3 S255
G1 X245.0 Y2960.0 
M3 S255
G1 X245.0 Y2910.0 
M3 S0
G0 X245.0 Y2890.0 
M3 S255
G1 X245.0 Y2890.0 
M3 S255
G1 X245.0 Y2830.0 
M3 S0
G0 X245.0 Y2730.0 
M3 S255
G1 X245.0 Y2730.0 
M3 S255
G1 X245.0 Y2720.0 
M3 S0
G0 X245.0 Y2150.0 
M3 S255
G1 X245.0 Y2150.0 
M3 S255
G1 X245.0 Y2140.0 
M3 S0
G0 X245.0 Y2000.0 
M3 S255
G1 X245.0 Y2000.0 
M3 S255
G1 X245.0 Y1990.0 
M3 S0
G0 X245.0 Y1905.0 
M3 S255
G1 X245.0 Y1905.0 
M3 S255
G1 X245.0 Y1885.0 
M3 S0
G0 X245.0 Y1800.0 
M3 S255
G1 X245.0 Y1800.0 
M3 S255
G1 X245.0 Y1780.0 
M3 S0
G0 X245.0 Y1080.0 
M3 S255
G1 X245.0 Y1080.0 
M3 S255
G1 X245.0 Y1030.0 
M3 S0
M5 S0
G0 X250.0 Y1020.0 
M3 S255
G1 X250.0 Y1020.0 
M3 S255
G1 X250.0 Y1065.0 
M3 S0
G0 X250.0 Y1775.0 
M3 S255
G1 X250.0 Y1775.0 
M3 S255
G1 X250.0 Y1795.0 
M3 S0
G0 X250.0 Y1885.0 
M3 S255
G1 X250.0 Y1885.0 
M3 S255
G1 X250.0 Y1905.0 
M3 S0
G0 X250.0 Y1985.0 
M3 S255
G1 X250.0 Y1985.0 
M3 S255
G1 X250.0 Y2000.0 
M3 S0
G0 X250.0 Y2040.0 
M3 S255
G1 X250.0 Y2040.0 
M3 S255
G1 X250.0 Y2045.0 
M3 S0
G0 X250.0 Y2140.0 
M3 S255
G1 X250.0 Y2140.0 
M3 S255
G1 X250.0 Y2150.0 
M3 S0
G0 X250.0 Y2715.0 
M3 S255
G1 X250.0 Y2715.0 
M3 S255
G1 X250.0 Y2725.0 
M3 S0
G0 X250.0 Y2835.0 
M3 S255
G1 X250.0 Y2835.0 
M3 S255
G1 X250.0 Y2905.0 
M3 S0
G0 X250.0 Y2925.0 
M3 S255
G1 X250.0 Y2925.0 
M3 S255
G1 X250.0 Y2970.0 
M3 S0
M5 S0
G0 X255.0 Y2975.0 
M3 S255
G1 X255.0 Y2975.0 
M3 S255
G1 X255.0 Y2935.0 
M3 S0
G0 X255.0 Y2910.0 
M3 S255
G1 X255.0 Y2910.0 
M3 S255
G1 X255.0 Y2845.0 
M3 S0
G0 X255.0 Y2720.0 
M3 S255
G1 X255.0 Y2720.0 
M3 S255
G1 X255.0 Y2715.0 
M3 S0
G0 X255.0 Y2150.0 
M3 S255
G1 X255.0 Y2150.0 
M3 S255
G1 X255.0 Y2140.0 
M3 S0
G0 X255.0 Y2045.0 
M3 S255
G1 X255.0 Y2045.0 
M3 S255
G1 X255.0 Y2040.0 
M3 S0
G0 X255.0 Y2000.0 
M3 S255
G1 X255.0 Y2000.0 
M3 S255
G1 X255.0 Y1985.0 
M3 S0
G0 X255.0 Y1905.0 
M3 S255
G1 X255.0 Y1905.0 
M3 S255
G1 X255.0 Y1885.0 
M3 S0
G0 X255.0 Y1790.0 
M3 S255
G1 X255.0 Y1790.0 
M3 S255
G1 X255.0 Y1775.0 
M3 S0
G0 X255.0 Y1055.0 
M3 S255
G1 X255.0 Y1055.0 
M3 S255
G1 X255.0 Y1015.0 
M3 S0
M5 S0
G0 X260.0 Y1005.0 
M3 S255
G1 X260.0 Y1005.0 
M3 S255
G1 X260.0 Y1045.0 
M3 S0
G0 X260.0 Y1770.0 
M3 S255
G1 X260.0 Y1770.0 
M3 S255
G1 X260.0 Y1790.0 
M3 S0
G0 X260.0 Y1885.0 
M3 S255
G1 X260.0 Y1885.0 
M3 S255
G1 X260.0 Y1900.0 
M3 S0
G0 X260.0 Y1985.0 
M3 S255
G1 X260.0 Y1985.0 
M3 S255
G1 X260.0 Y2000.0 
M3 S0
G0 X260.0 Y2040.0 
M3 S255
G1 X260.0 Y2040.0 
M3 S255
G1 X260.0 Y2045.0 
M3 S0
G0 X260.0 Y2140.0 
M3 S255
G1 X260.0 Y2140.0 
M3 S255
G1 X260.0 Y2150.0 
M3 S0
G0 X260.0 Y2860.0 
M3 S255
G1 X260.0 Y2860.0 
M3 S255
G1 X260.0 Y2920.0 
M3 S0
G0 X260.0 Y2940.0 
M3 S255
G1 X260.0 Y2940.0 
M3 S255
G1 X260.0 Y2985.0 
M3 S0
M5 S0
G0 X265.0 Y3000.0 
M3 S255
G1 X265.0 Y3000.0 
M3 S255
G1 X265.0 Y2955.0 
M3 S0
G0 X265.0 Y2940.0 
M3 S255
G1 X265.0 Y2940.0 
M3 S255
G1 X265.0 Y2885.0 
M3 S0
G0 X265.0 Y2755.0 
M3 S255
G1 X265.0 Y2755.0 
M3 S255
G1 X265.0 Y2745.0 
M3 S0
G0 X265.0 Y2730.0 
M3 S255
G1 X265.0 Y2730.0 
M3 S255
G1 X265.0 Y2725.0 
M3 S0
G0 X265.0 Y2150.0 
M3 S255
G1 X265.0 Y2150.0 
M3 S255
G1 X265.0 Y2135.0 
M3 S0
G0 X265.0 Y2080.0 
M3 S255
G1 X265.0 Y2080.0 
M3 S255
G1 X265.0 Y2075.0 
M3 S0
G0 X265.0 Y2045.0 
M3 S255
G1 X265.0 Y2045.0 
M3 S255
G1 X265.0 Y2040.0 
M3 S0
G0 X265.0 Y1995.0 
M3 S255
G1 X265.0 Y1995.0 
M3 S255
G1 X265.0 Y1980.0 
M3 S0
G0 X265.0 Y1900.0 
M3 S255
G1 X265.0 Y1900.0 
M3 S255
G1 X265.0 Y1880.0 
M3 S0
G0 X265.0 Y1785.0 
M3 S255
G1 X265.0 Y1785.0 
M3 S255
G1 X265.0 Y1765.0 
M3 S0
G0 X265.0 Y1030.0 
M3 S255
G1 X265.0 Y1030.0 
M3 S255
G1 X265.0 Y990.0 
M3 S0
M5 S0
G0 X270.0 Y985.0 
M3 S255
G1 X270.0 Y985.0 
M3 S255
G1 X270.0 Y1030.0 
M3 S0
G0 X270.0 Y1760.0 
M3 S255
G1 X270.0 Y1760.0 
M3 S255
G1 X270.0 Y1785.0 
M3 S0
G0 X270.0 Y1880.0 
M3 S255
G1 X270.0 Y1880.0 
M3 S255
G1 X270.0 Y1895.0 
M3 S0
G0 X270.0 Y1980.0 
M3 S255
G1 X270.0 Y1980.0 
M3 S255
G1 X270.0 Y1995.0 
M3 S0
G0 X270.0 Y2040.0 
M3 S255
G1 X270.0 Y2040.0 
M3 S255
G1 X270.0 Y2045.0 
M3 S0
G0 X270.0 Y2075.0 
M3 S255
G1 X270.0 Y2075.0 
M3 S255
G1 X270.0 Y2080.0 
M3 S0
G0 X270.0 Y2135.0 
M3 S255
G1 X270.0 Y2135.0 
M3 S255
G1 X270.0 Y2145.0 
M3 S0
G0 X270.0 Y2725.0 
M3 S255
G1 X270.0 Y2725.0 
M3 S255
G1 X270.0 Y2730.0 
M3 S0
G0 X270.0 Y2750.0 
M3 S255
G1 X270.0 Y2750.0 
M3 S255
G1 X270.0 Y2760.0 
M3 S0
G0 X270.0 Y2905.0 
M3 S255
G1 X270.0 Y2905.0 
M3 S255
G1 X270.0 Y2945.0 
M3 S0
G0 X270.0 Y2960.0 
M3 S255
G1 X270.0 Y2960.0 
M3 S255
G1 X270.0 Y3005.0 
M3 S0
M5 S0
G0 X275.0 Y3015.0 
M3 S255
G1 X275.0 Y3015.0 
M3 S255
G1 X275.0 Y2970.0 
M3 S0
G0 X275.0 Y2955.0 
M3 S255
G1 X275.0 Y2955.0 
M3 S255
G1 X275.0 Y2920.0 
M3 S0
G0 X275.0 Y2765.0 
M3 S255
G1 X275.0 Y2765.0 
M3 S255
G1 X275.0 Y2750.0 
M3 S0
G0 X275.0 Y2730.0 
M3 S255
G1 X275.0 Y2730.0 
M3 S255
G1 X275.0 Y2720.0 
M3 S0
G0 X275.0 Y2145.0 
M3 S255
G1 X275.0 Y2145.0 
M3 S255
G1 X275.0 Y2135.0 
M3 S0
G0 X275.0 Y2080.0 
M3 S255
G1 X275.0 Y2080.0 
M3 S255
G1 X275.0 Y2075.0 
M3 S0
G0 X275.0 Y2045.0 
M3 S255
G1 X275.0 Y2045.0 
M3 S255
G1 X275.0 Y2040.0 
M3 S0
G0 X275.0 Y1990.0 
M3 S255
G1 X275.0 Y1990.0 
M3 S255
G1 X275.0 Y1980.0 
M3 S0
G0 X275.0 Y1895.0 
M3 S255
G1 X275.0 Y1895.0 
M3 S255
G1 X275.0 Y1880.0 
M3 S0
G0 X275.0 Y1780.0 
M3 S255
G1 X275.0 Y1780.0 
M3 S255
G1 X275.0 Y1760.0 
M3 S0
G0 X275.0 Y1020.0 
M3 S255
G1 X275.0 Y1020.0 
M3 S255
G1 X275.0 Y975.0 
M3 S0
M5 S0
G0 X280.0 Y970.0 
M3 S255
G1 X280.0 Y970.0 
M3 S255
G1 X280.0 Y1015.0 
M3 S0
G0 X280.0 Y1760.0 
M3 S255
G1 X280.0 Y1760.0 
M3 S255
G1 X280.0 Y1775.0 
M3 S0
G0 X280.0 Y1880.0 
M3 S255
G1 X280.0 Y1880.0 
M3 S255
G1 X280.0 Y1895.0 
M3 S0
G0 X280.0 Y1980.0 
M3 S255
G1 X280.0 Y1980.0 
M3 S255
G1 X280.0 Y1990.0 
M3 S0
G0 X280.0 Y2040.0 
M3 S255
G1 X280.0 Y2040.0 
M3 S255
G1 X280.0 Y2045.0 
M3 S0
G0 X280.0 Y2075.0 
M3 S255
G1 X280.0 Y2075.0 
M3 S255
G1 X280.0 Y2080.0 
M3 S0
G0 X280.0 Y2135.0 
M3 S255
G1 X280.0 Y2135.0 
M3 S255
G1 X280.0 Y2145.0 
M3 S0
G0 X280.0 Y2715.0 
M3 S255
G1 X280.0 Y2715.0 
M3 S255
G1 X280.0 Y2725.0 
M3 S0
G0 X280.0 Y2745.0 
M3 S255
G1 X280.0 Y2745.0 
M3 S255
G1 X280.0 Y2765.0 
M3 S0
G0 X280.0 Y2925.0 
M3 S255
G1 X280.0 Y2925.0 
M3 S255
G1 X280.0 Y2960.0 
M3 S0
G0 X280.0 Y2975.0 
M3 S255
G1 X280.0 Y2975.0 
M3 S255
G1 X280.0 Y3020.0 
M3 S0
M5 S0
G0 X285.0 Y3030.0 
M3 S255
G1 X285.0 Y3030.0 
M3 S255
G1 X285.0 Y2990.0 
M3 S0
G0 X285.0 Y2975.0 
M3 S255
G1 X285.0 Y2975.0 
M3 S255
G1 X285.0 Y2935.0 
M3 S0
G0 X285.0 Y2790.0 
M3 S255
G1 X285.0 Y2790.0 
M3 S255
G1 X285.0 Y2780.0 
M3 S0
G0 X285.0 Y2760.0 
M3 S255
G1 X285.0 Y2760.0 
M3 S255
G1 X285.0 Y2740.0 
M3 S0
G0 X285.0 Y2730.0 
M3 S255
G1 X285.0 Y2730.0 
M3 S255
G1 X285.0 Y2710.0 
M3 S0
G0 X285.0 Y2145.0 
M3 S255
G1 X285.0 Y2145.0 
M3 S255
G1 X285.0 Y2135.0 
M3 S0
G0 X285.0 Y2055.0 
M3 S255
G1 X285.0 Y2055.0 
M3 S255
G1 X285.0 Y2050.0 
M3 S0
G0 X285.0 Y2045.0 
M3 S255
G1 X285.0 Y2045.0 
M3 S255
G1 X285.0 Y2040.0 
M3 S0
G0 X285.0 Y1990.0 
M3 S255
G1 X285.0 Y1990.0 
M3 S255
G1 X285.0 Y1975.0 
M3 S0
G0 X285.0 Y1895.0 
M3 S255
G1 X285.0 Y1895.0 
M3 S255
G1 X285.0 Y1875.0 
M3 S0
G0 X285.0 Y1775.0 
M3 S255
G1 X285.0 Y1775.0 
M3 S255
G1 X285.0 Y1750.0 
M3 S0
G0 X285.0 Y1000.0 
M3 S255
G1 X285.0 Y1000.0 
M3 S255
G1 X285.0 Y960.0 
M3 S0
M5 S0
G0 X290.0 Y950.0 
M3 S255
G1 X290.0 Y950.0 
M3 S255
G1 X290.0 Y990.0 
M3 S0
G0 X290.0 Y1750.0 
M3 S255
G1 X290.0 Y1750.0 
M3 S255
G1 X290.0 Y1775.0 
M3 S0
G0 X290.0 Y1875.0 
M3 S255
G1 X290.0 Y1875.0 
M3 S255
G1 X290.0 Y1890.0 
M3 S0
G0 X290.0 Y1975.0 
M3 S255
G1 X290.0 Y1975.0 
M3 S255
G1 X290.0 Y1990.0 
M3 S0
G0 X290.0 Y2040.0 
M3 S255
G1 X290.0 Y2040.0 
M3 S255
G1 X290.0 Y2055.0 
M3 S0
G0 X290.0 Y2135.0 
M3 S255
G1 X290.0 Y2135.0 
M3 S255
G1 X290.0 Y2145.0 
M3 S0
G0 X290.0 Y2710.0 
M3 S255
G1 X290.0 Y2710.0 
M3 S255
G1 X290.0 Y2725.0 
M3 S0
G0 X290.0 Y2735.0 
M3 S255
G1 X290.0 Y2735.0 
M3 S255
G1 X290.0 Y2755.0 
M3 S0
G0 X290.0 Y2780.0 
M3 S255
G1 X290.0 Y2780.0 
M3 S255
G1 X290.0 Y2785.0 
M3 S0
G0 X290.0 Y2935.0 
M3 S255
G1 X290.0 Y2935.0 
M3 S255
G1 X290.0 Y2990.0 
M3 S0
G0 X290.0 Y3000.0 
M3 S255
G1 X290.0 Y3000.0 
M3 S255
G1 X290.0 Y3035.0 
M3 S0
M5 S0
G0 X295.0 Y3045.0 
M3 S255
G1 X295.0 Y3045.0 
M3 S255
G1 X295.0 Y3005.0 
M3 S0
G0 X295.0 Y2990.0 
M3 S255
G1 X295.0 Y2990.0 
M3 S255
G1 X295.0 Y2935.0 
M3 S0
G0 X295.0 Y2785.0 
M3 S255
G1 X295.0 Y2785.0 
M3 S255
G1 X295.0 Y2780.0 
M3 S0
G0 X295.0 Y2750.0 
M3 S255
G1 X295.0 Y2750.0 
M3 S255
G1 X295.0 Y2735.0 
M3 S0
G0 X295.0 Y2730.0 
M3 S255
G1 X295.0 Y2730.0 
M3 S255
G1 X295.0 Y2710.0 
M3 S0
G0 X295.0 Y2145.0 
M3 S255
G1 X295.0 Y2145.0 
M3 S255
G1 X295.0 Y2135.0 
M3 S0
G0 X295.0 Y2055.0 
M3 S255
G1 X295.0 Y2055.0 
M3 S255
G1 X295.0 Y2040.0 
M3 S0
G0 X295.0 Y1990.0 
M3 S255
G1 X295.0 Y1990.0 
M3 S255
G1 X295.0 Y1975.0 
M3 S0
G0 X295.0 Y1890.0 
M3 S255
G1 X295.0 Y1890.0 
M3 S255
G1 X295.0 Y1875.0 
M3 S0
G0 X295.0 Y1770.0 
M3 S255
G1 X295.0 Y1770.0 
M3 S255
G1 X295.0 Y1745.0 
M3 S0
G0 X295.0 Y1095.0 
M3 S255
G1 X295.0 Y1095.0 
M3 S255
G1 X295.0 Y1065.0 
M3 S0
G0 X295.0 Y985.0 
M3 S255
G1 X295.0 Y985.0 
M3 S255
G1 X295.0 Y945.0 
M3 S0
M5 S0
G0 X300.0 Y935.0 
M3 S255
G1 X300.0 Y935.0 
M3 S255
G1 X300.0 Y975.0 
M3 S0
G0 X300.0 Y1045.0 
M3 S255
G1 X300.0 Y1045.0 
M3 S255
G1 X300.0 Y1105.0 
M3 S0
G0 X300.0 Y1745.0 
M3 S255
G1 X300.0 Y1745.0 
M3 S255
G1 X300.0 Y1765.0 
M3 S0
G0 X300.0 Y1875.0 
M3 S255
G1 X300.0 Y1875.0 
M3 S255
G1 X300.0 Y1890.0 
M3 S0
G0 X300.0 Y1975.0 
M3 S255
G1 X300.0 Y1975.0 
M3 S255
G1 X300.0 Y1990.0 
M3 S0
G0 X300.0 Y2045.0 
M3 S255
G1 X300.0 Y2045.0 
M3 S255
G1 X300.0 Y2055.0 
M3 S0
G0 X300.0 Y2135.0 
M3 S255
G1 X300.0 Y2135.0 
M3 S255
G1 X300.0 Y2140.0 
M3 S0
G0 X300.0 Y2705.0 
M3 S255
G1 X300.0 Y2705.0 
M3 S255
G1 X300.0 Y2750.0 
M3 S0
G0 X300.0 Y2970.0 
M3 S255
G1 X300.0 Y2970.0 
M3 S255
G1 X300.0 Y2985.0 
M3 S0
G0 X300.0 Y2990.0 
M3 S255
G1 X300.0 Y2990.0 
M3 S255
G1 X300.0 Y3005.0 
M3 S0
G0 X300.0 Y3015.0 
M3 S255
G1 X300.0 Y3015.0 
M3 S255
G1 X300.0 Y3055.0 
M3 S0
M5 S0
G0 X305.0 Y3065.0 
M3 S255
G1 X305.0 Y3065.0 
M3 S255
G1 X305.0 Y3025.0 
M3 S0
G0 X305.0 Y3015.0 
M3 S255
G1 X305.0 Y3015.0 
M3 S255
G1 X305.0 Y2990.0 
M3 S0
G0 X305.0 Y2740.0 
M3 S255
G1 X305.0 Y2740.0 
M3 S255
G1 X305.0 Y2705.0 
M3 S0
G0 X305.0 Y2140.0 
M3 S255
G1 X305.0 Y2140.0 
M3 S255
G1 X305.0 Y2125.0 
M3 S0
G0 X305.0 Y2055.0 
M3 S255
G1 X305.0 Y2055.0 
M3 S255
G1 X305.0 Y2045.0 
M3 S0
G0 X305.0 Y1985.0 
M3 S255
G1 X305.0 Y1985.0 
M3 S255
G1 X305.0 Y1975.0 
M3 S0
G0 X305.0 Y1890.0 
M3 S255
G1 X305.0 Y1890.0 
M3 S255
G1 X305.0 Y1870.0 
M3 S0
G0 X305.0 Y1760.0 
M3 S255
G1 X305.0 Y1760.0 
M3 S255
G1 X305.0 Y1745.0 
M3 S0
G0 X305.0 Y1110.0 
M3 S255
G1 X305.0 Y1110.0 
M3 S255
G1 X305.0 Y1085.0 
M3 S0
G0 X305.0 Y1050.0 
M3 S255
G1 X305.0 Y1050.0 
M3 S255
G1 X305.0 Y1030.0 
M3 S0
G0 X305.0 Y965.0 
M3 S255
G1 X305.0 Y965.0 
M3 S255
G1 X305.0 Y925.0 
M3 S0
M5 S0
G0 X310.0 Y920.0 
M3 S255
G1 X310.0 Y920.0 
M3 S255
G1 X310.0 Y960.0 
M3 S0
G0 X310.0 Y1020.0 
M3 S255
G1 X310.0 Y1020.0 
M3 S255
G1 X310.0 Y1040.0 
M3 S0
G0 X310.0 Y1095.0 
M3 S255
G1 X310.0 Y1095.0 
M3 S255
G1 X310.0 Y1110.0 
M3 S0
G0 X310.0 Y1745.0 
M3 S255
G1 X310.0 Y1745.0 
M3 S255
G1 X310.0 Y1760.0 
M3 S0
G0 X310.0 Y1870.0 
M3 S255
G1 X310.0 Y1870.0 
M3 S255
G1 X310.0 Y1890.0 
M3 S0
G0 X310.0 Y1975.0 
M3 S255
G1 X310.0 Y1975.0 
M3 S255
G1 X310.0 Y1985.0 
M3 S0
G0 X310.0 Y2045.0 
M3 S255
G1 X310.0 Y2045.0 
M3 S255
G1 X310.0 Y2055.0 
M3 S0
G0 X310.0 Y2125.0 
M3 S255
G1 X310.0 Y2125.0 
M3 S255
G1 X310.0 Y2140.0 
M3 S0
G0 X310.0 Y2705.0 
M3 S255
G1 X310.0 Y2705.0 
M3 S255
G1 X310.0 Y2735.0 
M3 S0
G0 X310.0 Y3000.0 
M3 S255
G1 X310.0 Y3000.0 
M3 S255
G1 X310.0 Y3020.0 
M3 S0
G0 X310.0 Y3030.0 
M3 S255
G1 X310.0 Y3030.0 
M3 S255
G1 X310.0 Y3065.0 
M3 S0
M5 S0
G0 X315.0 Y3080.0 
M3 S255
G1 X315.0 Y3080.0 
M3 S255
G1 X315.0 Y3005.0 
M3 S0
G0 X315.0 Y2785.0 
M3 S255
G1 X315.0 Y2785.0 
M3 S255
G1 X315.0 Y2780.0 
M3 S0
G0 X315.0 Y2730.0 
M3 S255
G1 X315.0 Y2730.0 
M3 S255
G1 X315.0 Y2705.0 
M3 S0
G0 X315.0 Y2140.0 
M3 S255
G1 X315.0 Y2140.0 
M3 S255
G1 X315.0 Y2125.0 
M3 S0
G0 X315.0 Y2055.0 
M3 S255
G1 X315.0 Y2055.0 
M3 S255
G1 X315.0 Y2045.0 
M3 S0
G0 X315.0 Y1985.0 
M3 S255
G1 X315.0 Y1985.0 
M3 S255
G1 X315.0 Y1975.0 
M3 S0
G0 X315.0 Y1885.0 
M3 S255
G1 X315.0 Y1885.0 
M3 S255
G1 X315.0 Y1870.0 
M3 S0
G0 X315.0 Y1760.0 
M3 S255
G1 X315.0 Y1760.0 
M3 S255
G1 X315.0 Y1740.0 
M3 S0
G0 X315.0 Y1115.0 
M3 S255
G1 X315.0 Y1115.0 
M3 S255
G1 X315.0 Y1100.0 
M3 S0
G0 X315.0 Y1025.0 
M3 S255
G1 X315.0 Y1025.0 
M3 S255
G1 X315.0 Y1005.0 
M3 S0
G0 X315.0 Y945.0 
M3 S255
G1 X315.0 Y945.0 
M3 S255
G1 X315.0 Y910.0 
M3 S0
M5 S0
G0 X320.0 Y905.0 
M3 S255
G1 X320.0 Y905.0 
M3 S255
G1 X320.0 Y945.0 
M3 S0
G0 X320.0 Y1000.0 
M3 S255
G1 X320.0 Y1000.0 
M3 S255
G1 X320.0 Y1020.0 
M3 S0
G0 X320.0 Y1105.0 
M3 S255
G1 X320.0 Y1105.0 
M3 S255
G1 X320.0 Y1120.0 
M3 S0
G0 X320.0 Y1735.0 
M3 S255
G1 X320.0 Y1735.0 
M3 S255
G1 X320.0 Y1760.0 
M3 S0
G0 X320.0 Y1870.0 
M3 S255
G1 X320.0 Y1870.0 
M3 S255
G1 X320.0 Y1885.0 
M3 S0
G0 X320.0 Y1965.0 
M3 S255
G1 X320.0 Y1965.0 
M3 S255
G1 X320.0 Y1985.0 
M3 S0
G0 X320.0 Y2045.0 
M3 S255
G1 X320.0 Y2045.0 
M3 S255
G1 X320.0 Y2055.0 
M3 S0
G0 X320.0 Y2125.0 
M3 S255
G1 X320.0 Y2125.0 
M3 S255
G1 X320.0 Y2140.0 
M3 S0
G0 X320.0 Y2705.0 
M3 S255
G1 X320.0 Y2705.0 
M3 S255
G1 X320.0 Y2730.0 
M3 S0
G0 X320.0 Y2780.0 
M3 S255
G1 X320.0 Y2780.0 
M3 S255
G1 X320.0 Y2785.0 
M3 S0
G0 X320.0 Y3015.0 
M3 S255
G1 X320.0 Y3015.0 
M3 S255
G1 X320.0 Y3085.0 
M3 S0
M5 S0
G0 X325.0 Y3095.0 
M3 S255
G1 X325.0 Y3095.0 
M3 S255
G1 X325.0 Y3015.0 
M3 S0
G0 X325.0 Y2895.0 
M3 S255
G1 X325.0 Y2895.0 
M3 S255
G1 X325.0 Y2890.0 
M3 S0
G0 X325.0 Y2785.0 
M3 S255
G1 X325.0 Y2785.0 
M3 S255
G1 X325.0 Y2780.0 
M3 S0
G0 X325.0 Y2725.0 
M3 S255
G1 X325.0 Y2725.0 
M3 S255
G1 X325.0 Y2705.0 
M3 S0
G0 X325.0 Y2140.0 
M3 S255
G1 X325.0 Y2140.0 
M3 S255
G1 X325.0 Y2125.0 
M3 S0
G0 X325.0 Y2055.0 
M3 S255
G1 X325.0 Y2055.0 
M3 S255
G1 X325.0 Y2045.0 
M3 S0
G0 X325.0 Y1985.0 
M3 S255
G1 X325.0 Y1985.0 
M3 S255
G1 X325.0 Y1965.0 
M3 S0
G0 X325.0 Y1885.0 
M3 S255
G1 X325.0 Y1885.0 
M3 S255
G1 X325.0 Y1870.0 
M3 S0
G0 X325.0 Y1755.0 
M3 S255
G1 X325.0 Y1755.0 
M3 S255
G1 X325.0 Y1735.0 
M3 S0
G0 X325.0 Y1120.0 
M3 S255
G1 X325.0 Y1120.0 
M3 S255
G1 X325.0 Y1110.0 
M3 S0
G0 X325.0 Y1015.0 
M3 S255
G1 X325.0 Y1015.0 
M3 S255
G1 X325.0 Y990.0 
M3 S0
G0 X325.0 Y935.0 
M3 S255
G1 X325.0 Y935.0 
M3 S255
G1 X325.0 Y895.0 
M3 S0
M5 S0
G0 X330.0 Y885.0 
M3 S255
G1 X330.0 Y885.0 
M3 S255
G1 X330.0 Y925.0 
M3 S0
G0 X330.0 Y975.0 
M3 S255
G1 X330.0 Y975.0 
M3 S255
G1 X330.0 Y1015.0 
M3 S0
G0 X330.0 Y1110.0 
M3 S255
G1 X330.0 Y1110.0 
M3 S255
G1 X330.0 Y1125.0 
M3 S0
G0 X330.0 Y1730.0 
M3 S255
G1 X330.0 Y1730.0 
M3 S255
G1 X330.0 Y1750.0 
M3 S0
G0 X330.0 Y1870.0 
M3 S255
G1 X330.0 Y1870.0 
M3 S255
G1 X330.0 Y1885.0 
M3 S0
G0 X330.0 Y1965.0 
M3 S255
G1 X330.0 Y1965.0 
M3 S255
G1 X330.0 Y1985.0 
M3 S0
G0 X330.0 Y2045.0 
M3 S255
G1 X330.0 Y2045.0 
M3 S255
G1 X330.0 Y2060.0 
M3 S0
G0 X330.0 Y2125.0 
M3 S255
G1 X330.0 Y2125.0 
M3 S255
G1 X330.0 Y2135.0 
M3 S0
G0 X330.0 Y2700.0 
M3 S255
G1 X330.0 Y2700.0 
M3 S255
G1 X330.0 Y2720.0 
M3 S0
G0 X330.0 Y2780.0 
M3 S255
G1 X330.0 Y2780.0 
M3 S255
G1 X330.0 Y2785.0 
M3 S0
G0 X330.0 Y2890.0 
M3 S255
G1 X330.0 Y2890.0 
M3 S255
G1 X330.0 Y2895.0 
M3 S0
G0 X330.0 Y3015.0 
M3 S255
G1 X330.0 Y3015.0 
M3 S255
G1 X330.0 Y3105.0 
M3 S0
M5 S0
G0 X335.0 Y3110.0 
M3 S255
G1 X335.0 Y3110.0 
M3 S255
G1 X335.0 Y3035.0 
M3 S0
G0 X335.0 Y3030.0 
M3 S255
G1 X335.0 Y3030.0 
M3 S255
G1 X335.0 Y3015.0 
M3 S0
G0 X335.0 Y2990.0 
M3 S255
G1 X335.0 Y2990.0 
M3 S255
G1 X335.0 Y2975.0 
M3 S0
G0 X335.0 Y2785.0 
M3 S255
G1 X335.0 Y2785.0 
M3 S255
G1 X335.0 Y2780.0 
M3 S0
G0 X335.0 Y2720.0 
M3 S255
G1 X335.0 Y2720.0 
M3 S255
G1 X335.0 Y2695.0 
M3 S0
G0 X335.0 Y2135.0 
M3 S255
G1 X335.0 Y2135.0 
M3 S255
G1 X335.0 Y2125.0 
M3 S0
G0 X335.0 Y2060.0 
M3 S255
G1 X335.0 Y2060.0 
M3 S255
G1 X335.0 Y2045.0 
M3 S0
G0 X335.0 Y2010.0 
M3 S255
G1 X335.0 Y2010.0 
M3 S255
G1 X335.0 Y2005.0 
M3 S0
G0 X335.0 Y1985.0 
M3 S255
G1 X335.0 Y1985.0 
M3 S255
G1 X335.0 Y1965.0 
M3 S0
G0 X335.0 Y1885.0 
M3 S255
G1 X335.0 Y1885.0 
M3 S255
G1 X335.0 Y1870.0 
M3 S0
G0 X335.0 Y1750.0 
M3 S255
G1 X335.0 Y1750.0 
M3 S255
G1 X335.0 Y1730.0 
M3 S0
G0 X335.0 Y1125.0 
M3 S255
G1 X335.0 Y1125.0 
M3 S255
G1 X335.0 Y1110.0 
M3 S0
G0 X335.0 Y1015.0 
M3 S255
G1 X335.0 Y1015.0 
M3 S255
G1 X335.0 Y970.0 
M3 S0
G0 X335.0 Y920.0 
M3 S255
G1 X335.0 Y920.0 
M3 S255
G1 X335.0 Y880.0 
M3 S0
M5 S0
G0 X340.0 Y875.0 
M3 S255
G1 X340.0 Y875.0 
M3 S255
G1 X340.0 Y910.0 
M3 S0
G0 X340.0 Y965.0 
M3 S255
G1 X340.0 Y965.0 
M3 S255
G1 X340.0 Y1015.0 
M3 S0
G0 X340.0 Y1110.0 
M3 S255
G1 X340.0 Y1110.0 
M3 S255
G1 X340.0 Y1125.0 
M3 S0
G0 X340.0 Y1725.0 
M3 S255
G1 X340.0 Y1725.0 
M3 S255
G1 X340.0 Y1745.0 
M3 S0
G0 X340.0 Y1870.0 
M3 S255
G1 X340.0 Y1870.0 
M3 S255
G1 X340.0 Y1885.0 
M3 S0
G0 X340.0 Y1965.0 
M3 S255
G1 X340.0 Y1965.0 
M3 S255
G1 X340.0 Y1985.0 
M3 S0
G0 X340.0 Y2005.0 
M3 S255
G1 X340.0 Y2005.0 
M3 S255
G1 X340.0 Y2010.0 
M3 S0
G0 X340.0 Y2045.0 
M3 S255
G1 X340.0 Y2045.0 
M3 S255
G1 X340.0 Y2060.0 
M3 S0
G0 X340.0 Y2125.0 
M3 S255
G1 X340.0 Y2125.0 
M3 S255
G1 X340.0 Y2135.0 
M3 S0
G0 X340.0 Y2695.0 
M3 S255
G1 X340.0 Y2695.0 
M3 S255
G1 X340.0 Y2720.0 
M3 S0
G0 X340.0 Y2775.0 
M3 S255
G1 X340.0 Y2775.0 
M3 S255
G1 X340.0 Y2785.0 
M3 S0
G0 X340.0 Y2975.0 
M3 S255
G1 X340.0 Y2975.0 
M3 S255
G1 X340.0 Y2990.0 
M3 S0
G0 X340.0 Y3015.0 
M3 S255
G1 X340.0 Y3015.0 
M3 S255
G1 X340.0 Y3025.0 
M3 S0
G0 X340.0 Y3045.0 
M3 S255
G1 X340.0 Y3045.0 
M3 S255
G1 X340.0 Y3115.0 
M3 S0
M5 S0
G0 X345.0 Y3125.0 
M3 S255
G1 X345.0 Y3125.0 
M3 S255
G1 X345.0 Y3085.0 
M3 S0
G0 X345.0 Y3080.0 
M3 S255
G1 X345.0 Y3080.0 
M3 S255
G1 X345.0 Y3055.0 
M3 S0
G0 X345.0 Y2990.0 
M3 S255
G1 X345.0 Y2990.0 
M3 S255
G1 X345.0 Y2975.0 
M3 S0
G0 X345.0 Y2955.0 
M3 S255
G1 X345.0 Y2955.0 
M3 S255
G1 X345.0 Y2940.0 
M3 S0
G0 X345.0 Y2785.0 
M3 S255
G1 X345.0 Y2785.0 
M3 S255
G1 X345.0 Y2775.0 
M3 S0
G0 X345.0 Y2720.0 
M3 S255
G1 X345.0 Y2720.0 
M3 S255
G1 X345.0 Y2690.0 
M3 S0
G0 X345.0 Y2135.0 
M3 S255
G1 X345.0 Y2135.0 
M3 S255
G1 X345.0 Y2125.0 
M3 S0
G0 X345.0 Y2060.0 
M3 S255
G1 X345.0 Y2060.0 
M3 S255
G1 X345.0 Y2055.0 
M3 S0
G0 X345.0 Y2050.0 
M3 S255
G1 X345.0 Y2050.0 
M3 S255
G1 X345.0 Y2045.0 
M3 S0
G0 X345.0 Y2010.0 
M3 S255
G1 X345.0 Y2010.0 
M3 S255
G1 X345.0 Y2000.0 
M3 S0
G0 X345.0 Y1980.0 
M3 S255
G1 X345.0 Y1980.0 
M3 S255
G1 X345.0 Y1965.0 
M3 S0
G0 X345.0 Y1885.0 
M3 S255
G1 X345.0 Y1885.0 
M3 S255
G1 X345.0 Y1870.0 
M3 S0
G0 X345.0 Y1745.0 
M3 S255
G1 X345.0 Y1745.0 
M3 S255
G1 X345.0 Y1725.0 
M3 S0
G0 X345.0 Y1125.0 
M3 S255
G1 X345.0 Y1125.0 
M3 S255
G1 X345.0 Y1115.0 
M3 S0
G0 X345.0 Y1015.0 
M3 S255
G1 X345.0 Y1015.0 
M3 S255
G1 X345.0 Y950.0 
M3 S0
G0 X345.0 Y905.0 
M3 S255
G1 X345.0 Y905.0 
M3 S255
G1 X345.0 Y865.0 
M3 S0
M5 S0
G0 X350.0 Y860.0 
M3 S255
G1 X350.0 Y860.0 
M3 S255
G1 X350.0 Y895.0 
M3 S0
G0 X350.0 Y945.0 
M3 S255
G1 X350.0 Y945.0 
M3 S255
G1 X350.0 Y1005.0 
M3 S0
G0 X350.0 Y1010.0 
M3 S255
G1 X350.0 Y1010.0 
M3 S255
G1 X350.0 Y1015.0 
M3 S0
G0 X350.0 Y1115.0 
M3 S255
G1 X350.0 Y1115.0 
M3 S255
G1 X350.0 Y1130.0 
M3 S0
G0 X350.0 Y1725.0 
M3 S255
G1 X350.0 Y1725.0 
M3 S255
G1 X350.0 Y1745.0 
M3 S0
G0 X350.0 Y1870.0 
M3 S255
G1 X350.0 Y1870.0 
M3 S255
G1 X350.0 Y1885.0 
M3 S0
G0 X350.0 Y1965.0 
M3 S255
G1 X350.0 Y1965.0 
M3 S255
G1 X350.0 Y1975.0 
M3 S0
G0 X350.0 Y2000.0 
M3 S255
G1 X350.0 Y2000.0 
M3 S255
G1 X350.0 Y2010.0 
M3 S0
G0 X350.0 Y2055.0 
M3 S255
G1 X350.0 Y2055.0 
M3 S255
G1 X350.0 Y2060.0 
M3 S0
G0 X350.0 Y2125.0 
M3 S255
G1 X350.0 Y2125.0 
M3 S255
G1 X350.0 Y2135.0 
M3 S0
G0 X350.0 Y2685.0 
M3 S255
G1 X350.0 Y2685.0 
M3 S255
G1 X350.0 Y2720.0 
M3 S0
G0 X350.0 Y2770.0 
M3 S255
G1 X350.0 Y2770.0 
M3 S255
G1 X350.0 Y2785.0 
M3 S0
G0 X350.0 Y2955.0 
M3 S255
G1 X350.0 Y2955.0 
M3 S255
G1 X350.0 Y2990.0 
M3 S0
G0 X350.0 Y3060.0 
M3 S255
G1 X350.0 Y3060.0 
M3 S255
G1 X350.0 Y3085.0 
M3 S0
G0 X350.0 Y3095.0 
M3 S255
G1 X350.0 Y3095.0 
M3 S255
G1 X350.0 Y3130.0 
M3 S0
M5 S0
G0 X355.0 Y3140.0 
M3 S255
G1 X355.0 Y3140.0 
M3 S255
G1 X355.0 Y3100.0 
M3 S0
G0 X355.0 Y3095.0 
M3 S255
G1 X355.0 Y3095.0 
M3 S255
G1 X355.0 Y3090.0 
M3 S0
G0 X355.0 Y3085.0 
M3 S255
G1 X355.0 Y3085.0 
M3 S255
G1 X355.0 Y3060.0 
M3 S0
G0 X355.0 Y2990.0 
M3 S255
G1 X355.0 Y2990.0 
M3 S255
G1 X355.0 Y2975.0 
M3 S0
G0 X355.0 Y2785.0 
M3 S255
G1 X355.0 Y2785.0 
M3 S255
G1 X355.0 Y2765.0 
M3 S0
G0 X355.0 Y2715.0 
M3 S255
G1 X355.0 Y2715.0 
M3 S255
G1 X355.0 Y2685.0 
M3 S0
G0 X355.0 Y2135.0 
M3 S255
G1 X355.0 Y2135.0 
M3 S255
G1 X355.0 Y2125.0 
M3 S0
G0 X355.0 Y2060.0 
M3 S255
G1 X355.0 Y2060.0 
M3 S255
G1 X355.0 Y2055.0 
M3 S0
G0 X355.0 Y2010.0 
M3 S255
G1 X355.0 Y2010.0 
M3 S255
G1 X355.0 Y2000.0 
M3 S0
G0 X355.0 Y1980.0 
M3 S255
G1 X355.0 Y1980.0 
M3 S255
G1 X355.0 Y1965.0 
M3 S0
G0 X355.0 Y1885.0 
M3 S255
G1 X355.0 Y1885.0 
M3 S255
G1 X355.0 Y1870.0 
M3 S0
G0 X355.0 Y1745.0 
M3 S255
G1 X355.0 Y1745.0 
M3 S255
G1 X355.0 Y1725.0 
M3 S0
G0 X355.0 Y1130.0 
M3 S255
G1 X355.0 Y1130.0 
M3 S255
G1 X355.0 Y1115.0 
M3 S0
G0 X355.0 Y1000.0 
M3 S255
G1 X355.0 Y1000.0 
M3 S255
G1 X355.0 Y930.0 
M3 S0
G0 X355.0 Y890.0 
M3 S255
G1 X355.0 Y890.0 
M3 S255
G1 X355.0 Y850.0 
M3 S0
M5 S0
G0 X360.0 Y845.0 
M3 S255
G1 X360.0 Y845.0 
M3 S255
G1 X360.0 Y885.0 
M3 S0
G0 X360.0 Y925.0 
M3 S255
G1 X360.0 Y925.0 
M3 S255
G1 X360.0 Y990.0 
M3 S0
G0 X360.0 Y1115.0 
M3 S255
G1 X360.0 Y1115.0 
M3 S255
G1 X360.0 Y1130.0 
M3 S0
G0 X360.0 Y1725.0 
M3 S255
G1 X360.0 Y1725.0 
M3 S255
G1 X360.0 Y1745.0 
M3 S0
G0 X360.0 Y1865.0 
M3 S255
G1 X360.0 Y1865.0 
M3 S255
G1 X360.0 Y1885.0 
M3 S0
G0 X360.0 Y1965.0 
M3 S255
G1 X360.0 Y1965.0 
M3 S255
G1 X360.0 Y1980.0 
M3 S0
G0 X360.0 Y1995.0 
M3 S255
G1 X360.0 Y1995.0 
M3 S255
G1 X360.0 Y2010.0 
M3 S0
G0 X360.0 Y2055.0 
M3 S255
G1 X360.0 Y2055.0 
M3 S255
G1 X360.0 Y2065.0 
M3 S0
G0 X360.0 Y2125.0 
M3 S255
G1 X360.0 Y2125.0 
M3 S255
G1 X360.0 Y2135.0 
M3 S0
G0 X360.0 Y2685.0 
M3 S255
G1 X360.0 Y2685.0 
M3 S255
G1 X360.0 Y2715.0 
M3 S0
G0 X360.0 Y2765.0 
M3 S255
G1 X360.0 Y2765.0 
M3 S255
G1 X360.0 Y2780.0 
M3 S0
G0 X360.0 Y2795.0 
M3 S255
G1 X360.0 Y2795.0 
M3 S255
G1 X360.0 Y2815.0 
M3 S0
G0 X360.0 Y3055.0 
M3 S255
G1 X360.0 Y3055.0 
M3 S255
G1 X360.0 Y3095.0 
M3 S0
G0 X360.0 Y3105.0 
M3 S255
G1 X360.0 Y3105.0 
M3 S255
G1 X360.0 Y3145.0 
M3 S0
M5 S0
G0 X365.0 Y3155.0 
M3 S255
G1 X365.0 Y3155.0 
M3 S255
G1 X365.0 Y3115.0 
M3 S0
G0 X365.0 Y3105.0 
M3 S255
G1 X365.0 Y3105.0 
M3 S255
G1 X365.0 Y3025.0 
M3 S0
G0 X365.0 Y2925.0 
M3 S255
G1 X365.0 Y2925.0 
M3 S255
G1 X365.0 Y2895.0 
M3 S0
G0 X365.0 Y2815.0 
M3 S255
G1 X365.0 Y2815.0 
M3 S255
G1 X365.0 Y2785.0 
M3 S0
G0 X365.0 Y2710.0 
M3 S255
G1 X365.0 Y2710.0 
M3 S255
G1 X365.0 Y2680.0 
M3 S0
G0 X365.0 Y2135.0 
M3 S255
G1 X365.0 Y2135.0 
M3 S255
G1 X365.0 Y2125.0 
M3 S0
G0 X365.0 Y2065.0 
M3 S255
G1 X365.0 Y2065.0 
M3 S255
G1 X365.0 Y2055.0 
M3 S0
G0 X365.0 Y2005.0 
M3 S255
G1 X365.0 Y2005.0 
M3 S255
G1 X365.0 Y1995.0 
M3 S0
G0 X365.0 Y1980.0 
M3 S255
G1 X365.0 Y1980.0 
M3 S255
G1 X365.0 Y1965.0 
M3 S0
G0 X365.0 Y1885.0 
M3 S255
G1 X365.0 Y1885.0 
M3 S255
G1 X365.0 Y1865.0 
M3 S0
G0 X365.0 Y1760.0 
M3 S255
G1 X365.0 Y1760.0 
M3 S255
G1 X365.0 Y1750.0 
M3 S0
G0 X365.0 Y1740.0 
M3 S255
G1 X365.0 Y1740.0 
M3 S255
G1 X365.0 Y1720.0 
M3 S0
G0 X365.0 Y1130.0 
M3 S255
G1 X365.0 Y1130.0 
M3 S255
G1 X365.0 Y1115.0 
M3 S0
G0 X365.0 Y1100.0 
M3 S255
G1 X365.0 Y1100.0 
M3 S255
G1 X365.0 Y1085.0 
M3 S0
G0 X365.0 Y965.0 
M3 S255
G1 X365.0 Y965.0 
M3 S255
G1 X365.0 Y910.0 
M3 S0
G0 X365.0 Y870.0 
M3 S255
G1 X365.0 Y870.0 
M3 S255
G1 X365.0 Y835.0 
M3 S0
M5 S0
G0 X370.0 Y830.0 
M3 S255
G1 X370.0 Y830.0 
M3 S255
G1 X370.0 Y865.0 
M3 S0
G0 X370.0 Y905.0 
M3 S255
G1 X370.0 Y905.0 
M3 S255
G1 X370.0 Y945.0 
M3 S0
G0 X370.0 Y1085.0 
M3 S255
G1 X370.0 Y1085.0 
M3 S255
G1 X370.0 Y1100.0 
M3 S0
G0 X370.0 Y1115.0 
M3 S255
G1 X370.0 Y1115.0 
M3 S255
G1 X370.0 Y1135.0 
M3 S0
G0 X370.0 Y1720.0 
M3 S255
G1 X370.0 Y1720.0 
M3 S255
G1 X370.0 Y1740.0 
M3 S0
G0 X370.0 Y1750.0 
M3 S255
G1 X370.0 Y1750.0 
M3 S255
G1 X370.0 Y1760.0 
M3 S0
G0 X370.0 Y1865.0 
M3 S255
G1 X370.0 Y1865.0 
M3 S255
G1 X370.0 Y1885.0 
M3 S0
G0 X370.0 Y1965.0 
M3 S255
G1 X370.0 Y1965.0 
M3 S255
G1 X370.0 Y1980.0 
M3 S0
G0 X370.0 Y1995.0 
M3 S255
G1 X370.0 Y1995.0 
M3 S255
G1 X370.0 Y2005.0 
M3 S0
G0 X370.0 Y2055.0 
M3 S255
G1 X370.0 Y2055.0 
M3 S255
G1 X370.0 Y2065.0 
M3 S0
G0 X370.0 Y2125.0 
M3 S255
G1 X370.0 Y2125.0 
M3 S255
G1 X370.0 Y2135.0 
M3 S0
G0 X370.0 Y2680.0 
M3 S255
G1 X370.0 Y2680.0 
M3 S255
G1 X370.0 Y2710.0 
M3 S0
G0 X370.0 Y2785.0 
M3 S255
G1 X370.0 Y2785.0 
M3 S255
G1 X370.0 Y2815.0 
M3 S0
G0 X370.0 Y2855.0 
M3 S255
G1 X370.0 Y2855.0 
M3 S255
G1 X370.0 Y2945.0 
M3 S0
G0 X370.0 Y3030.0 
M3 S255
G1 X370.0 Y3030.0 
M3 S255
G1 X370.0 Y3110.0 
M3 S0
G0 X370.0 Y3125.0 
M3 S255
G1 X370.0 Y3125.0 
M3 S255
G1 X370.0 Y3160.0 
M3 S0
M5 S0
G0 X375.0 Y3165.0 
M3 S255
G1 X375.0 Y3165.0 
M3 S255
G1 X375.0 Y3125.0 
M3 S0
G0 X375.0 Y3110.0 
M3 S255
G1 X375.0 Y3110.0 
M3 S255
G1 X375.0 Y3040.0 
M3 S0
G0 X375.0 Y2985.0 
M3 S255
G1 X375.0 Y2985.0 
M3 S255
G1 X375.0 Y2830.0 
M3 S0
G0 X375.0 Y2815.0 
M3 S255
G1 X375.0 Y2815.0 
M3 S255
G1 X375.0 Y2800.0 
M3 S0
G0 X375.0 Y2795.0 
M3 S255
G1 X375.0 Y2795.0 
M3 S255
G1 X375.0 Y2790.0 
M3 S0
G0 X375.0 Y2710.0 
M3 S255
G1 X375.0 Y2710.0 
M3 S255
G1 X375.0 Y2695.0 
M3 S0
G0 X375.0 Y2690.0 
M3 S255
G1 X375.0 Y2690.0 
M3 S255
G1 X375.0 Y2675.0 
M3 S0
G0 X375.0 Y2135.0 
M3 S255
G1 X375.0 Y2135.0 
M3 S255
G1 X375.0 Y2125.0 
M3 S0
G0 X375.0 Y2065.0 
M3 S255
G1 X375.0 Y2065.0 
M3 S255
G1 X375.0 Y2055.0 
M3 S0
G0 X375.0 Y2005.0 
M3 S255
G1 X375.0 Y2005.0 
M3 S255
G1 X375.0 Y1990.0 
M3 S0
G0 X375.0 Y1980.0 
M3 S255
G1 X375.0 Y1980.0 
M3 S255
G1 X375.0 Y1965.0 
M3 S0
G0 X375.0 Y1885.0 
M3 S255
G1 X375.0 Y1885.0 
M3 S255
G1 X375.0 Y1865.0 
M3 S0
G0 X375.0 Y1760.0 
M3 S255
G1 X375.0 Y1760.0 
M3 S255
G1 X375.0 Y1750.0 
M3 S0
G0 X375.0 Y1735.0 
M3 S255
G1 X375.0 Y1735.0 
M3 S255
G1 X375.0 Y1720.0 
M3 S0
G0 X375.0 Y1135.0 
M3 S255
G1 X375.0 Y1135.0 
M3 S255
G1 X375.0 Y1115.0 
M3 S0
G0 X375.0 Y1095.0 
M3 S255
G1 X375.0 Y1095.0 
M3 S255
G1 X375.0 Y1080.0 
M3 S0
G0 X375.0 Y935.0 
M3 S255
G1 X375.0 Y935.0 
M3 S255
G1 X375.0 Y895.0 
M3 S0
G0 X375.0 Y860.0 
M3 S255
G1 X375.0 Y860.0 
M3 S255
G1 X375.0 Y825.0 
M3 S0
M5 S0
G0 X380.0 Y815.0 
M3 S255
G1 X380.0 Y815.0 
M3 S255
G1 X380.0 Y850.0 
M3 S0
G0 X380.0 Y875.0 
M3 S255
G1 X380.0 Y875.0 
M3 S255
G1 X380.0 Y910.0 
M3 S0
G0 X380.0 Y1055.0 
M3 S255
G1 X380.0 Y1055.0 
M3 S255
G1 X380.0 Y1065.0 
M3 S0
G0 X380.0 Y1080.0 
M3 S255
G1 X380.0 Y1080.0 
M3 S255
G1 X380.0 Y1105.0 
M3 S0
G0 X380.0 Y1115.0 
M3 S255
G1 X380.0 Y1115.0 
M3 S255
G1 X380.0 Y1135.0 
M3 S0
G0 X380.0 Y1715.0 
M3 S255
G1 X380.0 Y1715.0 
M3 S255
G1 X380.0 Y1735.0 
M3 S0
G0 X380.0 Y1745.0 
M3 S255
G1 X380.0 Y1745.0 
M3 S255
G1 X380.0 Y1755.0 
M3 S0
G0 X380.0 Y1865.0 
M3 S255
G1 X380.0 Y1865.0 
M3 S255
G1 X380.0 Y1885.0 
M3 S0
G0 X380.0 Y1960.0 
M3 S255
G1 X380.0 Y1960.0 
M3 S255
G1 X380.0 Y1980.0 
M3 S0
G0 X380.0 Y1990.0 
M3 S255
G1 X380.0 Y1990.0 
M3 S255
G1 X380.0 Y2005.0 
M3 S0
G0 X380.0 Y2055.0 
M3 S255
G1 X380.0 Y2055.0 
M3 S255
G1 X380.0 Y2070.0 
M3 S0
G0 X380.0 Y2125.0 
M3 S255
G1 X380.0 Y2125.0 
M3 S255
G1 X380.0 Y2135.0 
M3 S0
G0 X380.0 Y2670.0 
M3 S255
G1 X380.0 Y2670.0 
M3 S255
G1 X380.0 Y2685.0 
M3 S0
G0 X380.0 Y2695.0 
M3 S255
G1 X380.0 Y2695.0 
M3 S255
G1 X380.0 Y2705.0 
M3 S0
G0 X380.0 Y2800.0 
M3 S255
G1 X380.0 Y2800.0 
M3 S255
G1 X380.0 Y2810.0 
M3 S0
G0 X380.0 Y2825.0 
M3 S255
G1 X380.0 Y2825.0 
M3 S255
G1 X380.0 Y2855.0 
M3 S0
G0 X380.0 Y2900.0 
M3 S255
G1 X380.0 Y2900.0 
M3 S255
G1 X380.0 Y2990.0 
M3 S0
G0 X380.0 Y3045.0 
M3 S255
G1 X380.0 Y3045.0 
M3 S255
G1 X380.0 Y3080.0 
M3 S0
G0 X380.0 Y3110.0 
M3 S255
G1 X380.0 Y3110.0 
M3 S255
G1 X380.0 Y3120.0 
M3 S0
G0 X380.0 Y3140.0 
M3 S255
G1 X380.0 Y3140.0 
M3 S255
G1 X380.0 Y3175.0 
M3 S0
M5 S0
G0 X385.0 Y3180.0 
M3 S255
G1 X385.0 Y3180.0 
M3 S255
G1 X385.0 Y3145.0 
M3 S0
G0 X385.0 Y3125.0 
M3 S255
G1 X385.0 Y3125.0 
M3 S255
G1 X385.0 Y3110.0 
M3 S0
G0 X385.0 Y3085.0 
M3 S255
G1 X385.0 Y3085.0 
M3 S255
G1 X385.0 Y3055.0 
M3 S0
G0 X385.0 Y3015.0 
M3 S255
G1 X385.0 Y3015.0 
M3 S255
G1 X385.0 Y2945.0 
M3 S0
G0 X385.0 Y2845.0 
M3 S255
G1 X385.0 Y2845.0 
M3 S255
G1 X385.0 Y2820.0 
M3 S0
G0 X385.0 Y2805.0 
M3 S255
G1 X385.0 Y2805.0 
M3 S255
G1 X385.0 Y2800.0 
M3 S0
G0 X385.0 Y2705.0 
M3 S255
G1 X385.0 Y2705.0 
M3 S255
G1 X385.0 Y2695.0 
M3 S0
G0 X385.0 Y2685.0 
M3 S255
G1 X385.0 Y2685.0 
M3 S255
G1 X385.0 Y2670.0 
M3 S0
G0 X385.0 Y2135.0 
M3 S255
G1 X385.0 Y2135.0 
M3 S255
G1 X385.0 Y2120.0 
M3 S0
G0 X385.0 Y2070.0 
M3 S255
G1 X385.0 Y2070.0 
M3 S255
G1 X385.0 Y2055.0 
M3 S0
G0 X385.0 Y2005.0 
M3 S255
G1 X385.0 Y2005.0 
M3 S255
G1 X385.0 Y1990.0 
M3 S0
G0 X385.0 Y1975.0 
M3 S255
G1 X385.0 Y1975.0 
M3 S255
G1 X385.0 Y1960.0 
M3 S0
G0 X385.0 Y1885.0 
M3 S255
G1 X385.0 Y1885.0 
M3 S255
G1 X385.0 Y1865.0 
M3 S0
G0 X385.0 Y1755.0 
M3 S255
G1 X385.0 Y1755.0 
M3 S255
G1 X385.0 Y1745.0 
M3 S0
G0 X385.0 Y1730.0 
M3 S255
G1 X385.0 Y1730.0 
M3 S255
G1 X385.0 Y1715.0 
M3 S0
G0 X385.0 Y1135.0 
M3 S255
G1 X385.0 Y1135.0 
M3 S255
G1 X385.0 Y1120.0 
M3 S0
G0 X385.0 Y1105.0 
M3 S255
G1 X385.0 Y1105.0 
M3 S255
G1 X385.0 Y1085.0 
M3 S0
G0 X385.0 Y1065.0 
M3 S255
G1 X385.0 Y1065.0 
M3 S255
G1 X385.0 Y1055.0 
M3 S0
G0 X385.0 Y910.0 
M3 S255
G1 X385.0 Y910.0 
M3 S255
G1 X385.0 Y865.0 
M3 S0
G0 X385.0 Y845.0 
M3 S255
G1 X385.0 Y845.0 
M3 S255
G1 X385.0 Y810.0 
M3 S0
M5 S0
G0 X390.0 Y805.0 
M3 S255
G1 X390.0 Y805.0 
M3 S255
G1 X390.0 Y840.0 
M3 S0
G0 X390.0 Y860.0 
M3 S255
G1 X390.0 Y860.0 
M3 S255
G1 X390.0 Y910.0 
M3 S0
G0 X390.0 Y1055.0 
M3 S255
G1 X390.0 Y1055.0 
M3 S255
G1 X390.0 Y1065.0 
M3 S0
G0 X390.0 Y1085.0 
M3 S255
G1 X390.0 Y1085.0 
M3 S255
G1 X390.0 Y1110.0 
M3 S0
G0 X390.0 Y1115.0 
M3 S255
G1 X390.0 Y1115.0 
M3 S255
G1 X390.0 Y1135.0 
M3 S0
G0 X390.0 Y1710.0 
M3 S255
G1 X390.0 Y1710.0 
M3 S255
G1 X390.0 Y1730.0 
M3 S0
G0 X390.0 Y1745.0 
M3 S255
G1 X390.0 Y1745.0 
M3 S255
G1 X390.0 Y1755.0 
M3 S0
G0 X390.0 Y1865.0 
M3 S255
G1 X390.0 Y1865.0 
M3 S255
G1 X390.0 Y1885.0 
M3 S0
G0 X390.0 Y1960.0 
M3 S255
G1 X390.0 Y1960.0 
M3 S255
G1 X390.0 Y1975.0 
M3 S0
G0 X390.0 Y1990.0 
M3 S255
G1 X390.0 Y1990.0 
M3 S255
G1 X390.0 Y2000.0 
M3 S0
G0 X390.0 Y2055.0 
M3 S255
G1 X390.0 Y2055.0 
M3 S255
G1 X390.0 Y2070.0 
M3 S0
G0 X390.0 Y2120.0 
M3 S255
G1 X390.0 Y2120.0 
M3 S255
G1 X390.0 Y2135.0 
M3 S0
G0 X390.0 Y2665.0 
M3 S255
G1 X390.0 Y2665.0 
M3 S255
G1 X390.0 Y2685.0 
M3 S0
G0 X390.0 Y2690.0 
M3 S255
G1 X390.0 Y2690.0 
M3 S255
G1 X390.0 Y2705.0 
M3 S0
G0 X390.0 Y2815.0 
M3 S255
G1 X390.0 Y2815.0 
M3 S255
G1 X390.0 Y2845.0 
M3 S0
G0 X390.0 Y2965.0 
M3 S255
G1 X390.0 Y2965.0 
M3 S255
G1 X390.0 Y3030.0 
M3 S0
G0 X390.0 Y3060.0 
M3 S255
G1 X390.0 Y3060.0 
M3 S255
G1 X390.0 Y3125.0 
M3 S0
G0 X390.0 Y3150.0 
M3 S255
G1 X390.0 Y3150.0 
M3 S255
G1 X390.0 Y3185.0 
M3 S0
M5 S0
G0 X395.0 Y3195.0 
M3 S255
G1 X395.0 Y3195.0 
M3 S255
G1 X395.0 Y3160.0 
M3 S0
G0 X395.0 Y3135.0 
M3 S255
G1 X395.0 Y3135.0 
M3 S255
G1 X395.0 Y3125.0 
M3 S0
G0 X395.0 Y3110.0 
M3 S255
G1 X395.0 Y3110.0 
M3 S255
G1 X395.0 Y2995.0 
M3 S0
G0 X395.0 Y2830.0 
M3 S255
G1 X395.0 Y2830.0 
M3 S255
G1 X395.0 Y2815.0 
M3 S0
G0 X395.0 Y2705.0 
M3 S255
G1 X395.0 Y2705.0 
M3 S255
G1 X395.0 Y2690.0 
M3 S0
G0 X395.0 Y2680.0 
M3 S255
G1 X395.0 Y2680.0 
M3 S255
G1 X395.0 Y2655.0 
M3 S0
G0 X395.0 Y2135.0 
M3 S255
G1 X395.0 Y2135.0 
M3 S255
G1 X395.0 Y2120.0 
M3 S0
G0 X395.0 Y2070.0 
M3 S255
G1 X395.0 Y2070.0 
M3 S255
G1 X395.0 Y2060.0 
M3 S0
G0 X395.0 Y2000.0 
M3 S255
G1 X395.0 Y2000.0 
M3 S255
G1 X395.0 Y1990.0 
M3 S0
G0 X395.0 Y1975.0 
M3 S255
G1 X395.0 Y1975.0 
M3 S255
G1 X395.0 Y1960.0 
M3 S0
G0 X395.0 Y1885.0 
M3 S255
G1 X395.0 Y1885.0 
M3 S255
G1 X395.0 Y1855.0 
M3 S0
G0 X395.0 Y1750.0 
M3 S255
G1 X395.0 Y1750.0 
M3 S255
G1 X395.0 Y1740.0 
M3 S0
G0 X395.0 Y1725.0 
M3 S255
G1 X395.0 Y1725.0 
M3 S255
G1 X395.0 Y1710.0 
M3 S0
G0 X395.0 Y1140.0 
M3 S255
G1 X395.0 Y1140.0 
M3 S255
G1 X395.0 Y1095.0 
M3 S0
G0 X395.0 Y1065.0 
M3 S255
G1 X395.0 Y1065.0 
M3 S255
G1 X395.0 Y1060.0 
M3 S0
G0 X395.0 Y880.0 
M3 S255
G1 X395.0 Y880.0 
M3 S255
G1 X395.0 Y845.0 
M3 S0
G0 X395.0 Y830.0 
M3 S255
G1 X395.0 Y830.0 
M3 S255
G1 X395.0 Y795.0 
M3 S0
M5 S0
G0 X400.0 Y790.0 
M3 S255
G1 X400.0 Y790.0 
M3 S255
G1 X400.0 Y825.0 
M3 S0
G0 X400.0 Y835.0 
M3 S255
G1 X400.0 Y835.0 
M3 S255
G1 X400.0 Y875.0 
M3 S0
G0 X400.0 Y1095.0 
M3 S255
G1 X400.0 Y1095.0 
M3 S255
G1 X400.0 Y1140.0 
M3 S0
G0 X400.0 Y1710.0 
M3 S255
G1 X400.0 Y1710.0 
M3 S255
G1 X400.0 Y1725.0 
M3 S0
G0 X400.0 Y1740.0 
M3 S255
G1 X400.0 Y1740.0 
M3 S255
G1 X400.0 Y1750.0 
M3 S0
G0 X400.0 Y1855.0 
M3 S255
G1 X400.0 Y1855.0 
M3 S255
G1 X400.0 Y1885.0 
M3 S0
G0 X400.0 Y1960.0 
M3 S255
G1 X400.0 Y1960.0 
M3 S255
G1 X400.0 Y1975.0 
M3 S0
G0 X400.0 Y1990.0 
M3 S255
G1 X400.0 Y1990.0 
M3 S255
G1 X400.0 Y2000.0 
M3 S0
G0 X400.0 Y2060.0 
M3 S255
G1 X400.0 Y2060.0 
M3 S255
G1 X400.0 Y2070.0 
M3 S0
G0 X400.0 Y2120.0 
M3 S255
G1 X400.0 Y2120.0 
M3 S255
G1 X400.0 Y2135.0 
M3 S0
G0 X400.0 Y2655.0 
M3 S255
G1 X400.0 Y2655.0 
M3 S255
G1 X400.0 Y2675.0 
M3 S0
G0 X400.0 Y2690.0 
M3 S255
G1 X400.0 Y2690.0 
M3 S255
G1 X400.0 Y2705.0 
M3 S0
G0 X400.0 Y2765.0 
M3 S255
G1 X400.0 Y2765.0 
M3 S255
G1 X400.0 Y2770.0 
M3 S0
G0 X400.0 Y2810.0 
M3 S255
G1 X400.0 Y2810.0 
M3 S255
G1 X400.0 Y2830.0 
M3 S0
G0 X400.0 Y3015.0 
M3 S255
G1 X400.0 Y3015.0 
M3 S255
G1 X400.0 Y3070.0 
M3 S0
G0 X400.0 Y3130.0 
M3 S255
G1 X400.0 Y3130.0 
M3 S255
G1 X400.0 Y3140.0 
M3 S0
G0 X400.0 Y3165.0 
M3 S255
G1 X400.0 Y3165.0 
M3 S255
G1 X400.0 Y3200.0 
M3 S0
M5 S0
G0 X405.0 Y3205.0 
M3 S255
G1 X405.0 Y3205.0 
M3 S255
G1 X405.0 Y3170.0 
M3 S0
G0 X405.0 Y3145.0 
M3 S255
G1 X405.0 Y3145.0 
M3 S255
G1 X405.0 Y3135.0 
M3 S0
G0 X405.0 Y3080.0 
M3 S255
G1 X405.0 Y3080.0 
M3 S255
G1 X405.0 Y3030.0 
M3 S0
G0 X405.0 Y2825.0 
M3 S255
G1 X405.0 Y2825.0 
M3 S255
G1 X405.0 Y2805.0 
M3 S0
G0 X405.0 Y2705.0 
M3 S255
G1 X405.0 Y2705.0 
M3 S255
G1 X405.0 Y2690.0 
M3 S0
G0 X405.0 Y2670.0 
M3 S255
G1 X405.0 Y2670.0 
M3 S255
G1 X405.0 Y2655.0 
M3 S0
G0 X405.0 Y2135.0 
M3 S255
G1 X405.0 Y2135.0 
M3 S255
G1 X405.0 Y2120.0 
M3 S0
G0 X405.0 Y2070.0 
M3 S255
G1 X405.0 Y2070.0 
M3 S255
G1 X405.0 Y2060.0 
M3 S0
G0 X405.0 Y2000.0 
M3 S255
G1 X405.0 Y2000.0 
M3 S255
G1 X405.0 Y1990.0 
M3 S0
G0 X405.0 Y1975.0 
M3 S255
G1 X405.0 Y1975.0 
M3 S255
G1 X405.0 Y1960.0 
M3 S0
G0 X405.0 Y1885.0 
M3 S255
G1 X405.0 Y1885.0 
M3 S255
G1 X405.0 Y1855.0 
M3 S0
G0 X405.0 Y1750.0 
M3 S255
G1 X405.0 Y1750.0 
M3 S255
G1 X405.0 Y1740.0 
M3 S0
G0 X405.0 Y1725.0 
M3 S255
G1 X405.0 Y1725.0 
M3 S255
G1 X405.0 Y1710.0 
M3 S0
G0 X405.0 Y1140.0 
M3 S255
G1 X405.0 Y1140.0 
M3 S255
G1 X405.0 Y1100.0 
M3 S0
G0 X405.0 Y870.0 
M3 S255
G1 X405.0 Y870.0 
M3 S255
G1 X405.0 Y865.0 
M3 S0
G0 X405.0 Y855.0 
M3 S255
G1 X405.0 Y855.0 
M3 S255
G1 X405.0 Y830.0 
M3 S0
G0 X405.0 Y820.0 
M3 S255
G1 X405.0 Y820.0 
M3 S255
G1 X405.0 Y785.0 
M3 S0
M5 S0
G0 X410.0 Y775.0 
M3 S255
G1 X410.0 Y775.0 
M3 S255
G1 X410.0 Y810.0 
M3 S0
G0 X410.0 Y815.0 
M3 S255
G1 X410.0 Y815.0 
M3 S255
G1 X410.0 Y845.0 
M3 S0
G0 X410.0 Y1110.0 
M3 S255
G1 X410.0 Y1110.0 
M3 S255
G1 X410.0 Y1140.0 
M3 S0
G0 X410.0 Y1710.0 
M3 S255
G1 X410.0 Y1710.0 
M3 S255
G1 X410.0 Y1725.0 
M3 S0
G0 X410.0 Y1735.0 
M3 S255
G1 X410.0 Y1735.0 
M3 S255
G1 X410.0 Y1745.0 
M3 S0
G0 X410.0 Y1855.0 
M3 S255
G1 X410.0 Y1855.0 
M3 S255
G1 X410.0 Y1885.0 
M3 S0
G0 X410.0 Y1960.0 
M3 S255
G1 X410.0 Y1960.0 
M3 S255
G1 X410.0 Y1980.0 
M3 S0
G0 X410.0 Y1990.0 
M3 S255
G1 X410.0 Y1990.0 
M3 S255
G1 X410.0 Y2000.0 
M3 S0
G0 X410.0 Y2060.0 
M3 S255
G1 X410.0 Y2060.0 
M3 S255
G1 X410.0 Y2070.0 
M3 S0
G0 X410.0 Y2120.0 
M3 S255
G1 X410.0 Y2120.0 
M3 S255
G1 X410.0 Y2135.0 
M3 S0
G0 X410.0 Y2645.0 
M3 S255
G1 X410.0 Y2645.0 
M3 S255
G1 X410.0 Y2670.0 
M3 S0
G0 X410.0 Y2685.0 
M3 S255
G1 X410.0 Y2685.0 
M3 S255
G1 X410.0 Y2700.0 
M3 S0
G0 X410.0 Y2800.0 
M3 S255
G1 X410.0 Y2800.0 
M3 S255
G1 X410.0 Y2820.0 
M3 S0
G0 X410.0 Y3060.0 
M3 S255
G1 X410.0 Y3060.0 
M3 S255
G1 X410.0 Y3090.0 
M3 S0
G0 X410.0 Y3115.0 
M3 S255
G1 X410.0 Y3115.0 
M3 S255
G1 X410.0 Y3125.0 
M3 S0
G0 X410.0 Y3135.0 
M3 S255
G1 X410.0 Y3135.0 
M3 S255
G1 X410.0 Y3145.0 
M3 S0
G0 X410.0 Y3180.0 
M3 S255
G1 X410.0 Y3180.0 
M3 S255
G1 X410.0 Y3215.0 
M3 S0
M5 S0
G0 X415.0 Y3220.0 
M3 S255
G1 X415.0 Y3220.0 
M3 S255
G1 X415.0 Y3185.0 
M3 S0
G0 X415.0 Y3145.0 
M3 S255
G1 X415.0 Y3145.0 
M3 S255
G1 X415.0 Y3070.0 
M3 S0
G0 X415.0 Y2815.0 
M3 S255
G1 X415.0 Y2815.0 
M3 S255
G1 X415.0 Y2800.0 
M3 S0
G0 X415.0 Y2700.0 
M3 S255
G1 X415.0 Y2700.0 
M3 S255
G1 X415.0 Y2685.0 
M3 S0
G0 X415.0 Y2665.0 
M3 S255
G1 X415.0 Y2665.0 
M3 S255
G1 X415.0 Y2640.0 
M3 S0
G0 X415.0 Y2135.0 
M3 S255
G1 X415.0 Y2135.0 
M3 S255
G1 X415.0 Y2120.0 
M3 S0
G0 X415.0 Y2070.0 
M3 S255
G1 X415.0 Y2070.0 
M3 S255
G1 X415.0 Y2065.0 
M3 S0
G0 X415.0 Y2000.0 
M3 S255
G1 X415.0 Y2000.0 
M3 S255
G1 X415.0 Y1990.0 
M3 S0
G0 X415.0 Y1980.0 
M3 S255
G1 X415.0 Y1980.0 
M3 S255
G1 X415.0 Y1960.0 
M3 S0
G0 X415.0 Y1885.0 
M3 S255
G1 X415.0 Y1885.0 
M3 S255
G1 X415.0 Y1855.0 
M3 S0
G0 X415.0 Y1745.0 
M3 S255
G1 X415.0 Y1745.0 
M3 S255
G1 X415.0 Y1735.0 
M3 S0
G0 X415.0 Y1725.0 
M3 S255
G1 X415.0 Y1725.0 
M3 S255
G1 X415.0 Y1710.0 
M3 S0
G0 X415.0 Y1145.0 
M3 S255
G1 X415.0 Y1145.0 
M3 S255
G1 X415.0 Y1115.0 
M3 S0
G0 X415.0 Y840.0 
M3 S255
G1 X415.0 Y840.0 
M3 S255
G1 X415.0 Y810.0 
M3 S0
G0 X415.0 Y800.0 
M3 S255
G1 X415.0 Y800.0 
M3 S255
G1 X415.0 Y765.0 
M3 S0
M5 S0
G0 X420.0 Y765.0 
M3 S255
G1 X420.0 Y765.0 
M3 S255
G1 X420.0 Y835.0 
M3 S0
G0 X420.0 Y1060.0 
M3 S255
G1 X420.0 Y1060.0 
M3 S255
G1 X420.0 Y1065.0 
M3 S0
G0 X420.0 Y1115.0 
M3 S255
G1 X420.0 Y1115.0 
M3 S255
G1 X420.0 Y1145.0 
M3 S0
G0 X420.0 Y1705.0 
M3 S255
G1 X420.0 Y1705.0 
M3 S255
G1 X420.0 Y1725.0 
M3 S0
G0 X420.0 Y1735.0 
M3 S255
G1 X420.0 Y1735.0 
M3 S255
G1 X420.0 Y1745.0 
M3 S0
G0 X420.0 Y1855.0 
M3 S255
G1 X420.0 Y1855.0 
M3 S255
G1 X420.0 Y1885.0 
M3 S0
G0 X420.0 Y1960.0 
M3 S255
G1 X420.0 Y1960.0 
M3 S255
G1 X420.0 Y1980.0 
M3 S0
G0 X420.0 Y1990.0 
M3 S255
G1 X420.0 Y1990.0 
M3 S255
G1 X420.0 Y2000.0 
M3 S0
G0 X420.0 Y2065.0 
M3 S255
G1 X420.0 Y2065.0 
M3 S255
G1 X420.0 Y2070.0 
M3 S0
G0 X420.0 Y2120.0 
M3 S255
G1 X420.0 Y2120.0 
M3 S255
G1 X420.0 Y2135.0 
M3 S0
G0 X420.0 Y2640.0 
M3 S255
G1 X420.0 Y2640.0 
M3 S255
G1 X420.0 Y2660.0 
M3 S0
G0 X420.0 Y2685.0 
M3 S255
G1 X420.0 Y2685.0 
M3 S255
G1 X420.0 Y2700.0 
M3 S0
G0 X420.0 Y2795.0 
M3 S255
G1 X420.0 Y2795.0 
M3 S255
G1 X420.0 Y2815.0 
M3 S0
G0 X420.0 Y3080.0 
M3 S255
G1 X420.0 Y3080.0 
M3 S255
G1 X420.0 Y3145.0 
M3 S0
G0 X420.0 Y3190.0 
M3 S255
G1 X420.0 Y3190.0 
M3 S255
G1 X420.0 Y3225.0 
M3 S0
M5 S0
G0 X425.0 Y3235.0 
M3 S255
G1 X425.0 Y3235.0 
M3 S255
G1 X425.0 Y3200.0 
M3 S0
G0 X425.0 Y3135.0 
M3 S255
G1 X425.0 Y3135.0 
M3 S255
G1 X425.0 Y3105.0 
M3 S0
G0 X425.0 Y2805.0 
M3 S255
G1 X425.0 Y2805.0 
M3 S255
G1 X425.0 Y2790.0 
M3 S0
G0 X425.0 Y2695.0 
M3 S255
G1 X425.0 Y2695.0 
M3 S255
G1 X425.0 Y2685.0 
M3 S0
G0 X425.0 Y2655.0 
M3 S255
G1 X425.0 Y2655.0 
M3 S255
G1 X425.0 Y2635.0 
M3 S0
G0 X425.0 Y2135.0 
M3 S255
G1 X425.0 Y2135.0 
M3 S255
G1 X425.0 Y2120.0 
M3 S0
G0 X425.0 Y2070.0 
M3 S255
G1 X425.0 Y2070.0 
M3 S255
G1 X425.0 Y2065.0 
M3 S0
G0 X425.0 Y2000.0 
M3 S255
G1 X425.0 Y2000.0 
M3 S255
G1 X425.0 Y1985.0 
M3 S0
G0 X425.0 Y1980.0 
M3 S255
G1 X425.0 Y1980.0 
M3 S255
G1 X425.0 Y1960.0 
M3 S0
G0 X425.0 Y1885.0 
M3 S255
G1 X425.0 Y1885.0 
M3 S255
G1 X425.0 Y1870.0 
M3 S0
G0 X425.0 Y1865.0 
M3 S255
G1 X425.0 Y1865.0 
M3 S255
G1 X425.0 Y1855.0 
M3 S0
G0 X425.0 Y1745.0 
M3 S255
G1 X425.0 Y1745.0 
M3 S255
G1 X425.0 Y1730.0 
M3 S0
G0 X425.0 Y1725.0 
M3 S255
G1 X425.0 Y1725.0 
M3 S255
G1 X425.0 Y1705.0 
M3 S0
G0 X425.0 Y1145.0 
M3 S255
G1 X425.0 Y1145.0 
M3 S255
G1 X425.0 Y1120.0 
M3 S0
G0 X425.0 Y1065.0 
M3 S255
G1 X425.0 Y1065.0 
M3 S255
G1 X425.0 Y1060.0 
M3 S0
G0 X425.0 Y960.0 
M3 S255
G1 X425.0 Y960.0 
M3 S255
G1 X425.0 Y945.0 
M3 S0
G0 X425.0 Y830.0 
M3 S255
G1 X425.0 Y830.0 
M3 S255
G1 X425.0 Y755.0 
M3 S0
M5 S0
G0 X430.0 Y750.0 
M3 S255
G1 X430.0 Y750.0 
M3 S255
G1 X430.0 Y830.0 
M3 S0
G0 X430.0 Y945.0 
M3 S255
G1 X430.0 Y945.0 
M3 S255
G1 X430.0 Y960.0 
M3 S0
G0 X430.0 Y1060.0 
M3 S255
G1 X430.0 Y1060.0 
M3 S255
G1 X430.0 Y1065.0 
M3 S0
G0 X430.0 Y1120.0 
M3 S255
G1 X430.0 Y1120.0 
M3 S255
G1 X430.0 Y1145.0 
M3 S0
G0 X430.0 Y1705.0 
M3 S255
G1 X430.0 Y1705.0 
M3 S255
G1 X430.0 Y1720.0 
M3 S0
G0 X430.0 Y1730.0 
M3 S255
G1 X430.0 Y1730.0 
M3 S255
G1 X430.0 Y1745.0 
M3 S0
G0 X430.0 Y1870.0 
M3 S255
G1 X430.0 Y1870.0 
M3 S255
G1 X430.0 Y1885.0 
M3 S0
G0 X430.0 Y1960.0 
M3 S255
G1 X430.0 Y1960.0 
M3 S255
G1 X430.0 Y2000.0 
M3 S0
G0 X430.0 Y2065.0 
M3 S255
G1 X430.0 Y2065.0 
M3 S255
G1 X430.0 Y2070.0 
M3 S0
G0 X430.0 Y2120.0 
M3 S255
G1 X430.0 Y2120.0 
M3 S255
G1 X430.0 Y2135.0 
M3 S0
G0 X430.0 Y2630.0 
M3 S255
G1 X430.0 Y2630.0 
M3 S255
G1 X430.0 Y2655.0 
M3 S0
G0 X430.0 Y2685.0 
M3 S255
G1 X430.0 Y2685.0 
M3 S255
G1 X430.0 Y2695.0 
M3 S0
G0 X430.0 Y2790.0 
M3 S255
G1 X430.0 Y2790.0 
M3 S255
G1 X430.0 Y2805.0 
M3 S0
G0 X430.0 Y3120.0 
M3 S255
G1 X430.0 Y3120.0 
M3 S255
G1 X430.0 Y3125.0 
M3 S0
G0 X430.0 Y3205.0 
M3 S255
G1 X430.0 Y3205.0 
M3 S255
G1 X430.0 Y3240.0 
M3 S0
M5 S0
G0 X435.0 Y3245.0 
M3 S255
G1 X435.0 Y3245.0 
M3 S255
G1 X435.0 Y3210.0 
M3 S0
G0 X435.0 Y2800.0 
M3 S255
G1 X435.0 Y2800.0 
M3 S255
G1 X435.0 Y2795.0 
M3 S0
G0 X435.0 Y2790.0 
M3 S255
G1 X435.0 Y2790.0 
M3 S255
G1 X435.0 Y2785.0 
M3 S0
G0 X435.0 Y2695.0 
M3 S255
G1 X435.0 Y2695.0 
M3 S255
G1 X435.0 Y2685.0 
M3 S0
G0 X435.0 Y2650.0 
M3 S255
G1 X435.0 Y2650.0 
M3 S255
G1 X435.0 Y2625.0 
M3 S0
G0 X435.0 Y2135.0 
M3 S255
G1 X435.0 Y2135.0 
M3 S255
G1 X435.0 Y2120.0 
M3 S0
G0 X435.0 Y2070.0 
M3 S255
G1 X435.0 Y2070.0 
M3 S255
G1 X435.0 Y2065.0 
M3 S0
G0 X435.0 Y2000.0 
M3 S255
G1 X435.0 Y2000.0 
M3 S255
G1 X435.0 Y1960.0 
M3 S0
G0 X435.0 Y1885.0 
M3 S255
G1 X435.0 Y1885.0 
M3 S255
G1 X435.0 Y1870.0 
M3 S0
G0 X435.0 Y1740.0 
M3 S255
G1 X435.0 Y1740.0 
M3 S255
G1 X435.0 Y1730.0 
M3 S0
G0 X435.0 Y1720.0 
M3 S255
G1 X435.0 Y1720.0 
M3 S255
G1 X435.0 Y1700.0 
M3 S0
G0 X435.0 Y1145.0 
M3 S255
G1 X435.0 Y1145.0 
M3 S255
G1 X435.0 Y1125.0 
M3 S0
G0 X435.0 Y1065.0 
M3 S255
G1 X435.0 Y1065.0 
M3 S255
G1 X435.0 Y1060.0 
M3 S0
G0 X435.0 Y955.0 
M3 S255
G1 X435.0 Y955.0 
M3 S255
G1 X435.0 Y950.0 
M3 S0
G0 X435.0 Y865.0 
M3 S255
G1 X435.0 Y865.0 
M3 S255
G1 X435.0 Y855.0 
M3 S0
G0 X435.0 Y830.0 
M3 S255
G1 X435.0 Y830.0 
M3 S255
G1 X435.0 Y745.0 
M3 S0
M5 S0
G0 X440.0 Y740.0 
M3 S255
G1 X440.0 Y740.0 
M3 S255
G1 X440.0 Y805.0 
M3 S0
G0 X440.0 Y815.0 
M3 S255
G1 X440.0 Y815.0 
M3 S255
G1 X440.0 Y830.0 
M3 S0
G0 X440.0 Y855.0 
M3 S255
G1 X440.0 Y855.0 
M3 S255
G1 X440.0 Y865.0 
M3 S0
G0 X440.0 Y1060.0 
M3 S255
G1 X440.0 Y1060.0 
M3 S255
G1 X440.0 Y1070.0 
M3 S0
G0 X440.0 Y1125.0 
M3 S255
G1 X440.0 Y1125.0 
M3 S255
G1 X440.0 Y1150.0 
M3 S0
G0 X440.0 Y1700.0 
M3 S255
G1 X440.0 Y1700.0 
M3 S255
G1 X440.0 Y1720.0 
M3 S0
G0 X440.0 Y1730.0 
M3 S255
G1 X440.0 Y1730.0 
M3 S255
G1 X440.0 Y1740.0 
M3 S0
G0 X440.0 Y1865.0 
M3 S255
G1 X440.0 Y1865.0 
M3 S255
G1 X440.0 Y1885.0 
M3 S0
G0 X440.0 Y1960.0 
M3 S255
G1 X440.0 Y1960.0 
M3 S255
G1 X440.0 Y2000.0 
M3 S0
G0 X440.0 Y2065.0 
M3 S255
G1 X440.0 Y2065.0 
M3 S255
G1 X440.0 Y2070.0 
M3 S0
G0 X440.0 Y2120.0 
M3 S255
G1 X440.0 Y2120.0 
M3 S255
G1 X440.0 Y2135.0 
M3 S0
G0 X440.0 Y2625.0 
M3 S255
G1 X440.0 Y2625.0 
M3 S255
G1 X440.0 Y2645.0 
M3 S0
G0 X440.0 Y2685.0 
M3 S255
G1 X440.0 Y2685.0 
M3 S255
G1 X440.0 Y2695.0 
M3 S0
G0 X440.0 Y2785.0 
M3 S255
G1 X440.0 Y2785.0 
M3 S255
G1 X440.0 Y2795.0 
M3 S0
G0 X440.0 Y3215.0 
M3 S255
G1 X440.0 Y3215.0 
M3 S255
G1 X440.0 Y3250.0 
M3 S0
M5 S0
G0 X445.0 Y3260.0 
M3 S255
G1 X445.0 Y3260.0 
M3 S255
G1 X445.0 Y3225.0 
M3 S0
G0 X445.0 Y2795.0 
M3 S255
G1 X445.0 Y2795.0 
M3 S255
G1 X445.0 Y2780.0 
M3 S0
G0 X445.0 Y2690.0 
M3 S255
G1 X445.0 Y2690.0 
M3 S255
G1 X445.0 Y2685.0 
M3 S0
G0 X445.0 Y2640.0 
M3 S255
G1 X445.0 Y2640.0 
M3 S255
G1 X445.0 Y2620.0 
M3 S0
G0 X445.0 Y2135.0 
M3 S255
G1 X445.0 Y2135.0 
M3 S255
G1 X445.0 Y2120.0 
M3 S0
G0 X445.0 Y2000.0 
M3 S255
G1 X445.0 Y2000.0 
M3 S255
G1 X445.0 Y1960.0 
M3 S0
G0 X445.0 Y1880.0 
M3 S255
G1 X445.0 Y1880.0 
M3 S255
G1 X445.0 Y1865.0 
M3 S0
G0 X445.0 Y1740.0 
M3 S255
G1 X445.0 Y1740.0 
M3 S255
G1 X445.0 Y1725.0 
M3 S0
G0 X445.0 Y1720.0 
M3 S255
G1 X445.0 Y1720.0 
M3 S255
G1 X445.0 Y1700.0 
M3 S0
G0 X445.0 Y1155.0 
M3 S255
G1 X445.0 Y1155.0 
M3 S255
G1 X445.0 Y1125.0 
M3 S0
G0 X445.0 Y1070.0 
M3 S255
G1 X445.0 Y1070.0 
M3 S255
G1 X445.0 Y1065.0 
M3 S0
G0 X445.0 Y905.0 
M3 S255
G1 X445.0 Y905.0 
M3 S255
G1 X445.0 Y895.0 
M3 S0
G0 X445.0 Y870.0 
M3 S255
G1 X445.0 Y870.0 
M3 S255
G1 X445.0 Y860.0 
M3 S0
G0 X445.0 Y795.0 
M3 S255
G1 X445.0 Y795.0 
M3 S255
G1 X445.0 Y730.0 
M3 S0
M5 S0
G0 X450.0 Y725.0 
M3 S255
G1 X450.0 Y725.0 
M3 S255
G1 X450.0 Y785.0 
M3 S0
G0 X450.0 Y855.0 
M3 S255
G1 X450.0 Y855.0 
M3 S255
G1 X450.0 Y875.0 
M3 S0
G0 X450.0 Y880.0 
M3 S255
G1 X450.0 Y880.0 
M3 S255
G1 X450.0 Y895.0 
M3 S0
G0 X450.0 Y1065.0 
M3 S255
G1 X450.0 Y1065.0 
M3 S255
G1 X450.0 Y1070.0 
M3 S0
G0 X450.0 Y1125.0 
M3 S255
G1 X450.0 Y1125.0 
M3 S255
G1 X450.0 Y1155.0 
M3 S0
G0 X450.0 Y1695.0 
M3 S255
G1 X450.0 Y1695.0 
M3 S255
G1 X450.0 Y1715.0 
M3 S0
G0 X450.0 Y1725.0 
M3 S255
G1 X450.0 Y1725.0 
M3 S255
G1 X450.0 Y1735.0 
M3 S0
G0 X450.0 Y1865.0 
M3 S255
G1 X450.0 Y1865.0 
M3 S255
G1 X450.0 Y1880.0 
M3 S0
G0 X450.0 Y1960.0 
M3 S255
G1 X450.0 Y1960.0 
M3 S255
G1 X450.0 Y2000.0 
M3 S0
G0 X450.0 Y2120.0 
M3 S255
G1 X450.0 Y2120.0 
M3 S255
G1 X450.0 Y2135.0 
M3 S0
G0 X450.0 Y2615.0 
M3 S255
G1 X450.0 Y2615.0 
M3 S255
G1 X450.0 Y2635.0 
M3 S0
G0 X450.0 Y2680.0 
M3 S255
G1 X450.0 Y2680.0 
M3 S255
G1 X450.0 Y2690.0 
M3 S0
G0 X450.0 Y2780.0 
M3 S255
G1 X450.0 Y2780.0 
M3 S255
G1 X450.0 Y2790.0 
M3 S0
G0 X450.0 Y3230.0 
M3 S255
G1 X450.0 Y3230.0 
M3 S255
G1 X450.0 Y3265.0 
M3 S0
M5 S0
G0 X455.0 Y3270.0 
M3 S255
G1 X455.0 Y3270.0 
M3 S255
G1 X455.0 Y3235.0 
M3 S0
G0 X455.0 Y2790.0 
M3 S255
G1 X455.0 Y2790.0 
M3 S255
G1 X455.0 Y2775.0 
M3 S0
G0 X455.0 Y2690.0 
M3 S255
G1 X455.0 Y2690.0 
M3 S255
G1 X455.0 Y2680.0 
M3 S0
G0 X455.0 Y2630.0 
M3 S255
G1 X455.0 Y2630.0 
M3 S255
G1 X455.0 Y2610.0 
M3 S0
G0 X455.0 Y2135.0 
M3 S255
G1 X455.0 Y2135.0 
M3 S255
G1 X455.0 Y2120.0 
M3 S0
G0 X455.0 Y2000.0 
M3 S255
G1 X455.0 Y2000.0 
M3 S255
G1 X455.0 Y1960.0 
M3 S0
G0 X455.0 Y1880.0 
M3 S255
G1 X455.0 Y1880.0 
M3 S255
G1 X455.0 Y1865.0 
M3 S0
G0 X455.0 Y1735.0 
M3 S255
G1 X455.0 Y1735.0 
M3 S255
G1 X455.0 Y1725.0 
M3 S0
G0 X455.0 Y1715.0 
M3 S255
G1 X455.0 Y1715.0 
M3 S255
G1 X455.0 Y1695.0 
M3 S0
G0 X455.0 Y1160.0 
M3 S255
G1 X455.0 Y1160.0 
M3 S255
G1 X455.0 Y1130.0 
M3 S0
G0 X455.0 Y1070.0 
M3 S255
G1 X455.0 Y1070.0 
M3 S255
G1 X455.0 Y1065.0 
M3 S0
G0 X455.0 Y880.0 
M3 S255
G1 X455.0 Y880.0 
M3 S255
G1 X455.0 Y850.0 
M3 S0
G0 X455.0 Y785.0 
M3 S255
G1 X455.0 Y785.0 
M3 S255
G1 X455.0 Y720.0 
M3 S0
M5 S0
G0 X460.0 Y710.0 
M3 S255
G1 X460.0 Y710.0 
M3 S255
G1 X460.0 Y795.0 
M3 S0
G0 X460.0 Y800.0 
M3 S255
G1 X460.0 Y800.0 
M3 S255
G1 X460.0 Y820.0 
M3 S0
G0 X460.0 Y1030.0 
M3 S255
G1 X460.0 Y1030.0 
M3 S255
G1 X460.0 Y1055.0 
M3 S0
G0 X460.0 Y1070.0 
M3 S255
G1 X460.0 Y1070.0 
M3 S255
G1 X460.0 Y1080.0 
M3 S0
G0 X460.0 Y1130.0 
M3 S255
G1 X460.0 Y1130.0 
M3 S255
G1 X460.0 Y1160.0 
M3 S0
G0 X460.0 Y1700.0 
M3 S255
G1 X460.0 Y1700.0 
M3 S255
G1 X460.0 Y1715.0 
M3 S0
G0 X460.0 Y1725.0 
M3 S255
G1 X460.0 Y1725.0 
M3 S255
G1 X460.0 Y1735.0 
M3 S0
G0 X460.0 Y1865.0 
M3 S255
G1 X460.0 Y1865.0 
M3 S255
G1 X460.0 Y1875.0 
M3 S0
G0 X460.0 Y1960.0 
M3 S255
G1 X460.0 Y1960.0 
M3 S255
G1 X460.0 Y2000.0 
M3 S0
G0 X460.0 Y2070.0 
M3 S255
G1 X460.0 Y2070.0 
M3 S255
G1 X460.0 Y2075.0 
M3 S0
G0 X460.0 Y2120.0 
M3 S255
G1 X460.0 Y2120.0 
M3 S255
G1 X460.0 Y2135.0 
M3 S0
G0 X460.0 Y2605.0 
M3 S255
G1 X460.0 Y2605.0 
M3 S255
G1 X460.0 Y2625.0 
M3 S0
G0 X460.0 Y2680.0 
M3 S255
G1 X460.0 Y2680.0 
M3 S255
G1 X460.0 Y2690.0 
M3 S0
G0 X460.0 Y2770.0 
M3 S255
G1 X460.0 Y2770.0 
M3 S255
G1 X460.0 Y2785.0 
M3 S0
G0 X460.0 Y3245.0 
M3 S255
G1 X460.0 Y3245.0 
M3 S255
G1 X460.0 Y3275.0 
M3 S0
M5 S0
G0 X465.0 Y3285.0 
M3 S255
G1 X465.0 Y3285.0 
M3 S255
G1 X465.0 Y3250.0 
M3 S0
G0 X465.0 Y2785.0 
M3 S255
G1 X465.0 Y2785.0 
M3 S255
G1 X465.0 Y2765.0 
M3 S0
G0 X465.0 Y2685.0 
M3 S255
G1 X465.0 Y2685.0 
M3 S255
G1 X465.0 Y2675.0 
M3 S0
G0 X465.0 Y2625.0 
M3 S255
G1 X465.0 Y2625.0 
M3 S255
G1 X465.0 Y2600.0 
M3 S0
G0 X465.0 Y2135.0 
M3 S255
G1 X465.0 Y2135.0 
M3 S255
G1 X465.0 Y2120.0 
M3 S0
G0 X465.0 Y2075.0 
M3 S255
G1 X465.0 Y2075.0 
M3 S255
G1 X465.0 Y2070.0 
M3 S0
G0 X465.0 Y2000.0 
M3 S255
G1 X465.0 Y2000.0 
M3 S255
G1 X465.0 Y1985.0 
M3 S0
G0 X465.0 Y1980.0 
M3 S255
G1 X465.0 Y1980.0 
M3 S255
G1 X465.0 Y1960.0 
M3 S0
G0 X465.0 Y1875.0 
M3 S255
G1 X465.0 Y1875.0 
M3 S255
G1 X465.0 Y1855.0 
M3 S0
G0 X465.0 Y1735.0 
M3 S255
G1 X465.0 Y1735.0 
M3 S255
G1 X465.0 Y1725.0 
M3 S0
G0 X465.0 Y1715.0 
M3 S255
G1 X465.0 Y1715.0 
M3 S255
G1 X465.0 Y1695.0 
M3 S0
G0 X465.0 Y1165.0 
M3 S255
G1 X465.0 Y1165.0 
M3 S255
G1 X465.0 Y1130.0 
M3 S0
G0 X465.0 Y1060.0 
M3 S255
G1 X465.0 Y1060.0 
M3 S255
G1 X465.0 Y1030.0 
M3 S0
G0 X465.0 Y825.0 
M3 S255
G1 X465.0 Y825.0 
M3 S255
G1 X465.0 Y705.0 
M3 S0
M5 S0
G0 X470.0 Y705.0 
M3 S255
G1 X470.0 Y705.0 
M3 S255
G1 X470.0 Y815.0 
M3 S0
G0 X470.0 Y905.0 
M3 S255
G1 X470.0 Y905.0 
M3 S255
G1 X470.0 Y985.0 
M3 S0
G0 X470.0 Y1030.0 
M3 S255
G1 X470.0 Y1030.0 
M3 S255
G1 X470.0 Y1060.0 
M3 S0
G0 X470.0 Y1135.0 
M3 S255
G1 X470.0 Y1135.0 
M3 S255
G1 X470.0 Y1165.0 
M3 S0
G0 X470.0 Y1690.0 
M3 S255
G1 X470.0 Y1690.0 
M3 S255
G1 X470.0 Y1705.0 
M3 S0
G0 X470.0 Y1725.0 
M3 S255
G1 X470.0 Y1725.0 
M3 S255
G1 X470.0 Y1735.0 
M3 S0
G0 X470.0 Y1855.0 
M3 S255
G1 X470.0 Y1855.0 
M3 S255
G1 X470.0 Y1875.0 
M3 S0
G0 X470.0 Y1960.0 
M3 S255
G1 X470.0 Y1960.0 
M3 S255
G1 X470.0 Y1980.0 
M3 S0
G0 X470.0 Y1985.0 
M3 S255
G1 X470.0 Y1985.0 
M3 S255
G1 X470.0 Y2000.0 
M3 S0
G0 X470.0 Y2070.0 
M3 S255
G1 X470.0 Y2070.0 
M3 S255
G1 X470.0 Y2075.0 
M3 S0
G0 X470.0 Y2120.0 
M3 S255
G1 X470.0 Y2120.0 
M3 S255
G1 X470.0 Y2135.0 
M3 S0
G0 X470.0 Y2595.0 
M3 S255
G1 X470.0 Y2595.0 
M3 S255
G1 X470.0 Y2620.0 
M3 S0
G0 X470.0 Y2675.0 
M3 S255
G1 X470.0 Y2675.0 
M3 S255
G1 X470.0 Y2685.0 
M3 S0
G0 X470.0 Y2765.0 
M3 S255
G1 X470.0 Y2765.0 
M3 S255
G1 X470.0 Y2785.0 
M3 S0
G0 X470.0 Y3255.0 
M3 S255
G1 X470.0 Y3255.0 
M3 S255
G1 X470.0 Y3285.0 
M3 S0
M5 S0
G0 X475.0 Y3295.0 
M3 S255
G1 X475.0 Y3295.0 
M3 S255
G1 X475.0 Y3265.0 
M3 S0
G0 X475.0 Y2780.0 
M3 S255
G1 X475.0 Y2780.0 
M3 S255
G1 X475.0 Y2765.0 
M3 S0
G0 X475.0 Y2685.0 
M3 S255
G1 X475.0 Y2685.0 
M3 S255
G1 X475.0 Y2670.0 
M3 S0
G0 X475.0 Y2610.0 
M3 S255
G1 X475.0 Y2610.0 
M3 S255
G1 X475.0 Y2590.0 
M3 S0
G0 X475.0 Y2135.0 
M3 S255
G1 X475.0 Y2135.0 
M3 S255
G1 X475.0 Y2120.0 
M3 S0
G0 X475.0 Y2075.0 
M3 S255
G1 X475.0 Y2075.0 
M3 S255
G1 X475.0 Y2070.0 
M3 S0
G0 X475.0 Y1995.0 
M3 S255
G1 X475.0 Y1995.0 
M3 S255
G1 X475.0 Y1990.0 
M3 S0
G0 X475.0 Y1975.0 
M3 S255
G1 X475.0 Y1975.0 
M3 S255
G1 X475.0 Y1960.0 
M3 S0
G0 X475.0 Y1870.0 
M3 S255
G1 X475.0 Y1870.0 
M3 S255
G1 X475.0 Y1855.0 
M3 S0
G0 X475.0 Y1730.0 
M3 S255
G1 X475.0 Y1730.0 
M3 S255
G1 X475.0 Y1725.0 
M3 S0
G0 X475.0 Y1710.0 
M3 S255
G1 X475.0 Y1710.0 
M3 S255
G1 X475.0 Y1685.0 
M3 S0
G0 X475.0 Y1175.0 
M3 S255
G1 X475.0 Y1175.0 
M3 S255
G1 X475.0 Y1155.0 
M3 S0
G0 X475.0 Y1150.0 
M3 S255
G1 X475.0 Y1150.0 
M3 S255
G1 X475.0 Y1135.0 
M3 S0
G0 X475.0 Y1045.0 
M3 S255
G1 X475.0 Y1045.0 
M3 S255
G1 X475.0 Y1030.0 
M3 S0
G0 X475.0 Y1015.0 
M3 S255
G1 X475.0 Y1015.0 
M3 S255
G1 X475.0 Y860.0 
M3 S0
G0 X475.0 Y805.0 
M3 S255
G1 X475.0 Y805.0 
M3 S255
G1 X475.0 Y765.0 
M3 S0
G0 X475.0 Y750.0 
M3 S255
G1 X475.0 Y750.0 
M3 S255
G1 X475.0 Y730.0 
M3 S0
G0 X475.0 Y725.0 
M3 S255
G1 X475.0 Y725.0 
M3 S255
G1 X475.0 Y695.0 
M3 S0
M5 S0
G0 X480.0 Y695.0 
M3 S255
G1 X480.0 Y695.0 
M3 S255
G1 X480.0 Y725.0 
M3 S0
G0 X480.0 Y730.0 
M3 S255
G1 X480.0 Y730.0 
M3 S255
G1 X480.0 Y750.0 
M3 S0
G0 X480.0 Y765.0 
M3 S255
G1 X480.0 Y765.0 
M3 S255
G1 X480.0 Y805.0 
M3 S0
G0 X480.0 Y860.0 
M3 S255
G1 X480.0 Y860.0 
M3 S255
G1 X480.0 Y1015.0 
M3 S0
G0 X480.0 Y1030.0 
M3 S255
G1 X480.0 Y1030.0 
M3 S255
G1 X480.0 Y1045.0 
M3 S0
G0 X480.0 Y1135.0 
M3 S255
G1 X480.0 Y1135.0 
M3 S255
G1 X480.0 Y1150.0 
M3 S0
G0 X480.0 Y1155.0 
M3 S255
G1 X480.0 Y1155.0 
M3 S255
G1 X480.0 Y1160.0 
M3 S0
G0 X480.0 Y1165.0 
M3 S255
G1 X480.0 Y1165.0 
M3 S255
G1 X480.0 Y1175.0 
M3 S0
G0 X480.0 Y1685.0 
M3 S255
G1 X480.0 Y1685.0 
M3 S255
G1 X480.0 Y1710.0 
M3 S0
G0 X480.0 Y1725.0 
M3 S255
G1 X480.0 Y1725.0 
M3 S255
G1 X480.0 Y1730.0 
M3 S0
G0 X480.0 Y1855.0 
M3 S255
G1 X480.0 Y1855.0 
M3 S255
G1 X480.0 Y1870.0 
M3 S0
G0 X480.0 Y1960.0 
M3 S255
G1 X480.0 Y1960.0 
M3 S255
G1 X480.0 Y1975.0 
M3 S0
G0 X480.0 Y1990.0 
M3 S255
G1 X480.0 Y1990.0 
M3 S255
G1 X480.0 Y2000.0 
M3 S0
G0 X480.0 Y2070.0 
M3 S255
G1 X480.0 Y2070.0 
M3 S255
G1 X480.0 Y2075.0 
M3 S0
G0 X480.0 Y2120.0 
M3 S255
G1 X480.0 Y2120.0 
M3 S255
G1 X480.0 Y2135.0 
M3 S0
G0 X480.0 Y2590.0 
M3 S255
G1 X480.0 Y2590.0 
M3 S255
G1 X480.0 Y2610.0 
M3 S0
G0 X480.0 Y2670.0 
M3 S255
G1 X480.0 Y2670.0 
M3 S255
G1 X480.0 Y2685.0 
M3 S0
G0 X480.0 Y2765.0 
M3 S255
G1 X480.0 Y2765.0 
M3 S255
G1 X480.0 Y2780.0 
M3 S0
G0 X480.0 Y3265.0 
M3 S255
G1 X480.0 Y3265.0 
M3 S255
G1 X480.0 Y3295.0 
M3 S0
M5 S0
G0 X485.0 Y3305.0 
M3 S255
G1 X485.0 Y3305.0 
M3 S255
G1 X485.0 Y3270.0 
M3 S0
G0 X485.0 Y2775.0 
M3 S255
G1 X485.0 Y2775.0 
M3 S255
G1 X485.0 Y2760.0 
M3 S0
G0 X485.0 Y2685.0 
M3 S255
G1 X485.0 Y2685.0 
M3 S255
G1 X485.0 Y2670.0 
M3 S0
G0 X485.0 Y2605.0 
M3 S255
G1 X485.0 Y2605.0 
M3 S255
G1 X485.0 Y2585.0 
M3 S0
G0 X485.0 Y2135.0 
M3 S255
G1 X485.0 Y2135.0 
M3 S255
G1 X485.0 Y2120.0 
M3 S0
G0 X485.0 Y2075.0 
M3 S255
G1 X485.0 Y2075.0 
M3 S255
G1 X485.0 Y2070.0 
M3 S0
G0 X485.0 Y1965.0 
M3 S255
G1 X485.0 Y1965.0 
M3 S255
G1 X485.0 Y1950.0 
M3 S0
G0 X485.0 Y1870.0 
M3 S255
G1 X485.0 Y1870.0 
M3 S255
G1 X485.0 Y1855.0 
M3 S0
G0 X485.0 Y1730.0 
M3 S255
G1 X485.0 Y1730.0 
M3 S255
G1 X485.0 Y1725.0 
M3 S0
G0 X485.0 Y1710.0 
M3 S255
G1 X485.0 Y1710.0 
M3 S255
G1 X485.0 Y1680.0 
M3 S0
G0 X485.0 Y1175.0 
M3 S255
G1 X485.0 Y1175.0 
M3 S255
G1 X485.0 Y1160.0 
M3 S0
G0 X485.0 Y1150.0 
M3 S255
G1 X485.0 Y1150.0 
M3 S255
G1 X485.0 Y1140.0 
M3 S0
G0 X485.0 Y1045.0 
M3 S255
G1 X485.0 Y1045.0 
M3 S255
G1 X485.0 Y1035.0 
M3 S0
G0 X485.0 Y1025.0 
M3 S255
G1 X485.0 Y1025.0 
M3 S255
G1 X485.0 Y1000.0 
M3 S0
G0 X485.0 Y905.0 
M3 S255
G1 X485.0 Y905.0 
M3 S255
G1 X485.0 Y840.0 
M3 S0
G0 X485.0 Y795.0 
M3 S255
G1 X485.0 Y795.0 
M3 S255
G1 X485.0 Y760.0 
M3 S0
G0 X485.0 Y735.0 
M3 S255
G1 X485.0 Y735.0 
M3 S255
G1 X485.0 Y685.0 
M3 S0
M5 S0
G0 X490.0 Y675.0 
M3 S255
G1 X490.0 Y675.0 
M3 S255
G1 X490.0 Y705.0 
M3 S0
G0 X490.0 Y715.0 
M3 S255
G1 X490.0 Y715.0 
M3 S255
G1 X490.0 Y785.0 
M3 S0
G0 X490.0 Y800.0 
M3 S255
G1 X490.0 Y800.0 
M3 S255
G1 X490.0 Y870.0 
M3 S0
G0 X490.0 Y1005.0 
M3 S255
G1 X490.0 Y1005.0 
M3 S255
G1 X490.0 Y1030.0 
M3 S0
G0 X490.0 Y1140.0 
M3 S255
G1 X490.0 Y1140.0 
M3 S255
G1 X490.0 Y1150.0 
M3 S0
G0 X490.0 Y1165.0 
M3 S255
G1 X490.0 Y1165.0 
M3 S255
G1 X490.0 Y1180.0 
M3 S0
G0 X490.0 Y1680.0 
M3 S255
G1 X490.0 Y1680.0 
M3 S255
G1 X490.0 Y1710.0 
M3 S0
G0 X490.0 Y1855.0 
M3 S255
G1 X490.0 Y1855.0 
M3 S255
G1 X490.0 Y1870.0 
M3 S0
G0 X490.0 Y1950.0 
M3 S255
G1 X490.0 Y1950.0 
M3 S255
G1 X490.0 Y1965.0 
M3 S0
G0 X490.0 Y1990.0 
M3 S255
G1 X490.0 Y1990.0 
M3 S255
G1 X490.0 Y2000.0 
M3 S0
G0 X490.0 Y2070.0 
M3 S255
G1 X490.0 Y2070.0 
M3 S255
G1 X490.0 Y2075.0 
M3 S0
G0 X490.0 Y2125.0 
M3 S255
G1 X490.0 Y2125.0 
M3 S255
G1 X490.0 Y2135.0 
M3 S0
G0 X490.0 Y2575.0 
M3 S255
G1 X490.0 Y2575.0 
M3 S255
G1 X490.0 Y2595.0 
M3 S0
G0 X490.0 Y2670.0 
M3 S255
G1 X490.0 Y2670.0 
M3 S255
G1 X490.0 Y2685.0 
M3 S0
G0 X490.0 Y2755.0 
M3 S255
G1 X490.0 Y2755.0 
M3 S255
G1 X490.0 Y2770.0 
M3 S0
G0 X490.0 Y3280.0 
M3 S255
G1 X490.0 Y3280.0 
M3 S255
G1 X490.0 Y3315.0 
M3 S0
M5 S0
G0 X495.0 Y3320.0 
M3 S255
G1 X495.0 Y3320.0 
M3 S255
G1 X495.0 Y3285.0 
M3 S0
G0 X495.0 Y2770.0 
M3 S255
G1 X495.0 Y2770.0 
M3 S255
G1 X495.0 Y2755.0 
M3 S0
G0 X495.0 Y2680.0 
M3 S255
G1 X495.0 Y2680.0 
M3 S255
G1 X495.0 Y2670.0 
M3 S0
G0 X495.0 Y2590.0 
M3 S255
G1 X495.0 Y2590.0 
M3 S255
G1 X495.0 Y2575.0 
M3 S0
G0 X495.0 Y2135.0 
M3 S255
G1 X495.0 Y2135.0 
M3 S255
G1 X495.0 Y2125.0 
M3 S0
G0 X495.0 Y2075.0 
M3 S255
G1 X495.0 Y2075.0 
M3 S255
G1 X495.0 Y2070.0 
M3 S0
G0 X495.0 Y2000.0 
M3 S255
G1 X495.0 Y2000.0 
M3 S255
G1 X495.0 Y1990.0 
M3 S0
G0 X495.0 Y1960.0 
M3 S255
G1 X495.0 Y1960.0 
M3 S255
G1 X495.0 Y1945.0 
M3 S0
G0 X495.0 Y1870.0 
M3 S255
G1 X495.0 Y1870.0 
M3 S255
G1 X495.0 Y1855.0 
M3 S0
G0 X495.0 Y1730.0 
M3 S255
G1 X495.0 Y1730.0 
M3 S255
G1 X495.0 Y1720.0 
M3 S0
G0 X495.0 Y1710.0 
M3 S255
G1 X495.0 Y1710.0 
M3 S255
G1 X495.0 Y1680.0 
M3 S0
G0 X495.0 Y1185.0 
M3 S255
G1 X495.0 Y1185.0 
M3 S255
G1 X495.0 Y1165.0 
M3 S0
G0 X495.0 Y1155.0 
M3 S255
G1 X495.0 Y1155.0 
M3 S255
G1 X495.0 Y1150.0 
M3 S0
G0 X495.0 Y1030.0 
M3 S255
G1 X495.0 Y1030.0 
M3 S255
G1 X495.0 Y1005.0 
M3 S0
G0 X495.0 Y855.0 
M3 S255
G1 X495.0 Y855.0 
M3 S255
G1 X495.0 Y730.0 
M3 S0
G0 X495.0 Y720.0 
M3 S255
G1 X495.0 Y720.0 
M3 S255
G1 X495.0 Y710.0 
M3 S0
G0 X495.0 Y705.0 
M3 S255
G1 X495.0 Y705.0 
M3 S255
G1 X495.0 Y670.0 
M3 S0
M5 S0
G0 X500.0 Y670.0 
M3 S255
G1 X500.0 Y670.0 
M3 S255
G1 X500.0 Y700.0 
M3 S0
G0 X500.0 Y705.0 
M3 S255
G1 X500.0 Y705.0 
M3 S255
G1 X500.0 Y715.0 
M3 S0
G0 X500.0 Y740.0 
M3 S255
G1 X500.0 Y740.0 
M3 S255
G1 X500.0 Y750.0 
M3 S0
G0 X500.0 Y760.0 
M3 S255
G1 X500.0 Y760.0 
M3 S255
G1 X500.0 Y765.0 
M3 S0
G0 X500.0 Y770.0 
M3 S255
G1 X500.0 Y770.0 
M3 S255
G1 X500.0 Y840.0 
M3 S0
G0 X500.0 Y1015.0 
M3 S255
G1 X500.0 Y1015.0 
M3 S255
G1 X500.0 Y1035.0 
M3 S0
G0 X500.0 Y1070.0 
M3 S255
G1 X500.0 Y1070.0 
M3 S255
G1 X500.0 Y1080.0 
M3 S0
G0 X500.0 Y1145.0 
M3 S255
G1 X500.0 Y1145.0 
M3 S255
G1 X500.0 Y1155.0 
M3 S0
G0 X500.0 Y1170.0 
M3 S255
G1 X500.0 Y1170.0 
M3 S255
G1 X500.0 Y1190.0 
M3 S0
G0 X500.0 Y1675.0 
M3 S255
G1 X500.0 Y1675.0 
M3 S255
G1 X500.0 Y1710.0 
M3 S0
G0 X500.0 Y1720.0 
M3 S255
G1 X500.0 Y1720.0 
M3 S255
G1 X500.0 Y1730.0 
M3 S0
G0 X500.0 Y1855.0 
M3 S255
G1 X500.0 Y1855.0 
M3 S255
G1 X500.0 Y1870.0 
M3 S0
G0 X500.0 Y1945.0 
M3 S255
G1 X500.0 Y1945.0 
M3 S255
G1 X500.0 Y1960.0 
M3 S0
G0 X500.0 Y1990.0 
M3 S255
G1 X500.0 Y1990.0 
M3 S255
G1 X500.0 Y2000.0 
M3 S0
G0 X500.0 Y2070.0 
M3 S255
G1 X500.0 Y2070.0 
M3 S255
G1 X500.0 Y2075.0 
M3 S0
G0 X500.0 Y2125.0 
M3 S255
G1 X500.0 Y2125.0 
M3 S255
G1 X500.0 Y2135.0 
M3 S0
G0 X500.0 Y2575.0 
M3 S255
G1 X500.0 Y2575.0 
M3 S255
G1 X500.0 Y2590.0 
M3 S0
G0 X500.0 Y2670.0 
M3 S255
G1 X500.0 Y2670.0 
M3 S255
G1 X500.0 Y2680.0 
M3 S0
G0 X500.0 Y2750.0 
M3 S255
G1 X500.0 Y2750.0 
M3 S255
G1 X500.0 Y2765.0 
M3 S0
G0 X500.0 Y3290.0 
M3 S255
G1 X500.0 Y3290.0 
M3 S255
G1 X500.0 Y3320.0 
M3 S0
M5 S0
G0 X505.0 Y3330.0 
M3 S255
G1 X505.0 Y3330.0 
M3 S255
G1 X505.0 Y3300.0 
M3 S0
G0 X505.0 Y2765.0 
M3 S255
G1 X505.0 Y2765.0 
M3 S255
G1 X505.0 Y2750.0 
M3 S0
G0 X505.0 Y2680.0 
M3 S255
G1 X505.0 Y2680.0 
M3 S255
G1 X505.0 Y2665.0 
M3 S0
G0 X505.0 Y2585.0 
M3 S255
G1 X505.0 Y2585.0 
M3 S255
G1 X505.0 Y2565.0 
M3 S0
G0 X505.0 Y2135.0 
M3 S255
G1 X505.0 Y2135.0 
M3 S255
G1 X505.0 Y2125.0 
M3 S0
G0 X505.0 Y2075.0 
M3 S255
G1 X505.0 Y2075.0 
M3 S255
G1 X505.0 Y2070.0 
M3 S0
G0 X505.0 Y1960.0 
M3 S255
G1 X505.0 Y1960.0 
M3 S255
G1 X505.0 Y1935.0 
M3 S0
G0 X505.0 Y1870.0 
M3 S255
G1 X505.0 Y1870.0 
M3 S255
G1 X505.0 Y1855.0 
M3 S0
G0 X505.0 Y1730.0 
M3 S255
G1 X505.0 Y1730.0 
M3 S255
G1 X505.0 Y1720.0 
M3 S0
G0 X505.0 Y1710.0 
M3 S255
G1 X505.0 Y1710.0 
M3 S255
G1 X505.0 Y1670.0 
M3 S0
G0 X505.0 Y1195.0 
M3 S255
G1 X505.0 Y1195.0 
M3 S255
G1 X505.0 Y1175.0 
M3 S0
G0 X505.0 Y1155.0 
M3 S255
G1 X505.0 Y1155.0 
M3 S255
G1 X505.0 Y1145.0 
M3 S0
G0 X505.0 Y1040.0 
M3 S255
G1 X505.0 Y1040.0 
M3 S255
G1 X505.0 Y1020.0 
M3 S0
G0 X505.0 Y805.0 
M3 S255
G1 X505.0 Y805.0 
M3 S255
G1 X505.0 Y765.0 
M3 S0
G0 X505.0 Y710.0 
M3 S255
G1 X505.0 Y710.0 
M3 S255
G1 X505.0 Y700.0 
M3 S0
G0 X505.0 Y690.0 
M3 S255
G1 X505.0 Y690.0 
M3 S255
G1 X505.0 Y655.0 
M3 S0
M5 S0
G0 X510.0 Y655.0 
M3 S255
G1 X510.0 Y655.0 
M3 S255
G1 X510.0 Y685.0 
M3 S0
G0 X510.0 Y700.0 
M3 S255
G1 X510.0 Y700.0 
M3 S255
G1 X510.0 Y710.0 
M3 S0
G0 X510.0 Y720.0 
M3 S255
G1 X510.0 Y720.0 
M3 S255
G1 X510.0 Y730.0 
M3 S0
G0 X510.0 Y755.0 
M3 S255
G1 X510.0 Y755.0 
M3 S255
G1 X510.0 Y790.0 
M3 S0
G0 X510.0 Y1025.0 
M3 S255
G1 X510.0 Y1025.0 
M3 S255
G1 X510.0 Y1045.0 
M3 S0
G0 X510.0 Y1145.0 
M3 S255
G1 X510.0 Y1145.0 
M3 S255
G1 X510.0 Y1160.0 
M3 S0
G0 X510.0 Y1175.0 
M3 S255
G1 X510.0 Y1175.0 
M3 S255
G1 X510.0 Y1195.0 
M3 S0
G0 X510.0 Y1670.0 
M3 S255
G1 X510.0 Y1670.0 
M3 S255
G1 X510.0 Y1695.0 
M3 S0
G0 X510.0 Y1700.0 
M3 S255
G1 X510.0 Y1700.0 
M3 S255
G1 X510.0 Y1710.0 
M3 S0
G0 X510.0 Y1720.0 
M3 S255
G1 X510.0 Y1720.0 
M3 S255
G1 X510.0 Y1730.0 
M3 S0
G0 X510.0 Y1855.0 
M3 S255
G1 X510.0 Y1855.0 
M3 S255
G1 X510.0 Y1870.0 
M3 S0
G0 X510.0 Y1935.0 
M3 S255
G1 X510.0 Y1935.0 
M3 S255
G1 X510.0 Y1950.0 
M3 S0
G0 X510.0 Y1995.0 
M3 S255
G1 X510.0 Y1995.0 
M3 S255
G1 X510.0 Y2000.0 
M3 S0
G0 X510.0 Y2070.0 
M3 S255
G1 X510.0 Y2070.0 
M3 S255
G1 X510.0 Y2075.0 
M3 S0
G0 X510.0 Y2125.0 
M3 S255
G1 X510.0 Y2125.0 
M3 S255
G1 X510.0 Y2135.0 
M3 S0
G0 X510.0 Y2560.0 
M3 S255
G1 X510.0 Y2560.0 
M3 S255
G1 X510.0 Y2580.0 
M3 S0
G0 X510.0 Y2625.0 
M3 S255
G1 X510.0 Y2625.0 
M3 S255
G1 X510.0 Y2630.0 
M3 S0
G0 X510.0 Y2665.0 
M3 S255
G1 X510.0 Y2665.0 
M3 S255
G1 X510.0 Y2675.0 
M3 S0
G0 X510.0 Y2750.0 
M3 S255
G1 X510.0 Y2750.0 
M3 S255
G1 X510.0 Y2765.0 
M3 S0
G0 X510.0 Y3305.0 
M3 S255
G1 X510.0 Y3305.0 
M3 S255
G1 X510.0 Y3335.0 
M3 S0
M5 S0
G0 X515.0 Y3335.0 
M3 S255
G1 X515.0 Y3335.0 
M3 S255
G1 X515.0 Y3305.0 
M3 S0
G0 X515.0 Y2765.0 
M3 S255
G1 X515.0 Y2765.0 
M3 S255
G1 X515.0 Y2745.0 
M3 S0
G0 X515.0 Y2675.0 
M3 S255
G1 X515.0 Y2675.0 
M3 S255
G1 X515.0 Y2660.0 
M3 S0
G0 X515.0 Y2625.0 
M3 S255
G1 X515.0 Y2625.0 
M3 S255
G1 X515.0 Y2615.0 
M3 S0
G0 X515.0 Y2575.0 
M3 S255
G1 X515.0 Y2575.0 
M3 S255
G1 X515.0 Y2560.0 
M3 S0
G0 X515.0 Y2135.0 
M3 S255
G1 X515.0 Y2135.0 
M3 S255
G1 X515.0 Y2125.0 
M3 S0
G0 X515.0 Y2075.0 
M3 S255
G1 X515.0 Y2075.0 
M3 S255
G1 X515.0 Y2070.0 
M3 S0
G0 X515.0 Y2005.0 
M3 S255
G1 X515.0 Y2005.0 
M3 S255
G1 X515.0 Y1995.0 
M3 S0
G0 X515.0 Y1950.0 
M3 S255
G1 X515.0 Y1950.0 
M3 S255
G1 X515.0 Y1935.0 
M3 S0
G0 X515.0 Y1870.0 
M3 S255
G1 X515.0 Y1870.0 
M3 S255
G1 X515.0 Y1855.0 
M3 S0
G0 X515.0 Y1730.0 
M3 S255
G1 X515.0 Y1730.0 
M3 S255
G1 X515.0 Y1720.0 
M3 S0
G0 X515.0 Y1710.0 
M3 S255
G1 X515.0 Y1710.0 
M3 S255
G1 X515.0 Y1695.0 
M3 S0
G0 X515.0 Y1690.0 
M3 S255
G1 X515.0 Y1690.0 
M3 S255
G1 X515.0 Y1670.0 
M3 S0
G0 X515.0 Y1200.0 
M3 S255
G1 X515.0 Y1200.0 
M3 S255
G1 X515.0 Y1180.0 
M3 S0
G0 X515.0 Y1160.0 
M3 S255
G1 X515.0 Y1160.0 
M3 S255
G1 X515.0 Y1145.0 
M3 S0
G0 X515.0 Y1045.0 
M3 S255
G1 X515.0 Y1045.0 
M3 S255
G1 X515.0 Y1030.0 
M3 S0
G0 X515.0 Y780.0 
M3 S255
G1 X515.0 Y780.0 
M3 S255
G1 X515.0 Y745.0 
M3 S0
G0 X515.0 Y740.0 
M3 S255
G1 X515.0 Y740.0 
M3 S255
G1 X515.0 Y715.0 
M3 S0
G0 X515.0 Y710.0 
M3 S255
G1 X515.0 Y710.0 
M3 S255
G1 X515.0 Y700.0 
M3 S0
G0 X515.0 Y680.0 
M3 S255
G1 X515.0 Y680.0 
M3 S255
G1 X515.0 Y650.0 
M3 S0
M5 S0
G0 X520.0 Y645.0 
M3 S255
G1 X520.0 Y645.0 
M3 S255
G1 X520.0 Y675.0 
M3 S0
G0 X520.0 Y700.0 
M3 S255
G1 X520.0 Y700.0 
M3 S255
G1 X520.0 Y765.0 
M3 S0
G0 X520.0 Y1030.0 
M3 S255
G1 X520.0 Y1030.0 
M3 S255
G1 X520.0 Y1045.0 
M3 S0
G0 X520.0 Y1145.0 
M3 S255
G1 X520.0 Y1145.0 
M3 S255
G1 X520.0 Y1160.0 
M3 S0
G0 X520.0 Y1185.0 
M3 S255
G1 X520.0 Y1185.0 
M3 S255
G1 X520.0 Y1205.0 
M3 S0
G0 X520.0 Y1665.0 
M3 S255
G1 X520.0 Y1665.0 
M3 S255
G1 X520.0 Y1690.0 
M3 S0
G0 X520.0 Y1695.0 
M3 S255
G1 X520.0 Y1695.0 
M3 S255
G1 X520.0 Y1710.0 
M3 S0
G0 X520.0 Y1720.0 
M3 S255
G1 X520.0 Y1720.0 
M3 S255
G1 X520.0 Y1725.0 
M3 S0
G0 X520.0 Y1855.0 
M3 S255
G1 X520.0 Y1855.0 
M3 S255
G1 X520.0 Y1870.0 
M3 S0
G0 X520.0 Y1935.0 
M3 S255
G1 X520.0 Y1935.0 
M3 S255
G1 X520.0 Y1950.0 
M3 S0
G0 X520.0 Y1995.0 
M3 S255
G1 X520.0 Y1995.0 
M3 S255
G1 X520.0 Y2005.0 
M3 S0
G0 X520.0 Y2070.0 
M3 S255
G1 X520.0 Y2070.0 
M3 S255
G1 X520.0 Y2075.0 
M3 S0
G0 X520.0 Y2125.0 
M3 S255
G1 X520.0 Y2125.0 
M3 S255
G1 X520.0 Y2135.0 
M3 S0
G0 X520.0 Y2560.0 
M3 S255
G1 X520.0 Y2560.0 
M3 S255
G1 X520.0 Y2575.0 
M3 S0
G0 X520.0 Y2610.0 
M3 S255
G1 X520.0 Y2610.0 
M3 S255
G1 X520.0 Y2625.0 
M3 S0
G0 X520.0 Y2660.0 
M3 S255
G1 X520.0 Y2660.0 
M3 S255
G1 X520.0 Y2675.0 
M3 S0
G0 X520.0 Y2745.0 
M3 S255
G1 X520.0 Y2745.0 
M3 S255
G1 X520.0 Y2760.0 
M3 S0
G0 X520.0 Y3310.0 
M3 S255
G1 X520.0 Y3310.0 
M3 S255
G1 X520.0 Y3345.0 
M3 S0
M5 S0
G0 X525.0 Y3350.0 
M3 S255
G1 X525.0 Y3350.0 
M3 S255
G1 X525.0 Y3320.0 
M3 S0
G0 X525.0 Y2755.0 
M3 S255
G1 X525.0 Y2755.0 
M3 S255
G1 X525.0 Y2740.0 
M3 S0
G0 X525.0 Y2670.0 
M3 S255
G1 X525.0 Y2670.0 
M3 S255
G1 X525.0 Y2655.0 
M3 S0
G0 X525.0 Y2615.0 
M3 S255
G1 X525.0 Y2615.0 
M3 S255
G1 X525.0 Y2605.0 
M3 S0
G0 X525.0 Y2565.0 
M3 S255
G1 X525.0 Y2565.0 
M3 S255
G1 X525.0 Y2550.0 
M3 S0
G0 X525.0 Y2135.0 
M3 S255
G1 X525.0 Y2135.0 
M3 S255
G1 X525.0 Y2125.0 
M3 S0
G0 X525.0 Y2075.0 
M3 S255
G1 X525.0 Y2075.0 
M3 S255
G1 X525.0 Y2070.0 
M3 S0
G0 X525.0 Y1950.0 
M3 S255
G1 X525.0 Y1950.0 
M3 S255
G1 X525.0 Y1935.0 
M3 S0
G0 X525.0 Y1870.0 
M3 S255
G1 X525.0 Y1870.0 
M3 S255
G1 X525.0 Y1855.0 
M3 S0
G0 X525.0 Y1725.0 
M3 S255
G1 X525.0 Y1725.0 
M3 S255
G1 X525.0 Y1720.0 
M3 S0
G0 X525.0 Y1710.0 
M3 S255
G1 X525.0 Y1710.0 
M3 S255
G1 X525.0 Y1695.0 
M3 S0
G0 X525.0 Y1685.0 
M3 S255
G1 X525.0 Y1685.0 
M3 S255
G1 X525.0 Y1665.0 
M3 S0
G0 X525.0 Y1210.0 
M3 S255
G1 X525.0 Y1210.0 
M3 S255
G1 X525.0 Y1190.0 
M3 S0
G0 X525.0 Y1160.0 
M3 S255
G1 X525.0 Y1160.0 
M3 S255
G1 X525.0 Y1145.0 
M3 S0
G0 X525.0 Y1055.0 
M3 S255
G1 X525.0 Y1055.0 
M3 S255
G1 X525.0 Y1035.0 
M3 S0
G0 X525.0 Y745.0 
M3 S255
G1 X525.0 Y745.0 
M3 S255
G1 X525.0 Y705.0 
M3 S0
G0 X525.0 Y670.0 
M3 S255
G1 X525.0 Y670.0 
M3 S255
G1 X525.0 Y640.0 
M3 S0
M5 S0
G0 X530.0 Y635.0 
M3 S255
G1 X530.0 Y635.0 
M3 S255
G1 X530.0 Y665.0 
M3 S0
G0 X530.0 Y715.0 
M3 S255
G1 X530.0 Y715.0 
M3 S255
G1 X530.0 Y735.0 
M3 S0
G0 X530.0 Y1040.0 
M3 S255
G1 X530.0 Y1040.0 
M3 S255
G1 X530.0 Y1055.0 
M3 S0
G0 X530.0 Y1150.0 
M3 S255
G1 X530.0 Y1150.0 
M3 S255
G1 X530.0 Y1160.0 
M3 S0
G0 X530.0 Y1190.0 
M3 S255
G1 X530.0 Y1190.0 
M3 S255
G1 X530.0 Y1215.0 
M3 S0
G0 X530.0 Y1665.0 
M3 S255
G1 X530.0 Y1665.0 
M3 S255
G1 X530.0 Y1680.0 
M3 S0
G0 X530.0 Y1695.0 
M3 S255
G1 X530.0 Y1695.0 
M3 S255
G1 X530.0 Y1710.0 
M3 S0
G0 X530.0 Y1720.0 
M3 S255
G1 X530.0 Y1720.0 
M3 S255
G1 X530.0 Y1725.0 
M3 S0
G0 X530.0 Y1865.0 
M3 S255
G1 X530.0 Y1865.0 
M3 S255
G1 X530.0 Y1875.0 
M3 S0
G0 X530.0 Y1930.0 
M3 S255
G1 X530.0 Y1930.0 
M3 S255
G1 X530.0 Y1950.0 
M3 S0
G0 X530.0 Y2070.0 
M3 S255
G1 X530.0 Y2070.0 
M3 S255
G1 X530.0 Y2075.0 
M3 S0
G0 X530.0 Y2125.0 
M3 S255
G1 X530.0 Y2125.0 
M3 S255
G1 X530.0 Y2135.0 
M3 S0
G0 X530.0 Y2550.0 
M3 S255
G1 X530.0 Y2550.0 
M3 S255
G1 X530.0 Y2565.0 
M3 S0
G0 X530.0 Y2600.0 
M3 S255
G1 X530.0 Y2600.0 
M3 S255
G1 X530.0 Y2610.0 
M3 S0
G0 X530.0 Y2655.0 
M3 S255
G1 X530.0 Y2655.0 
M3 S255
G1 X530.0 Y2670.0 
M3 S0
G0 X530.0 Y2740.0 
M3 S255
G1 X530.0 Y2740.0 
M3 S255
G1 X530.0 Y2755.0 
M3 S0
G0 X530.0 Y3325.0 
M3 S255
G1 X530.0 Y3325.0 
M3 S255
G1 X530.0 Y3355.0 
M3 S0
M5 S0
G0 X535.0 Y3360.0 
M3 S255
G1 X535.0 Y3360.0 
M3 S255
G1 X535.0 Y3330.0 
M3 S0
G0 X535.0 Y2755.0 
M3 S255
G1 X535.0 Y2755.0 
M3 S255
G1 X535.0 Y2735.0 
M3 S0
G0 X535.0 Y2670.0 
M3 S255
G1 X535.0 Y2670.0 
M3 S255
G1 X535.0 Y2655.0 
M3 S0
G0 X535.0 Y2605.0 
M3 S255
G1 X535.0 Y2605.0 
M3 S255
G1 X535.0 Y2595.0 
M3 S0
G0 X535.0 Y2565.0 
M3 S255
G1 X535.0 Y2565.0 
M3 S255
G1 X535.0 Y2545.0 
M3 S0
G0 X535.0 Y2135.0 
M3 S255
G1 X535.0 Y2135.0 
M3 S255
G1 X535.0 Y2125.0 
M3 S0
G0 X535.0 Y2075.0 
M3 S255
G1 X535.0 Y2075.0 
M3 S255
G1 X535.0 Y2070.0 
M3 S0
G0 X535.0 Y2005.0 
M3 S255
G1 X535.0 Y2005.0 
M3 S255
G1 X535.0 Y2000.0 
M3 S0
G0 X535.0 Y1945.0 
M3 S255
G1 X535.0 Y1945.0 
M3 S255
G1 X535.0 Y1930.0 
M3 S0
G0 X535.0 Y1880.0 
M3 S255
G1 X535.0 Y1880.0 
M3 S255
G1 X535.0 Y1865.0 
M3 S0
G0 X535.0 Y1725.0 
M3 S255
G1 X535.0 Y1725.0 
M3 S255
G1 X535.0 Y1720.0 
M3 S0
G0 X535.0 Y1705.0 
M3 S255
G1 X535.0 Y1705.0 
M3 S255
G1 X535.0 Y1695.0 
M3 S0
G0 X535.0 Y1680.0 
M3 S255
G1 X535.0 Y1680.0 
M3 S255
G1 X535.0 Y1665.0 
M3 S0
G0 X535.0 Y1220.0 
M3 S255
G1 X535.0 Y1220.0 
M3 S255
G1 X535.0 Y1195.0 
M3 S0
G0 X535.0 Y1160.0 
M3 S255
G1 X535.0 Y1160.0 
M3 S255
G1 X535.0 Y1150.0 
M3 S0
G0 X535.0 Y1060.0 
M3 S255
G1 X535.0 Y1060.0 
M3 S255
G1 X535.0 Y1045.0 
M3 S0
G0 X535.0 Y660.0 
M3 S255
G1 X535.0 Y660.0 
M3 S255
G1 X535.0 Y630.0 
M3 S0
M5 S0
G0 X540.0 Y625.0 
M3 S255
G1 X540.0 Y625.0 
M3 S255
G1 X540.0 Y630.0 
M3 S0
G0 X540.0 Y635.0 
M3 S255
G1 X540.0 Y635.0 
M3 S255
G1 X540.0 Y655.0 
M3 S0
G0 X540.0 Y1045.0 
M3 S255
G1 X540.0 Y1045.0 
M3 S255
G1 X540.0 Y1065.0 
M3 S0
G0 X540.0 Y1150.0 
M3 S255
G1 X540.0 Y1150.0 
M3 S255
G1 X540.0 Y1160.0 
M3 S0
G0 X540.0 Y1205.0 
M3 S255
G1 X540.0 Y1205.0 
M3 S255
G1 X540.0 Y1225.0 
M3 S0
G0 X540.0 Y1665.0 
M3 S255
G1 X540.0 Y1665.0 
M3 S255
G1 X540.0 Y1680.0 
M3 S0
G0 X540.0 Y1720.0 
M3 S255
G1 X540.0 Y1720.0 
M3 S255
G1 X540.0 Y1725.0 
M3 S0
G0 X540.0 Y1865.0 
M3 S255
G1 X540.0 Y1865.0 
M3 S255
G1 X540.0 Y1880.0 
M3 S0
