H5 S0 
F100
G0 Z0 ( for some grbl senders compatibility )
 
G0 X95.0 Y0.0 
M3 S255
G1 X95.0 Y0.0 
M3 S255
G1 X96.25 Y0.0 
M3 S0
M5 S0
G0 X116.5 Y0.25 
M3 S255
G1 X116.5 Y0.25 
M3 S255
G1 X112.5 Y0.25 
M3 S0
G0 X97.25 Y0.25 
M3 S255
G1 X97.25 Y0.25 
M3 S255
G1 X93.75 Y0.25 
M3 S0
M5 S0
G0 X93.25 Y0.5 
M3 S255
G1 X93.25 Y0.5 
M3 S255
G1 X104.25 Y0.5 
M3 S0
G0 X111.75 Y0.5 
M3 S255
G1 X111.75 Y0.5 
M3 S255
G1 X121.0 Y0.5 
M3 S0
M5 S0
G0 X122.25 Y0.75 
M3 S255
G1 X122.25 Y0.75 
M3 S255
G1 X111.5 Y0.75 
M3 S0
G0 X107.75 Y0.75 
M3 S255
G1 X107.75 Y0.75 
M3 S255
G1 X91.5 Y0.75 
M3 S0
M5 S0
G0 X87.25 Y1.0 
M3 S255
G1 X87.25 Y1.0 
M3 S255
G1 X113.5 Y1.0 
M3 S0
G0 X116.25 Y1.0 
M3 S255
G1 X116.25 Y1.0 
M3 S255
G1 X121.25 Y1.0 
M3 S0
G0 X121.75 Y1.0 
M3 S255
G1 X121.75 Y1.0 
M3 S255
G1 X123.25 Y1.0 
M3 S0
M5 S0
G0 X123.25 Y1.25 
M3 S255
G1 X123.25 Y1.25 
M3 S255
G1 X121.75 Y1.25 
M3 S0
G0 X121.5 Y1.25 
M3 S255
G1 X121.5 Y1.25 
M3 S255
G1 X121.25 Y1.25 
M3 S0
G0 X121.0 Y1.25 
M3 S255
G1 X121.0 Y1.25 
M3 S255
G1 X116.25 Y1.25 
M3 S0
G0 X113.5 Y1.25 
M3 S255
G1 X113.5 Y1.25 
M3 S255
G1 X87.25 Y1.25 
M3 S0
M5 S0
G0 X84.25 Y1.5 
M3 S255
G1 X84.25 Y1.5 
M3 S255
G1 X99.0 Y1.5 
M3 S0
G0 X100.0 Y1.5 
M3 S255
G1 X100.0 Y1.5 
M3 S255
G1 X101.25 Y1.5 
M3 S0
G0 X102.25 Y1.5 
M3 S255
G1 X102.25 Y1.5 
M3 S255
G1 X115.25 Y1.5 
M3 S0
G0 X118.75 Y1.5 
M3 S255
G1 X118.75 Y1.5 
M3 S255
G1 X119.25 Y1.5 
M3 S0
G0 X122.75 Y1.5 
M3 S255
G1 X122.75 Y1.5 
M3 S255
G1 X123.5 Y1.5 
M3 S0
M5 S0
G0 X124.0 Y1.75 
M3 S255
G1 X124.0 Y1.75 
M3 S255
G1 X123.25 Y1.75 
M3 S0
G0 X117.75 Y1.75 
M3 S255
G1 X117.75 Y1.75 
M3 S255
G1 X109.5 Y1.75 
M3 S0
G0 X106.0 Y1.75 
M3 S255
G1 X106.0 Y1.75 
M3 S255
G1 X104.0 Y1.75 
M3 S0
G0 X100.75 Y1.75 
M3 S255
G1 X100.75 Y1.75 
M3 S255
G1 X100.0 Y1.75 
M3 S0
G0 X99.5 Y1.75 
M3 S255
G1 X99.5 Y1.75 
M3 S255
G1 X96.5 Y1.75 
M3 S0
G0 X96.0 Y1.75 
M3 S255
G1 X96.0 Y1.75 
M3 S255
G1 X95.0 Y1.75 
M3 S0
G0 X94.75 Y1.75 
M3 S255
G1 X94.75 Y1.75 
M3 S255
G1 X93.75 Y1.75 
M3 S0
G0 X93.5 Y1.75 
M3 S255
G1 X93.5 Y1.75 
M3 S255
G1 X92.5 Y1.75 
M3 S0
G0 X92.25 Y1.75 
M3 S255
G1 X92.25 Y1.75 
M3 S255
G1 X91.25 Y1.75 
M3 S0
G0 X90.25 Y1.75 
M3 S255
G1 X90.25 Y1.75 
M3 S255
G1 X82.0 Y1.75 
M3 S0
M5 S0
G0 X81.75 Y2.0 
M3 S255
G1 X81.75 Y2.0 
M3 S255
G1 X90.5 Y2.0 
M3 S0
G0 X91.25 Y2.0 
M3 S255
G1 X91.25 Y2.0 
M3 S255
G1 X92.0 Y2.0 
M3 S0
G0 X92.5 Y2.0 
M3 S255
G1 X92.5 Y2.0 
M3 S255
G1 X93.5 Y2.0 
M3 S0
G0 X93.75 Y2.0 
M3 S255
G1 X93.75 Y2.0 
M3 S255
G1 X96.0 Y2.0 
M3 S0
G0 X96.5 Y2.0 
M3 S255
G1 X96.5 Y2.0 
M3 S255
G1 X99.5 Y2.0 
M3 S0
G0 X100.0 Y2.0 
M3 S255
G1 X100.0 Y2.0 
M3 S255
G1 X100.75 Y2.0 
M3 S0
G0 X104.25 Y2.0 
M3 S255
G1 X104.25 Y2.0 
M3 S255
G1 X106.25 Y2.0 
M3 S0
G0 X109.25 Y2.0 
M3 S255
G1 X109.25 Y2.0 
M3 S255
G1 X117.5 Y2.0 
M3 S0
G0 X123.25 Y2.0 
M3 S255
G1 X123.25 Y2.0 
M3 S255
G1 X124.0 Y2.0 
M3 S0
M5 S0
G0 X124.0 Y2.25 
M3 S255
G1 X124.0 Y2.25 
M3 S255
G1 X123.25 Y2.25 
M3 S0
G0 X119.75 Y2.25 
M3 S255
G1 X119.75 Y2.25 
M3 S255
G1 X113.25 Y2.25 
M3 S0
G0 X105.5 Y2.25 
M3 S255
G1 X105.5 Y2.25 
M3 S255
G1 X104.0 Y2.25 
M3 S0
G0 X100.75 Y2.25 
M3 S255
G1 X100.75 Y2.25 
M3 S255
G1 X98.75 Y2.25 
M3 S0
G0 X98.25 Y2.25 
M3 S255
G1 X98.25 Y2.25 
M3 S255
G1 X96.25 Y2.25 
M3 S0
G0 X95.5 Y2.25 
M3 S255
G1 X95.5 Y2.25 
M3 S255
G1 X94.0 Y2.25 
M3 S0
G0 X93.5 Y2.25 
M3 S255
G1 X93.5 Y2.25 
M3 S255
G1 X92.75 Y2.25 
M3 S0
G0 X92.0 Y2.25 
M3 S255
G1 X92.0 Y2.25 
M3 S255
G1 X91.25 Y2.25 
M3 S0
G0 X90.5 Y2.25 
M3 S255
G1 X90.5 Y2.25 
M3 S255
G1 X88.75 Y2.25 
M3 S0
G0 X86.25 Y2.25 
M3 S255
G1 X86.25 Y2.25 
M3 S255
G1 X79.75 Y2.25 
M3 S0
M5 S0
G0 X77.5 Y2.5 
M3 S255
G1 X77.5 Y2.5 
M3 S255
G1 X83.5 Y2.5 
M3 S0
G0 X88.75 Y2.5 
M3 S255
G1 X88.75 Y2.5 
M3 S255
G1 X90.5 Y2.5 
M3 S0
G0 X91.25 Y2.5 
M3 S255
G1 X91.25 Y2.5 
M3 S255
G1 X92.0 Y2.5 
M3 S0
G0 X92.75 Y2.5 
M3 S255
G1 X92.75 Y2.5 
M3 S255
G1 X93.5 Y2.5 
M3 S0
G0 X94.0 Y2.5 
M3 S255
G1 X94.0 Y2.5 
M3 S255
G1 X95.0 Y2.5 
M3 S0
G0 X96.0 Y2.5 
M3 S255
G1 X96.0 Y2.5 
M3 S255
G1 X98.25 Y2.5 
M3 S0
G0 X99.0 Y2.5 
M3 S255
G1 X99.0 Y2.5 
M3 S255
G1 X100.75 Y2.5 
M3 S0
G0 X116.0 Y2.5 
M3 S255
G1 X116.0 Y2.5 
M3 S255
G1 X122.0 Y2.5 
M3 S0
G0 X122.75 Y2.5 
M3 S255
G1 X122.75 Y2.5 
M3 S255
G1 X123.5 Y2.5 
M3 S0
M5 S0
G0 X123.5 Y2.75 
M3 S255
G1 X123.5 Y2.75 
M3 S255
G1 X122.75 Y2.75 
M3 S0
G0 X122.0 Y2.75 
M3 S255
G1 X122.0 Y2.75 
M3 S255
G1 X116.0 Y2.75 
M3 S0
G0 X100.75 Y2.75 
M3 S255
G1 X100.75 Y2.75 
M3 S255
G1 X99.0 Y2.75 
M3 S0
G0 X98.25 Y2.75 
M3 S255
G1 X98.25 Y2.75 
M3 S255
G1 X96.0 Y2.75 
M3 S0
G0 X94.75 Y2.75 
M3 S255
G1 X94.75 Y2.75 
M3 S255
G1 X94.0 Y2.75 
M3 S0
G0 X93.5 Y2.75 
M3 S255
G1 X93.5 Y2.75 
M3 S255
G1 X92.75 Y2.75 
M3 S0
G0 X92.0 Y2.75 
M3 S255
G1 X92.0 Y2.75 
M3 S255
G1 X91.25 Y2.75 
M3 S0
G0 X90.5 Y2.75 
M3 S255
G1 X90.5 Y2.75 
M3 S255
G1 X88.75 Y2.75 
M3 S0
G0 X83.5 Y2.75 
M3 S255
G1 X83.5 Y2.75 
M3 S255
G1 X77.5 Y2.75 
M3 S0
M5 S0
G0 X76.0 Y3.0 
M3 S255
G1 X76.0 Y3.0 
M3 S255
G1 X81.0 Y3.0 
M3 S0
G0 X88.75 Y3.0 
M3 S255
G1 X88.75 Y3.0 
M3 S255
G1 X90.5 Y3.0 
M3 S0
G0 X91.25 Y3.0 
M3 S255
G1 X91.25 Y3.0 
M3 S255
G1 X92.0 Y3.0 
M3 S0
G0 X92.75 Y3.0 
M3 S255
G1 X92.75 Y3.0 
M3 S255
G1 X93.5 Y3.0 
M3 S0
G0 X93.75 Y3.0 
M3 S255
G1 X93.75 Y3.0 
M3 S255
G1 X95.25 Y3.0 
M3 S0
G0 X96.0 Y3.0 
M3 S255
G1 X96.0 Y3.0 
M3 S255
G1 X98.0 Y3.0 
M3 S0
G0 X98.25 Y3.0 
M3 S255
G1 X98.25 Y3.0 
M3 S255
G1 X99.0 Y3.0 
M3 S0
G0 X100.0 Y3.0 
M3 S255
G1 X100.0 Y3.0 
M3 S255
G1 X100.75 Y3.0 
M3 S0
G0 X114.75 Y3.0 
M3 S255
G1 X114.75 Y3.0 
M3 S255
G1 X115.25 Y3.0 
M3 S0
G0 X118.5 Y3.0 
M3 S255
G1 X118.5 Y3.0 
M3 S255
G1 X123.5 Y3.0 
M3 S0
M5 S0
G0 X124.25 Y3.25 
M3 S255
G1 X124.25 Y3.25 
M3 S255
G1 X118.75 Y3.25 
M3 S0
G0 X115.25 Y3.25 
M3 S255
G1 X115.25 Y3.25 
M3 S255
G1 X114.5 Y3.25 
M3 S0
G0 X100.75 Y3.25 
M3 S255
G1 X100.75 Y3.25 
M3 S255
G1 X99.5 Y3.25 
M3 S0
G0 X98.0 Y3.25 
M3 S255
G1 X98.0 Y3.25 
M3 S255
G1 X97.5 Y3.25 
M3 S0
G0 X96.75 Y3.25 
M3 S255
G1 X96.75 Y3.25 
M3 S255
G1 X92.5 Y3.25 
M3 S0
G0 X91.75 Y3.25 
M3 S255
G1 X91.75 Y3.25 
M3 S255
G1 X91.25 Y3.25 
M3 S0
G0 X89.75 Y3.25 
M3 S255
G1 X89.75 Y3.25 
M3 S255
G1 X88.75 Y3.25 
M3 S0
G0 X80.0 Y3.25 
M3 S255
G1 X80.0 Y3.25 
M3 S255
G1 X75.25 Y3.25 
M3 S0
M5 S0
G0 X74.25 Y3.5 
M3 S255
G1 X74.25 Y3.5 
M3 S255
G1 X79.25 Y3.5 
M3 S0
G0 X88.75 Y3.5 
M3 S255
G1 X88.75 Y3.5 
M3 S255
G1 X89.75 Y3.5 
M3 S0
G0 X91.0 Y3.5 
M3 S255
G1 X91.0 Y3.5 
M3 S255
G1 X91.75 Y3.5 
M3 S0
G0 X92.5 Y3.5 
M3 S255
G1 X92.5 Y3.5 
M3 S255
G1 X94.25 Y3.5 
M3 S0
G0 X94.75 Y3.5 
M3 S255
G1 X94.75 Y3.5 
M3 S255
G1 X96.75 Y3.5 
M3 S0
G0 X97.5 Y3.5 
M3 S255
G1 X97.5 Y3.5 
M3 S255
G1 X98.25 Y3.5 
M3 S0
G0 X98.75 Y3.5 
M3 S255
G1 X98.75 Y3.5 
M3 S255
G1 X100.5 Y3.5 
M3 S0
G0 X114.25 Y3.5 
M3 S255
G1 X114.25 Y3.5 
M3 S255
G1 X115.0 Y3.5 
M3 S0
G0 X117.5 Y3.5 
M3 S255
G1 X117.5 Y3.5 
M3 S255
G1 X125.0 Y3.5 
M3 S0
M5 S0
G0 X126.75 Y3.75 
M3 S255
G1 X126.75 Y3.75 
M3 S255
G1 X125.5 Y3.75 
M3 S0
G0 X124.75 Y3.75 
M3 S255
G1 X124.75 Y3.75 
M3 S255
G1 X122.25 Y3.75 
M3 S0
G0 X120.25 Y3.75 
M3 S255
G1 X120.25 Y3.75 
M3 S255
G1 X116.0 Y3.75 
M3 S0
G0 X114.0 Y3.75 
M3 S255
G1 X114.0 Y3.75 
M3 S255
G1 X113.25 Y3.75 
M3 S0
G0 X100.5 Y3.75 
M3 S255
G1 X100.5 Y3.75 
M3 S255
G1 X97.5 Y3.75 
M3 S0
G0 X95.5 Y3.75 
M3 S255
G1 X95.5 Y3.75 
M3 S255
G1 X95.25 Y3.75 
M3 S0
G0 X93.5 Y3.75 
M3 S255
G1 X93.5 Y3.75 
M3 S255
G1 X92.5 Y3.75 
M3 S0
G0 X89.5 Y3.75 
M3 S255
G1 X89.5 Y3.75 
M3 S255
G1 X88.75 Y3.75 
M3 S0
G0 X77.25 Y3.75 
M3 S255
G1 X77.25 Y3.75 
M3 S255
G1 X72.75 Y3.75 
M3 S0
M5 S0
G0 X72.25 Y4.0 
M3 S255
G1 X72.25 Y4.0 
M3 S255
G1 X76.25 Y4.0 
M3 S0
G0 X88.75 Y4.0 
M3 S255
G1 X88.75 Y4.0 
M3 S255
G1 X89.5 Y4.0 
M3 S0
G0 X97.5 Y4.0 
M3 S255
G1 X97.5 Y4.0 
M3 S255
G1 X100.75 Y4.0 
M3 S0
G0 X113.25 Y4.0 
M3 S255
G1 X113.25 Y4.0 
M3 S255
G1 X113.5 Y4.0 
M3 S0
G0 X115.5 Y4.0 
M3 S255
G1 X115.5 Y4.0 
M3 S255
G1 X119.25 Y4.0 
M3 S0
G0 X123.25 Y4.0 
M3 S255
G1 X123.25 Y4.0 
M3 S255
G1 X124.5 Y4.0 
M3 S0
G0 X125.5 Y4.0 
M3 S255
G1 X125.5 Y4.0 
M3 S255
G1 X127.25 Y4.0 
M3 S0
M5 S0
G0 X128.0 Y4.25 
M3 S255
G1 X128.0 Y4.25 
M3 S255
G1 X125.25 Y4.25 
M3 S0
G0 X124.25 Y4.25 
M3 S255
G1 X124.25 Y4.25 
M3 S255
G1 X124.0 Y4.25 
M3 S0
G0 X117.25 Y4.25 
M3 S255
G1 X117.25 Y4.25 
M3 S255
G1 X114.75 Y4.25 
M3 S0
G0 X100.75 Y4.25 
M3 S255
G1 X100.75 Y4.25 
M3 S255
G1 X100.0 Y4.25 
M3 S0
G0 X99.0 Y4.25 
M3 S255
G1 X99.0 Y4.25 
M3 S255
G1 X97.5 Y4.25 
M3 S0
G0 X89.5 Y4.25 
M3 S255
G1 X89.5 Y4.25 
M3 S255
G1 X88.75 Y4.25 
M3 S0
G0 X75.5 Y4.25 
M3 S255
G1 X75.5 Y4.25 
M3 S255
G1 X71.5 Y4.25 
M3 S0
M5 S0
G0 X70.0 Y4.5 
M3 S255
G1 X70.0 Y4.5 
M3 S255
G1 X74.0 Y4.5 
M3 S0
G0 X88.75 Y4.5 
M3 S255
G1 X88.75 Y4.5 
M3 S255
G1 X89.5 Y4.5 
M3 S0
G0 X97.5 Y4.5 
M3 S255
G1 X97.5 Y4.5 
M3 S255
G1 X98.75 Y4.5 
M3 S0
G0 X100.0 Y4.5 
M3 S255
G1 X100.0 Y4.5 
M3 S255
G1 X100.75 Y4.5 
M3 S0
G0 X104.25 Y4.5 
M3 S255
G1 X104.25 Y4.5 
M3 S255
G1 X104.5 Y4.5 
M3 S0
G0 X114.0 Y4.5 
M3 S255
G1 X114.0 Y4.5 
M3 S255
G1 X115.75 Y4.5 
M3 S0
G0 X125.5 Y4.5 
M3 S255
G1 X125.5 Y4.5 
M3 S255
G1 X129.0 Y4.5 
M3 S0
M5 S0
G0 X129.0 Y4.75 
M3 S255
G1 X129.0 Y4.75 
M3 S255
G1 X126.25 Y4.75 
M3 S0
G0 X115.5 Y4.75 
M3 S255
G1 X115.5 Y4.75 
M3 S255
G1 X113.5 Y4.75 
M3 S0
G0 X104.75 Y4.75 
M3 S255
G1 X104.75 Y4.75 
M3 S255
G1 X104.25 Y4.75 
M3 S0
G0 X101.25 Y4.75 
M3 S255
G1 X101.25 Y4.75 
M3 S255
G1 X100.0 Y4.75 
M3 S0
G0 X98.25 Y4.75 
M3 S255
G1 X98.25 Y4.75 
M3 S255
G1 X97.5 Y4.75 
M3 S0
G0 X92.5 Y4.75 
M3 S255
G1 X92.5 Y4.75 
M3 S255
G1 X92.0 Y4.75 
M3 S0
G0 X90.75 Y4.75 
M3 S255
G1 X90.75 Y4.75 
M3 S255
G1 X90.5 Y4.75 
M3 S0
G0 X89.5 Y4.75 
M3 S255
G1 X89.5 Y4.75 
M3 S255
G1 X88.75 Y4.75 
M3 S0
G0 X73.25 Y4.75 
M3 S255
G1 X73.25 Y4.75 
M3 S255
G1 X69.25 Y4.75 
M3 S0
M5 S0
G0 X68.75 Y5.0 
M3 S255
G1 X68.75 Y5.0 
M3 S255
G1 X72.75 Y5.0 
M3 S0
G0 X88.75 Y5.0 
M3 S255
G1 X88.75 Y5.0 
M3 S255
G1 X89.5 Y5.0 
M3 S0
G0 X90.25 Y5.0 
M3 S255
G1 X90.25 Y5.0 
M3 S255
G1 X91.0 Y5.0 
M3 S0
G0 X92.0 Y5.0 
M3 S255
G1 X92.0 Y5.0 
M3 S255
G1 X92.5 Y5.0 
M3 S0
G0 X97.5 Y5.0 
M3 S255
G1 X97.5 Y5.0 
M3 S255
G1 X98.25 Y5.0 
M3 S0
G0 X100.0 Y5.0 
M3 S255
G1 X100.0 Y5.0 
M3 S255
G1 X101.25 Y5.0 
M3 S0
G0 X104.25 Y5.0 
M3 S255
G1 X104.25 Y5.0 
M3 S255
G1 X104.75 Y5.0 
M3 S0
G0 X113.25 Y5.0 
M3 S255
G1 X113.25 Y5.0 
M3 S255
G1 X115.0 Y5.0 
M3 S0
G0 X126.75 Y5.0 
M3 S255
G1 X126.75 Y5.0 
M3 S255
G1 X129.0 Y5.0 
M3 S0
M5 S0
G0 X129.0 Y5.25 
M3 S255
G1 X129.0 Y5.25 
M3 S255
G1 X127.5 Y5.25 
M3 S0
G0 X114.5 Y5.25 
M3 S255
G1 X114.5 Y5.25 
M3 S255
G1 X112.75 Y5.25 
M3 S0
G0 X104.75 Y5.25 
M3 S255
G1 X104.75 Y5.25 
M3 S255
G1 X104.25 Y5.25 
M3 S0
G0 X101.25 Y5.25 
M3 S255
G1 X101.25 Y5.25 
M3 S255
G1 X100.0 Y5.25 
M3 S0
G0 X98.25 Y5.25 
M3 S255
G1 X98.25 Y5.25 
M3 S255
G1 X97.25 Y5.25 
M3 S0
G0 X91.0 Y5.25 
M3 S255
G1 X91.0 Y5.25 
M3 S255
G1 X90.25 Y5.25 
M3 S0
G0 X89.5 Y5.25 
M3 S255
G1 X89.5 Y5.25 
M3 S255
G1 X88.75 Y5.25 
M3 S0
G0 X72.0 Y5.25 
M3 S255
G1 X72.0 Y5.25 
M3 S255
G1 X70.25 Y5.25 
M3 S0
G0 X69.75 Y5.25 
M3 S255
G1 X69.75 Y5.25 
M3 S255
G1 X68.25 Y5.25 
M3 S0
M5 S0
G0 X67.0 Y5.5 
M3 S255
G1 X67.0 Y5.5 
M3 S255
G1 X69.5 Y5.5 
M3 S0
G0 X88.75 Y5.5 
M3 S255
G1 X88.75 Y5.5 
M3 S255
G1 X89.5 Y5.5 
M3 S0
G0 X90.0 Y5.5 
M3 S255
G1 X90.0 Y5.5 
M3 S255
G1 X90.75 Y5.5 
M3 S0
G0 X97.25 Y5.5 
M3 S255
G1 X97.25 Y5.5 
M3 S255
G1 X98.0 Y5.5 
M3 S0
G0 X100.25 Y5.5 
M3 S255
G1 X100.25 Y5.5 
M3 S255
G1 X101.25 Y5.5 
M3 S0
G0 X102.25 Y5.5 
M3 S255
G1 X102.25 Y5.5 
M3 S255
G1 X103.5 Y5.5 
M3 S0
G0 X104.25 Y5.5 
M3 S255
G1 X104.25 Y5.5 
M3 S255
G1 X105.0 Y5.5 
M3 S0
G0 X112.0 Y5.5 
M3 S255
G1 X112.0 Y5.5 
M3 S255
G1 X113.5 Y5.5 
M3 S0
G0 X132.0 Y5.5 
M3 S255
G1 X132.0 Y5.5 
M3 S255
G1 X132.5 Y5.5 
M3 S0
M5 S0
G0 X133.0 Y5.75 
M3 S255
G1 X133.0 Y5.75 
M3 S255
G1 X132.25 Y5.75 
M3 S0
G0 X113.25 Y5.75 
M3 S255
G1 X113.25 Y5.75 
M3 S255
G1 X111.75 Y5.75 
M3 S0
G0 X105.0 Y5.75 
M3 S255
G1 X105.0 Y5.75 
M3 S255
G1 X104.25 Y5.75 
M3 S0
G0 X103.5 Y5.75 
M3 S255
G1 X103.5 Y5.75 
M3 S255
G1 X102.25 Y5.75 
M3 S0
G0 X101.25 Y5.75 
M3 S255
G1 X101.25 Y5.75 
M3 S255
G1 X100.25 Y5.75 
M3 S0
G0 X98.0 Y5.75 
M3 S255
G1 X98.0 Y5.75 
M3 S255
G1 X97.25 Y5.75 
M3 S0
G0 X90.75 Y5.75 
M3 S255
G1 X90.75 Y5.75 
M3 S255
G1 X90.0 Y5.75 
M3 S0
G0 X89.5 Y5.75 
M3 S255
G1 X89.5 Y5.75 
M3 S255
G1 X88.75 Y5.75 
M3 S0
G0 X69.25 Y5.75 
M3 S255
G1 X69.25 Y5.75 
M3 S255
G1 X66.75 Y5.75 
M3 S0
M5 S0
G0 X66.0 Y6.0 
M3 S255
G1 X66.0 Y6.0 
M3 S255
G1 X69.0 Y6.0 
M3 S0
G0 X88.75 Y6.0 
M3 S255
G1 X88.75 Y6.0 
M3 S255
G1 X89.5 Y6.0 
M3 S0
G0 X90.0 Y6.0 
M3 S255
G1 X90.0 Y6.0 
M3 S255
G1 X90.5 Y6.0 
M3 S0
G0 X97.0 Y6.0 
M3 S255
G1 X97.0 Y6.0 
M3 S255
G1 X98.0 Y6.0 
M3 S0
G0 X100.5 Y6.0 
M3 S255
G1 X100.5 Y6.0 
M3 S255
G1 X101.25 Y6.0 
M3 S0
G0 X102.0 Y6.0 
M3 S255
G1 X102.0 Y6.0 
M3 S255
G1 X103.25 Y6.0 
M3 S0
G0 X104.5 Y6.0 
M3 S255
G1 X104.5 Y6.0 
M3 S255
G1 X105.0 Y6.0 
M3 S0
G0 X111.5 Y6.0 
M3 S255
G1 X111.5 Y6.0 
M3 S255
G1 X112.5 Y6.0 
M3 S0
G0 X132.25 Y6.0 
M3 S255
G1 X132.25 Y6.0 
M3 S255
G1 X133.5 Y6.0 
M3 S0
M5 S0
G0 X134.5 Y6.25 
M3 S255
G1 X134.5 Y6.25 
M3 S255
G1 X132.75 Y6.25 
M3 S0
G0 X112.0 Y6.25 
M3 S255
G1 X112.0 Y6.25 
M3 S255
G1 X110.75 Y6.25 
M3 S0
G0 X102.75 Y6.25 
M3 S255
G1 X102.75 Y6.25 
M3 S255
G1 X102.0 Y6.25 
M3 S0
G0 X101.5 Y6.25 
M3 S255
G1 X101.5 Y6.25 
M3 S255
G1 X100.5 Y6.25 
M3 S0
G0 X97.5 Y6.25 
M3 S255
G1 X97.5 Y6.25 
M3 S255
G1 X96.75 Y6.25 
M3 S0
G0 X90.5 Y6.25 
M3 S255
G1 X90.5 Y6.25 
M3 S255
G1 X89.0 Y6.25 
M3 S0
G0 X68.0 Y6.25 
M3 S255
G1 X68.0 Y6.25 
M3 S255
G1 X64.75 Y6.25 
M3 S0
M5 S0
G0 X63.75 Y6.5 
M3 S255
G1 X63.75 Y6.5 
M3 S255
G1 X66.75 Y6.5 
M3 S0
G0 X89.25 Y6.5 
M3 S255
G1 X89.25 Y6.5 
M3 S255
G1 X91.25 Y6.5 
M3 S0
G0 X96.5 Y6.5 
M3 S255
G1 X96.5 Y6.5 
M3 S255
G1 X97.5 Y6.5 
M3 S0
G0 X100.5 Y6.5 
M3 S255
G1 X100.5 Y6.5 
M3 S255
G1 X101.5 Y6.5 
M3 S0
G0 X102.0 Y6.5 
M3 S255
G1 X102.0 Y6.5 
M3 S255
G1 X102.75 Y6.5 
M3 S0
G0 X110.25 Y6.5 
M3 S255
G1 X110.25 Y6.5 
M3 S255
G1 X111.25 Y6.5 
M3 S0
G0 X133.0 Y6.5 
M3 S255
G1 X133.0 Y6.5 
M3 S255
G1 X135.75 Y6.5 
M3 S0
M5 S0
G0 X135.75 Y6.75 
M3 S255
G1 X135.75 Y6.75 
M3 S255
G1 X133.25 Y6.75 
M3 S0
G0 X111.25 Y6.75 
M3 S255
G1 X111.25 Y6.75 
M3 S255
G1 X110.25 Y6.75 
M3 S0
G0 X102.75 Y6.75 
M3 S255
G1 X102.75 Y6.75 
M3 S255
G1 X102.0 Y6.75 
M3 S0
G0 X101.5 Y6.75 
M3 S255
G1 X101.5 Y6.75 
M3 S255
G1 X100.5 Y6.75 
M3 S0
G0 X97.5 Y6.75 
M3 S255
G1 X97.5 Y6.75 
M3 S255
G1 X96.5 Y6.75 
M3 S0
G0 X91.25 Y6.75 
M3 S255
G1 X91.25 Y6.75 
M3 S255
G1 X89.25 Y6.75 
M3 S0
G0 X66.75 Y6.75 
M3 S255
G1 X66.75 Y6.75 
M3 S255
G1 X63.75 Y6.75 
M3 S0
M5 S0
G0 X62.75 Y7.0 
M3 S255
G1 X62.75 Y7.0 
M3 S255
G1 X65.75 Y7.0 
M3 S0
G0 X89.25 Y7.0 
M3 S255
G1 X89.25 Y7.0 
M3 S255
G1 X90.0 Y7.0 
M3 S0
G0 X90.5 Y7.0 
M3 S255
G1 X90.5 Y7.0 
M3 S255
G1 X91.25 Y7.0 
M3 S0
G0 X96.25 Y7.0 
M3 S255
G1 X96.25 Y7.0 
M3 S255
G1 X97.25 Y7.0 
M3 S0
G0 X100.75 Y7.0 
M3 S255
G1 X100.75 Y7.0 
M3 S255
G1 X101.5 Y7.0 
M3 S0
G0 X102.0 Y7.0 
M3 S255
G1 X102.0 Y7.0 
M3 S255
G1 X102.25 Y7.0 
M3 S0
G0 X109.75 Y7.0 
M3 S255
G1 X109.75 Y7.0 
M3 S255
G1 X110.75 Y7.0 
M3 S0
G0 X133.75 Y7.0 
M3 S255
G1 X133.75 Y7.0 
M3 S255
G1 X136.75 Y7.0 
M3 S0
M5 S0
G0 X137.25 Y7.25 
M3 S255
G1 X137.25 Y7.25 
M3 S255
G1 X134.25 Y7.25 
M3 S0
G0 X110.5 Y7.25 
M3 S255
G1 X110.5 Y7.25 
M3 S255
G1 X109.5 Y7.25 
M3 S0
G0 X102.25 Y7.25 
M3 S255
G1 X102.25 Y7.25 
M3 S255
G1 X102.0 Y7.25 
M3 S0
G0 X101.5 Y7.25 
M3 S255
G1 X101.5 Y7.25 
M3 S255
G1 X100.75 Y7.25 
M3 S0
G0 X97.25 Y7.25 
M3 S255
G1 X97.25 Y7.25 
M3 S255
G1 X96.25 Y7.25 
M3 S0
G0 X93.25 Y7.25 
M3 S255
G1 X93.25 Y7.25 
M3 S255
G1 X92.75 Y7.25 
M3 S0
G0 X91.5 Y7.25 
M3 S255
G1 X91.5 Y7.25 
M3 S255
G1 X90.5 Y7.25 
M3 S0
G0 X90.0 Y7.25 
M3 S255
G1 X90.0 Y7.25 
M3 S255
G1 X89.25 Y7.25 
M3 S0
G0 X65.25 Y7.25 
M3 S255
G1 X65.25 Y7.25 
M3 S255
G1 X62.25 Y7.25 
M3 S0
M5 S0
G0 X61.75 Y7.5 
M3 S255
G1 X61.75 Y7.5 
M3 S255
G1 X64.75 Y7.5 
M3 S0
G0 X89.5 Y7.5 
M3 S255
G1 X89.5 Y7.5 
M3 S255
G1 X90.0 Y7.5 
M3 S0
G0 X90.75 Y7.5 
M3 S255
G1 X90.75 Y7.5 
M3 S255
G1 X91.5 Y7.5 
M3 S0
G0 X92.5 Y7.5 
M3 S255
G1 X92.5 Y7.5 
M3 S255
G1 X93.25 Y7.5 
M3 S0
G0 X96.25 Y7.5 
M3 S255
G1 X96.25 Y7.5 
M3 S255
G1 X97.25 Y7.5 
M3 S0
G0 X100.75 Y7.5 
M3 S255
G1 X100.75 Y7.5 
M3 S255
G1 X101.5 Y7.5 
M3 S0
G0 X102.0 Y7.5 
M3 S255
G1 X102.0 Y7.5 
M3 S255
G1 X102.25 Y7.5 
M3 S0
G0 X109.25 Y7.5 
M3 S255
G1 X109.25 Y7.5 
M3 S255
G1 X110.25 Y7.5 
M3 S0
G0 X134.75 Y7.5 
M3 S255
G1 X134.75 Y7.5 
M3 S255
G1 X137.5 Y7.5 
M3 S0
M5 S0
G0 X138.75 Y7.75 
M3 S255
G1 X138.75 Y7.75 
M3 S255
G1 X136.0 Y7.75 
M3 S0
G0 X110.0 Y7.75 
M3 S255
G1 X110.0 Y7.75 
M3 S255
G1 X108.75 Y7.75 
M3 S0
G0 X106.0 Y7.75 
M3 S255
G1 X106.0 Y7.75 
M3 S255
G1 X105.75 Y7.75 
M3 S0
G0 X104.75 Y7.75 
M3 S255
G1 X104.75 Y7.75 
M3 S255
G1 X104.25 Y7.75 
M3 S0
G0 X102.25 Y7.75 
M3 S255
G1 X102.25 Y7.75 
M3 S255
G1 X102.0 Y7.75 
M3 S0
G0 X101.5 Y7.75 
M3 S255
G1 X101.5 Y7.75 
M3 S255
G1 X100.75 Y7.75 
M3 S0
G0 X97.25 Y7.75 
M3 S255
G1 X97.25 Y7.75 
M3 S255
G1 X96.25 Y7.75 
M3 S0
G0 X94.25 Y7.75 
M3 S255
G1 X94.25 Y7.75 
M3 S255
G1 X94.0 Y7.75 
M3 S0
G0 X93.25 Y7.75 
M3 S255
G1 X93.25 Y7.75 
M3 S255
G1 X92.5 Y7.75 
M3 S0
G0 X91.25 Y7.75 
M3 S255
G1 X91.25 Y7.75 
M3 S255
G1 X91.0 Y7.75 
M3 S0
G0 X90.25 Y7.75 
M3 S255
G1 X90.25 Y7.75 
M3 S255
G1 X89.5 Y7.75 
M3 S0
G0 X63.5 Y7.75 
M3 S255
G1 X63.5 Y7.75 
M3 S255
G1 X60.75 Y7.75 
M3 S0
M5 S0
G0 X60.25 Y8.0 
M3 S255
G1 X60.25 Y8.0 
M3 S255
G1 X63.25 Y8.0 
M3 S0
G0 X89.5 Y8.0 
M3 S255
G1 X89.5 Y8.0 
M3 S255
G1 X90.25 Y8.0 
M3 S0
G0 X92.5 Y8.0 
M3 S255
G1 X92.5 Y8.0 
M3 S255
G1 X92.75 Y8.0 
M3 S0
G0 X93.75 Y8.0 
M3 S255
G1 X93.75 Y8.0 
M3 S255
G1 X95.25 Y8.0 
M3 S0
G0 X96.25 Y8.0 
M3 S255
G1 X96.25 Y8.0 
M3 S255
G1 X97.25 Y8.0 
M3 S0
G0 X100.5 Y8.0 
M3 S255
G1 X100.5 Y8.0 
M3 S255
G1 X101.25 Y8.0 
M3 S0
G0 X101.5 Y8.0 
M3 S255
G1 X101.5 Y8.0 
M3 S255
G1 X102.25 Y8.0 
M3 S0
G0 X104.25 Y8.0 
M3 S255
G1 X104.25 Y8.0 
M3 S255
G1 X104.75 Y8.0 
M3 S0
G0 X105.5 Y8.0 
M3 S255
G1 X105.5 Y8.0 
M3 S255
G1 X106.0 Y8.0 
M3 S0
G0 X108.75 Y8.0 
M3 S255
G1 X108.75 Y8.0 
M3 S255
G1 X109.75 Y8.0 
M3 S0
G0 X136.25 Y8.0 
M3 S255
G1 X136.25 Y8.0 
M3 S255
G1 X139.25 Y8.0 
M3 S0
M5 S0
G0 X139.5 Y8.25 
M3 S255
G1 X139.5 Y8.25 
M3 S255
G1 X136.75 Y8.25 
M3 S0
G0 X109.5 Y8.25 
M3 S255
G1 X109.5 Y8.25 
M3 S255
G1 X108.5 Y8.25 
M3 S0
G0 X106.0 Y8.25 
M3 S255
G1 X106.0 Y8.25 
M3 S255
G1 X105.25 Y8.25 
M3 S0
G0 X104.5 Y8.25 
M3 S255
G1 X104.5 Y8.25 
M3 S255
G1 X104.25 Y8.25 
M3 S0
G0 X102.0 Y8.25 
M3 S255
G1 X102.0 Y8.25 
M3 S255
G1 X101.5 Y8.25 
M3 S0
G0 X101.25 Y8.25 
M3 S255
G1 X101.25 Y8.25 
M3 S255
G1 X100.5 Y8.25 
M3 S0
G0 X97.25 Y8.25 
M3 S255
G1 X97.25 Y8.25 
M3 S255
G1 X96.25 Y8.25 
M3 S0
G0 X95.25 Y8.25 
M3 S255
G1 X95.25 Y8.25 
M3 S255
G1 X93.75 Y8.25 
M3 S0
G0 X92.75 Y8.25 
M3 S255
G1 X92.75 Y8.25 
M3 S255
G1 X92.5 Y8.25 
M3 S0
G0 X90.25 Y8.25 
M3 S255
G1 X90.25 Y8.25 
M3 S255
G1 X89.5 Y8.25 
M3 S0
G0 X62.75 Y8.25 
M3 S255
G1 X62.75 Y8.25 
M3 S255
G1 X59.75 Y8.25 
M3 S0
M5 S0
G0 X59.0 Y8.5 
M3 S255
G1 X59.0 Y8.5 
M3 S255
G1 X61.75 Y8.5 
M3 S0
G0 X89.5 Y8.5 
M3 S255
G1 X89.5 Y8.5 
M3 S255
G1 X90.25 Y8.5 
M3 S0
G0 X93.5 Y8.5 
M3 S255
G1 X93.5 Y8.5 
M3 S255
G1 X94.25 Y8.5 
M3 S0
G0 X94.75 Y8.5 
M3 S255
G1 X94.75 Y8.5 
M3 S255
G1 X95.0 Y8.5 
M3 S0
G0 X96.25 Y8.5 
M3 S255
G1 X96.25 Y8.5 
M3 S255
G1 X97.25 Y8.5 
M3 S0
G0 X100.25 Y8.5 
M3 S255
G1 X100.25 Y8.5 
M3 S255
G1 X101.25 Y8.5 
M3 S0
G0 X101.5 Y8.5 
M3 S255
G1 X101.5 Y8.5 
M3 S255
G1 X102.0 Y8.5 
M3 S0
G0 X104.25 Y8.5 
M3 S255
G1 X104.25 Y8.5 
M3 S255
G1 X104.5 Y8.5 
M3 S0
G0 X105.25 Y8.5 
M3 S255
G1 X105.25 Y8.5 
M3 S255
G1 X105.75 Y8.5 
M3 S0
G0 X107.25 Y8.5 
M3 S255
G1 X107.25 Y8.5 
M3 S255
G1 X107.5 Y8.5 
M3 S0
G0 X108.25 Y8.5 
M3 S255
G1 X108.25 Y8.5 
M3 S255
G1 X109.25 Y8.5 
M3 S0
G0 X137.75 Y8.5 
M3 S255
G1 X137.75 Y8.5 
M3 S255
G1 X140.5 Y8.5 
M3 S0
M5 S0
G0 X140.75 Y8.75 
M3 S255
G1 X140.75 Y8.75 
M3 S255
G1 X138.25 Y8.75 
M3 S0
G0 X109.0 Y8.75 
M3 S255
G1 X109.0 Y8.75 
M3 S255
G1 X108.25 Y8.75 
M3 S0
G0 X107.5 Y8.75 
M3 S255
G1 X107.5 Y8.75 
M3 S255
G1 X107.0 Y8.75 
M3 S0
G0 X105.75 Y8.75 
M3 S255
G1 X105.75 Y8.75 
M3 S255
G1 X105.25 Y8.75 
M3 S0
G0 X104.5 Y8.75 
M3 S255
G1 X104.5 Y8.75 
M3 S255
G1 X104.25 Y8.75 
M3 S0
G0 X102.0 Y8.75 
M3 S255
G1 X102.0 Y8.75 
M3 S255
G1 X101.5 Y8.75 
M3 S0
G0 X101.25 Y8.75 
M3 S255
G1 X101.25 Y8.75 
M3 S255
G1 X100.25 Y8.75 
M3 S0
G0 X97.25 Y8.75 
M3 S255
G1 X97.25 Y8.75 
M3 S255
G1 X96.25 Y8.75 
M3 S0
G0 X94.0 Y8.75 
M3 S255
G1 X94.0 Y8.75 
M3 S255
G1 X93.5 Y8.75 
M3 S0
G0 X90.25 Y8.75 
M3 S255
G1 X90.25 Y8.75 
M3 S255
G1 X89.5 Y8.75 
M3 S0
G0 X61.25 Y8.75 
M3 S255
G1 X61.25 Y8.75 
M3 S255
G1 X58.75 Y8.75 
M3 S0
M5 S0
G0 X58.0 Y9.0 
M3 S255
G1 X58.0 Y9.0 
M3 S255
G1 X60.75 Y9.0 
M3 S0
G0 X89.5 Y9.0 
M3 S255
G1 X89.5 Y9.0 
M3 S255
G1 X90.25 Y9.0 
M3 S0
G0 X93.5 Y9.0 
M3 S255
G1 X93.5 Y9.0 
M3 S255
G1 X93.75 Y9.0 
M3 S0
G0 X96.0 Y9.0 
M3 S255
G1 X96.0 Y9.0 
M3 S255
G1 X97.25 Y9.0 
M3 S0
G0 X100.25 Y9.0 
M3 S255
G1 X100.25 Y9.0 
M3 S255
G1 X101.25 Y9.0 
M3 S0
G0 X101.5 Y9.0 
M3 S255
G1 X101.5 Y9.0 
M3 S255
G1 X102.0 Y9.0 
M3 S0
G0 X104.25 Y9.0 
M3 S255
G1 X104.25 Y9.0 
M3 S255
G1 X104.5 Y9.0 
M3 S0
G0 X105.25 Y9.0 
M3 S255
G1 X105.25 Y9.0 
M3 S255
G1 X105.5 Y9.0 
M3 S0
G0 X106.75 Y9.0 
M3 S255
G1 X106.75 Y9.0 
M3 S255
G1 X107.5 Y9.0 
M3 S0
G0 X108.25 Y9.0 
M3 S255
G1 X108.25 Y9.0 
M3 S255
G1 X109.0 Y9.0 
M3 S0
G0 X138.75 Y9.0 
M3 S255
G1 X138.75 Y9.0 
M3 S255
G1 X141.25 Y9.0 
M3 S0
M5 S0
G0 X141.75 Y9.25 
M3 S255
G1 X141.75 Y9.25 
M3 S255
G1 X139.25 Y9.25 
M3 S0
G0 X108.75 Y9.25 
M3 S255
G1 X108.75 Y9.25 
M3 S255
G1 X108.25 Y9.25 
M3 S0
G0 X107.5 Y9.25 
M3 S255
G1 X107.5 Y9.25 
M3 S255
G1 X106.75 Y9.25 
M3 S0
G0 X104.5 Y9.25 
M3 S255
G1 X104.5 Y9.25 
M3 S255
G1 X104.25 Y9.25 
M3 S0
G0 X102.0 Y9.25 
M3 S255
G1 X102.0 Y9.25 
M3 S255
G1 X101.5 Y9.25 
M3 S0
G0 X101.25 Y9.25 
M3 S255
G1 X101.25 Y9.25 
M3 S255
G1 X100.0 Y9.25 
M3 S0
G0 X96.75 Y9.25 
M3 S255
G1 X96.75 Y9.25 
M3 S255
G1 X96.0 Y9.25 
M3 S0
G0 X90.25 Y9.25 
M3 S255
G1 X90.25 Y9.25 
M3 S255
G1 X89.5 Y9.25 
M3 S0
G0 X60.25 Y9.25 
M3 S255
G1 X60.25 Y9.25 
M3 S255
G1 X57.75 Y9.25 
M3 S0
M5 S0
G0 X57.0 Y9.5 
M3 S255
G1 X57.0 Y9.5 
M3 S255
G1 X59.5 Y9.5 
M3 S0
G0 X89.5 Y9.5 
M3 S255
G1 X89.5 Y9.5 
M3 S255
G1 X90.25 Y9.5 
M3 S0
G0 X95.75 Y9.5 
M3 S255
G1 X95.75 Y9.5 
M3 S255
G1 X96.75 Y9.5 
M3 S0
G0 X100.0 Y9.5 
M3 S255
G1 X100.0 Y9.5 
M3 S255
G1 X101.25 Y9.5 
M3 S0
G0 X101.5 Y9.5 
M3 S255
G1 X101.5 Y9.5 
M3 S255
G1 X102.0 Y9.5 
M3 S0
G0 X106.75 Y9.5 
M3 S255
G1 X106.75 Y9.5 
M3 S255
G1 X107.0 Y9.5 
M3 S0
G0 X108.0 Y9.5 
M3 S255
G1 X108.0 Y9.5 
M3 S255
G1 X108.5 Y9.5 
M3 S0
G0 X140.0 Y9.5 
M3 S255
G1 X140.0 Y9.5 
M3 S255
G1 X142.5 Y9.5 
M3 S0
M5 S0
G0 X143.0 Y9.75 
M3 S255
G1 X143.0 Y9.75 
M3 S255
G1 X140.5 Y9.75 
M3 S0
G0 X139.25 Y9.75 
M3 S255
G1 X139.25 Y9.75 
M3 S255
G1 X137.5 Y9.75 
M3 S0
G0 X108.25 Y9.75 
M3 S255
G1 X108.25 Y9.75 
M3 S255
G1 X107.75 Y9.75 
M3 S0
G0 X102.0 Y9.75 
M3 S255
G1 X102.0 Y9.75 
M3 S255
G1 X101.5 Y9.75 
M3 S0
G0 X101.25 Y9.75 
M3 S255
G1 X101.25 Y9.75 
M3 S255
G1 X100.0 Y9.75 
M3 S0
G0 X96.75 Y9.75 
M3 S255
G1 X96.75 Y9.75 
M3 S255
G1 X95.75 Y9.75 
M3 S0
G0 X90.25 Y9.75 
M3 S255
G1 X90.25 Y9.75 
M3 S255
G1 X89.5 Y9.75 
M3 S0
G0 X59.0 Y9.75 
M3 S255
G1 X59.0 Y9.75 
M3 S255
G1 X56.5 Y9.75 
M3 S0
M5 S0
G0 X56.25 Y10.0 
M3 S255
G1 X56.25 Y10.0 
M3 S255
G1 X58.5 Y10.0 
M3 S0
G0 X89.5 Y10.0 
M3 S255
G1 X89.5 Y10.0 
M3 S255
G1 X90.25 Y10.0 
M3 S0
G0 X95.5 Y10.0 
M3 S255
G1 X95.5 Y10.0 
M3 S255
G1 X96.75 Y10.0 
M3 S0
G0 X100.0 Y10.0 
M3 S255
G1 X100.0 Y10.0 
M3 S255
G1 X100.75 Y10.0 
M3 S0
G0 X107.75 Y10.0 
M3 S255
G1 X107.75 Y10.0 
M3 S255
G1 X108.25 Y10.0 
M3 S0
G0 X137.25 Y10.0 
M3 S255
G1 X137.25 Y10.0 
M3 S255
G1 X140.0 Y10.0 
M3 S0
G0 X140.75 Y10.0 
M3 S255
G1 X140.75 Y10.0 
M3 S255
G1 X143.25 Y10.0 
M3 S0
M5 S0
G0 X144.0 Y10.25 
M3 S255
G1 X144.0 Y10.25 
M3 S255
G1 X141.75 Y10.25 
M3 S0
G0 X141.0 Y10.25 
M3 S255
G1 X141.0 Y10.25 
M3 S255
G1 X140.0 Y10.25 
M3 S0
G0 X137.75 Y10.25 
M3 S255
G1 X137.75 Y10.25 
M3 S255
G1 X136.75 Y10.25 
M3 S0
G0 X108.25 Y10.25 
M3 S255
G1 X108.25 Y10.25 
M3 S255
G1 X107.75 Y10.25 
M3 S0
G0 X100.75 Y10.25 
M3 S255
G1 X100.75 Y10.25 
M3 S255
G1 X100.0 Y10.25 
M3 S0
G0 X96.25 Y10.25 
M3 S255
G1 X96.25 Y10.25 
M3 S255
G1 X95.25 Y10.25 
M3 S0
G0 X90.25 Y10.25 
M3 S255
G1 X90.25 Y10.25 
M3 S255
G1 X89.5 Y10.25 
M3 S0
G0 X57.75 Y10.25 
M3 S255
G1 X57.75 Y10.25 
M3 S255
G1 X55.5 Y10.25 
M3 S0
M5 S0
G0 X54.75 Y10.5 
M3 S255
G1 X54.75 Y10.5 
M3 S255
G1 X57.25 Y10.5 
M3 S0
G0 X89.5 Y10.5 
M3 S255
G1 X89.5 Y10.5 
M3 S255
G1 X90.25 Y10.5 
M3 S0
G0 X95.0 Y10.5 
M3 S255
G1 X95.0 Y10.5 
M3 S255
G1 X96.0 Y10.5 
M3 S0
G0 X99.75 Y10.5 
M3 S255
G1 X99.75 Y10.5 
M3 S255
G1 X100.75 Y10.5 
M3 S0
G0 X107.5 Y10.5 
M3 S255
G1 X107.5 Y10.5 
M3 S255
G1 X108.0 Y10.5 
M3 S0
G0 X137.0 Y10.5 
M3 S255
G1 X137.0 Y10.5 
M3 S255
G1 X137.5 Y10.5 
M3 S0
G0 X140.5 Y10.5 
M3 S255
G1 X140.5 Y10.5 
M3 S255
G1 X141.5 Y10.5 
M3 S0
G0 X142.25 Y10.5 
M3 S255
G1 X142.25 Y10.5 
M3 S255
G1 X144.5 Y10.5 
M3 S0
M5 S0
G0 X144.75 Y10.75 
M3 S255
G1 X144.75 Y10.75 
M3 S255
G1 X142.5 Y10.75 
M3 S0
G0 X141.75 Y10.75 
M3 S255
G1 X141.75 Y10.75 
M3 S255
G1 X140.75 Y10.75 
M3 S0
G0 X108.0 Y10.75 
M3 S255
G1 X108.0 Y10.75 
M3 S255
G1 X107.5 Y10.75 
M3 S0
G0 X104.5 Y10.75 
M3 S255
G1 X104.5 Y10.75 
M3 S255
G1 X104.25 Y10.75 
M3 S0
G0 X100.75 Y10.75 
M3 S255
G1 X100.75 Y10.75 
M3 S255
G1 X99.75 Y10.75 
M3 S0
G0 X96.0 Y10.75 
M3 S255
G1 X96.0 Y10.75 
M3 S255
G1 X95.0 Y10.75 
M3 S0
G0 X90.25 Y10.75 
M3 S255
G1 X90.25 Y10.75 
M3 S255
G1 X89.5 Y10.75 
M3 S0
G0 X57.0 Y10.75 
M3 S255
G1 X57.0 Y10.75 
M3 S255
G1 X54.25 Y10.75 
M3 S0
M5 S0
G0 X53.5 Y11.0 
M3 S255
G1 X53.5 Y11.0 
M3 S255
G1 X56.0 Y11.0 
M3 S0
G0 X89.5 Y11.0 
M3 S255
G1 X89.5 Y11.0 
M3 S255
G1 X90.25 Y11.0 
M3 S0
G0 X94.75 Y11.0 
M3 S255
G1 X94.75 Y11.0 
M3 S255
G1 X95.75 Y11.0 
M3 S0
G0 X99.75 Y11.0 
M3 S255
G1 X99.75 Y11.0 
M3 S255
G1 X100.5 Y11.0 
M3 S0
G0 X104.25 Y11.0 
M3 S255
G1 X104.25 Y11.0 
M3 S255
G1 X104.5 Y11.0 
M3 S0
G0 X107.5 Y11.0 
M3 S255
G1 X107.5 Y11.0 
M3 S255
G1 X107.75 Y11.0 
M3 S0
G0 X136.25 Y11.0 
M3 S255
G1 X136.25 Y11.0 
M3 S255
G1 X136.5 Y11.0 
M3 S0
G0 X141.25 Y11.0 
M3 S255
G1 X141.25 Y11.0 
M3 S255
G1 X142.25 Y11.0 
M3 S0
G0 X143.25 Y11.0 
M3 S255
G1 X143.25 Y11.0 
M3 S255
G1 X145.5 Y11.0 
M3 S0
M5 S0
G0 X146.0 Y11.25 
M3 S255
G1 X146.0 Y11.25 
M3 S255
G1 X143.75 Y11.25 
M3 S0
G0 X142.75 Y11.25 
M3 S255
G1 X142.75 Y11.25 
M3 S255
G1 X141.5 Y11.25 
M3 S0
G0 X136.75 Y11.25 
M3 S255
G1 X136.75 Y11.25 
M3 S255
G1 X136.0 Y11.25 
M3 S0
G0 X107.75 Y11.25 
M3 S255
G1 X107.75 Y11.25 
M3 S255
G1 X107.5 Y11.25 
M3 S0
G0 X100.5 Y11.25 
M3 S255
G1 X100.5 Y11.25 
M3 S255
G1 X99.5 Y11.25 
M3 S0
G0 X95.5 Y11.25 
M3 S255
G1 X95.5 Y11.25 
M3 S255
G1 X94.5 Y11.25 
M3 S0
G0 X90.25 Y11.25 
M3 S255
G1 X90.25 Y11.25 
M3 S255
G1 X89.5 Y11.25 
M3 S0
G0 X55.5 Y11.25 
M3 S255
G1 X55.5 Y11.25 
M3 S255
G1 X53.5 Y11.25 
M3 S0
M5 S0
G0 X53.25 Y11.5 
M3 S255
G1 X53.25 Y11.5 
M3 S255
G1 X55.5 Y11.5 
M3 S0
G0 X89.25 Y11.5 
M3 S255
G1 X89.25 Y11.5 
M3 S255
G1 X90.25 Y11.5 
M3 S0
G0 X94.5 Y11.5 
M3 S255
G1 X94.5 Y11.5 
M3 S255
G1 X95.5 Y11.5 
M3 S0
G0 X99.5 Y11.5 
M3 S255
G1 X99.5 Y11.5 
M3 S255
G1 X100.25 Y11.5 
M3 S0
G0 X104.0 Y11.5 
M3 S255
G1 X104.0 Y11.5 
M3 S255
G1 X104.25 Y11.5 
M3 S0
G0 X107.5 Y11.5 
M3 S255
G1 X107.5 Y11.5 
M3 S255
G1 X107.75 Y11.5 
M3 S0
G0 X136.0 Y11.5 
M3 S255
G1 X136.0 Y11.5 
M3 S255
G1 X136.75 Y11.5 
M3 S0
G0 X141.5 Y11.5 
M3 S255
G1 X141.5 Y11.5 
M3 S255
G1 X143.25 Y11.5 
M3 S0
G0 X144.0 Y11.5 
M3 S255
G1 X144.0 Y11.5 
M3 S255
G1 X146.25 Y11.5 
M3 S0
M5 S0
G0 X147.25 Y11.75 
M3 S255
G1 X147.25 Y11.75 
M3 S255
G1 X144.75 Y11.75 
M3 S0
G0 X143.75 Y11.75 
M3 S255
G1 X143.75 Y11.75 
M3 S255
G1 X141.5 Y11.75 
M3 S0
G0 X136.75 Y11.75 
M3 S255
G1 X136.75 Y11.75 
M3 S255
G1 X136.0 Y11.75 
M3 S0
G0 X107.5 Y11.75 
M3 S255
G1 X107.5 Y11.75 
M3 S255
G1 X107.25 Y11.75 
M3 S0
G0 X104.25 Y11.75 
M3 S255
G1 X104.25 Y11.75 
M3 S255
G1 X103.75 Y11.75 
M3 S0
G0 X100.25 Y11.75 
M3 S255
G1 X100.25 Y11.75 
M3 S255
G1 X99.5 Y11.75 
M3 S0
G0 X95.25 Y11.75 
M3 S255
G1 X95.25 Y11.75 
M3 S255
G1 X94.5 Y11.75 
M3 S0
G0 X90.25 Y11.75 
M3 S255
G1 X90.25 Y11.75 
M3 S255
G1 X89.25 Y11.75 
M3 S0
G0 X54.75 Y11.75 
M3 S255
G1 X54.75 Y11.75 
M3 S255
G1 X52.25 Y11.75 
M3 S0
M5 S0
G0 X52.0 Y12.0 
M3 S255
G1 X52.0 Y12.0 
M3 S255
G1 X54.25 Y12.0 
M3 S0
G0 X89.25 Y12.0 
M3 S255
G1 X89.25 Y12.0 
M3 S255
G1 X90.25 Y12.0 
M3 S0
G0 X94.25 Y12.0 
M3 S255
G1 X94.25 Y12.0 
M3 S255
G1 X95.25 Y12.0 
M3 S0
G0 X99.5 Y12.0 
M3 S255
G1 X99.5 Y12.0 
M3 S255
G1 X100.0 Y12.0 
M3 S0
G0 X103.75 Y12.0 
M3 S255
G1 X103.75 Y12.0 
M3 S255
G1 X104.0 Y12.0 
M3 S0
G0 X107.25 Y12.0 
M3 S255
G1 X107.25 Y12.0 
M3 S255
G1 X107.5 Y12.0 
M3 S0
G0 X136.0 Y12.0 
M3 S255
G1 X136.0 Y12.0 
M3 S255
G1 X136.5 Y12.0 
M3 S0
G0 X141.5 Y12.0 
M3 S255
G1 X141.5 Y12.0 
M3 S255
G1 X144.0 Y12.0 
M3 S0
G0 X145.25 Y12.0 
M3 S255
G1 X145.25 Y12.0 
M3 S255
G1 X147.5 Y12.0 
M3 S0
M5 S0
G0 X148.0 Y12.25 
M3 S255
G1 X148.0 Y12.25 
M3 S255
G1 X145.5 Y12.25 
M3 S0
G0 X144.5 Y12.25 
M3 S255
G1 X144.5 Y12.25 
M3 S255
G1 X141.5 Y12.25 
M3 S0
G0 X136.5 Y12.25 
M3 S255
G1 X136.5 Y12.25 
M3 S255
G1 X136.0 Y12.25 
M3 S0
G0 X107.5 Y12.25 
M3 S255
G1 X107.5 Y12.25 
M3 S255
G1 X107.0 Y12.25 
M3 S0
G0 X100.0 Y12.25 
M3 S255
G1 X100.0 Y12.25 
M3 S255
G1 X99.5 Y12.25 
M3 S0
G0 X95.25 Y12.25 
M3 S255
G1 X95.25 Y12.25 
M3 S255
G1 X94.25 Y12.25 
M3 S0
G0 X90.0 Y12.25 
M3 S255
G1 X90.0 Y12.25 
M3 S255
G1 X89.0 Y12.25 
M3 S0
G0 X54.0 Y12.25 
M3 S255
G1 X54.0 Y12.25 
M3 S255
G1 X51.5 Y12.25 
M3 S0
M5 S0
G0 X51.0 Y12.5 
M3 S255
G1 X51.0 Y12.5 
M3 S255
G1 X53.25 Y12.5 
M3 S0
G0 X88.75 Y12.5 
M3 S255
G1 X88.75 Y12.5 
M3 S255
G1 X89.75 Y12.5 
M3 S0
G0 X94.25 Y12.5 
M3 S255
G1 X94.25 Y12.5 
M3 S255
G1 X95.25 Y12.5 
M3 S0
G0 X99.25 Y12.5 
M3 S255
G1 X99.25 Y12.5 
M3 S255
G1 X100.0 Y12.5 
M3 S0
G0 X102.0 Y12.5 
M3 S255
G1 X102.0 Y12.5 
M3 S255
G1 X102.25 Y12.5 
M3 S0
G0 X107.0 Y12.5 
M3 S255
G1 X107.0 Y12.5 
M3 S255
G1 X107.5 Y12.5 
M3 S0
G0 X135.75 Y12.5 
M3 S255
G1 X135.75 Y12.5 
M3 S255
G1 X136.25 Y12.5 
M3 S0
G0 X141.75 Y12.5 
M3 S255
G1 X141.75 Y12.5 
M3 S255
G1 X145.25 Y12.5 
M3 S0
G0 X146.25 Y12.5 
M3 S255
G1 X146.25 Y12.5 
M3 S255
G1 X148.5 Y12.5 
M3 S0
M5 S0
G0 X148.75 Y12.75 
M3 S255
G1 X148.75 Y12.75 
M3 S255
G1 X146.75 Y12.75 
M3 S0
G0 X145.5 Y12.75 
M3 S255
G1 X145.5 Y12.75 
M3 S255
G1 X142.25 Y12.75 
M3 S0
G0 X136.0 Y12.75 
M3 S255
G1 X136.0 Y12.75 
M3 S255
G1 X135.75 Y12.75 
M3 S0
G0 X107.5 Y12.75 
M3 S255
G1 X107.5 Y12.75 
M3 S255
G1 X107.0 Y12.75 
M3 S0
G0 X102.25 Y12.75 
M3 S255
G1 X102.25 Y12.75 
M3 S255
G1 X102.0 Y12.75 
M3 S0
G0 X100.0 Y12.75 
M3 S255
G1 X100.0 Y12.75 
M3 S255
G1 X99.25 Y12.75 
M3 S0
G0 X95.25 Y12.75 
M3 S255
G1 X95.25 Y12.75 
M3 S255
G1 X94.25 Y12.75 
M3 S0
G0 X89.5 Y12.75 
M3 S255
G1 X89.5 Y12.75 
M3 S255
G1 X88.75 Y12.75 
M3 S0
G0 X52.75 Y12.75 
M3 S255
G1 X52.75 Y12.75 
M3 S255
G1 X50.75 Y12.75 
M3 S0
M5 S0
G0 X50.25 Y13.0 
M3 S255
G1 X50.25 Y13.0 
M3 S255
G1 X52.25 Y13.0 
M3 S0
G0 X88.5 Y13.0 
M3 S255
G1 X88.5 Y13.0 
M3 S255
G1 X89.5 Y13.0 
M3 S0
G0 X94.25 Y13.0 
M3 S255
G1 X94.25 Y13.0 
M3 S255
G1 X95.0 Y13.0 
M3 S0
G0 X99.25 Y13.0 
M3 S255
G1 X99.25 Y13.0 
M3 S255
G1 X100.0 Y13.0 
M3 S0
G0 X102.0 Y13.0 
M3 S255
G1 X102.0 Y13.0 
M3 S255
G1 X102.25 Y13.0 
M3 S0
G0 X107.0 Y13.0 
M3 S255
G1 X107.0 Y13.0 
M3 S255
G1 X107.5 Y13.0 
M3 S0
G0 X143.0 Y13.0 
M3 S255
G1 X143.0 Y13.0 
M3 S255
G1 X146.0 Y13.0 
M3 S0
G0 X147.0 Y13.0 
M3 S255
G1 X147.0 Y13.0 
M3 S255
G1 X149.25 Y13.0 
M3 S0
M5 S0
G0 X150.0 Y13.25 
M3 S255
G1 X150.0 Y13.25 
M3 S255
G1 X147.75 Y13.25 
M3 S0
G0 X147.0 Y13.25 
M3 S255
G1 X147.0 Y13.25 
M3 S255
G1 X144.25 Y13.25 
M3 S0
G0 X137.75 Y13.25 
M3 S255
G1 X137.75 Y13.25 
M3 S255
G1 X137.25 Y13.25 
M3 S0
G0 X136.5 Y13.25 
M3 S255
G1 X136.5 Y13.25 
M3 S255
G1 X136.25 Y13.25 
M3 S0
G0 X107.5 Y13.25 
M3 S255
G1 X107.5 Y13.25 
M3 S255
G1 X106.75 Y13.25 
M3 S0
G0 X104.0 Y13.25 
M3 S255
G1 X104.0 Y13.25 
M3 S255
G1 X103.75 Y13.25 
M3 S0
G0 X102.25 Y13.25 
M3 S255
G1 X102.25 Y13.25 
M3 S255
G1 X102.0 Y13.25 
M3 S0
G0 X99.75 Y13.25 
M3 S255
G1 X99.75 Y13.25 
M3 S255
G1 X99.0 Y13.25 
M3 S0
G0 X95.0 Y13.25 
M3 S255
G1 X95.0 Y13.25 
M3 S255
G1 X94.0 Y13.25 
M3 S0
G0 X89.25 Y13.25 
M3 S255
G1 X89.25 Y13.25 
M3 S255
G1 X88.25 Y13.25 
M3 S0
G0 X51.5 Y13.25 
M3 S255
G1 X51.5 Y13.25 
M3 S255
G1 X49.5 Y13.25 
M3 S0
M5 S0
G0 X49.25 Y13.5 
M3 S255
G1 X49.25 Y13.5 
M3 S255
G1 X51.5 Y13.5 
M3 S0
G0 X88.0 Y13.5 
M3 S255
G1 X88.0 Y13.5 
M3 S255
G1 X89.25 Y13.5 
M3 S0
G0 X94.0 Y13.5 
M3 S255
G1 X94.0 Y13.5 
M3 S255
G1 X94.75 Y13.5 
M3 S0
G0 X99.0 Y13.5 
M3 S255
G1 X99.0 Y13.5 
M3 S255
G1 X99.75 Y13.5 
M3 S0
G0 X102.0 Y13.5 
M3 S255
G1 X102.0 Y13.5 
M3 S255
G1 X102.25 Y13.5 
M3 S0
G0 X103.75 Y13.5 
M3 S255
G1 X103.75 Y13.5 
M3 S255
G1 X104.0 Y13.5 
M3 S0
G0 X106.75 Y13.5 
M3 S255
G1 X106.75 Y13.5 
M3 S255
G1 X107.25 Y13.5 
M3 S0
G0 X136.25 Y13.5 
M3 S255
G1 X136.25 Y13.5 
M3 S255
G1 X136.5 Y13.5 
M3 S0
G0 X137.5 Y13.5 
M3 S255
G1 X137.5 Y13.5 
M3 S255
G1 X138.0 Y13.5 
M3 S0
G0 X145.25 Y13.5 
M3 S255
G1 X145.25 Y13.5 
M3 S255
G1 X147.25 Y13.5 
M3 S0
G0 X148.0 Y13.5 
M3 S255
G1 X148.0 Y13.5 
M3 S255
G1 X150.25 Y13.5 
M3 S0
M5 S0
G0 X150.75 Y13.75 
M3 S255
G1 X150.75 Y13.75 
M3 S255
G1 X148.5 Y13.75 
M3 S0
G0 X147.75 Y13.75 
M3 S255
G1 X147.75 Y13.75 
M3 S255
G1 X146.0 Y13.75 
M3 S0
G0 X138.25 Y13.75 
M3 S255
G1 X138.25 Y13.75 
M3 S255
G1 X137.5 Y13.75 
M3 S0
G0 X136.5 Y13.75 
M3 S255
G1 X136.5 Y13.75 
M3 S255
G1 X136.0 Y13.75 
M3 S0
G0 X107.25 Y13.75 
M3 S255
G1 X107.25 Y13.75 
M3 S255
G1 X106.75 Y13.75 
M3 S0
G0 X104.0 Y13.75 
M3 S255
G1 X104.0 Y13.75 
M3 S255
G1 X103.75 Y13.75 
M3 S0
G0 X102.25 Y13.75 
M3 S255
G1 X102.25 Y13.75 
M3 S255
G1 X102.0 Y13.75 
M3 S0
G0 X99.5 Y13.75 
M3 S255
G1 X99.5 Y13.75 
M3 S255
G1 X99.0 Y13.75 
M3 S0
G0 X94.75 Y13.75 
M3 S255
G1 X94.75 Y13.75 
M3 S255
G1 X94.0 Y13.75 
M3 S0
G0 X89.0 Y13.75 
M3 S255
G1 X89.0 Y13.75 
M3 S255
G1 X88.0 Y13.75 
M3 S0
G0 X51.0 Y13.75 
M3 S255
G1 X51.0 Y13.75 
M3 S255
G1 X48.75 Y13.75 
M3 S0
M5 S0
G0 X48.5 Y14.0 
M3 S255
G1 X48.5 Y14.0 
M3 S255
G1 X50.75 Y14.0 
M3 S0
G0 X88.0 Y14.0 
M3 S255
G1 X88.0 Y14.0 
M3 S255
G1 X88.75 Y14.0 
M3 S0
G0 X94.0 Y14.0 
M3 S255
G1 X94.0 Y14.0 
M3 S255
G1 X94.75 Y14.0 
M3 S0
G0 X99.0 Y14.0 
M3 S255
G1 X99.0 Y14.0 
M3 S255
G1 X99.5 Y14.0 
M3 S0
G0 X102.0 Y14.0 
M3 S255
G1 X102.0 Y14.0 
M3 S255
G1 X102.25 Y14.0 
M3 S0
G0 X103.75 Y14.0 
M3 S255
G1 X103.75 Y14.0 
M3 S255
G1 X104.0 Y14.0 
M3 S0
G0 X106.75 Y14.0 
M3 S255
G1 X106.75 Y14.0 
M3 S255
G1 X107.25 Y14.0 
M3 S0
G0 X135.75 Y14.0 
M3 S255
G1 X135.75 Y14.0 
M3 S255
G1 X136.25 Y14.0 
M3 S0
G0 X137.25 Y14.0 
M3 S255
G1 X137.25 Y14.0 
M3 S255
G1 X138.25 Y14.0 
M3 S0
G0 X146.25 Y14.0 
M3 S255
G1 X146.25 Y14.0 
M3 S255
G1 X148.0 Y14.0 
M3 S0
G0 X148.75 Y14.0 
M3 S255
G1 X148.75 Y14.0 
M3 S255
G1 X151.0 Y14.0 
M3 S0
M5 S0
G0 X151.5 Y14.25 
M3 S255
G1 X151.5 Y14.25 
M3 S255
G1 X149.5 Y14.25 
M3 S0
G0 X148.75 Y14.25 
M3 S255
G1 X148.75 Y14.25 
M3 S255
G1 X146.75 Y14.25 
M3 S0
G0 X139.5 Y14.25 
M3 S255
G1 X139.5 Y14.25 
M3 S255
G1 X139.0 Y14.25 
M3 S0
G0 X138.0 Y14.25 
M3 S255
G1 X138.0 Y14.25 
M3 S255
G1 X137.0 Y14.25 
M3 S0
G0 X136.5 Y14.25 
M3 S255
G1 X136.5 Y14.25 
M3 S255
G1 X135.5 Y14.25 
M3 S0
G0 X107.25 Y14.25 
M3 S255
G1 X107.25 Y14.25 
M3 S255
G1 X106.75 Y14.25 
M3 S0
G0 X102.75 Y14.25 
M3 S255
G1 X102.75 Y14.25 
M3 S255
G1 X102.5 Y14.25 
M3 S0
G0 X102.25 Y14.25 
M3 S255
G1 X102.25 Y14.25 
M3 S255
G1 X102.0 Y14.25 
M3 S0
G0 X99.5 Y14.25 
M3 S255
G1 X99.5 Y14.25 
M3 S255
G1 X98.75 Y14.25 
M3 S0
G0 X94.75 Y14.25 
M3 S255
G1 X94.75 Y14.25 
M3 S255
G1 X93.75 Y14.25 
M3 S0
G0 X88.75 Y14.25 
M3 S255
G1 X88.75 Y14.25 
M3 S255
G1 X87.5 Y14.25 
M3 S0
G0 X50.0 Y14.25 
M3 S255
G1 X50.0 Y14.25 
M3 S255
G1 X48.0 Y14.25 
M3 S0
M5 S0
G0 X47.5 Y14.5 
M3 S255
G1 X47.5 Y14.5 
M3 S255
G1 X49.5 Y14.5 
M3 S0
G0 X87.5 Y14.5 
M3 S255
G1 X87.5 Y14.5 
M3 S255
G1 X88.75 Y14.5 
M3 S0
G0 X93.75 Y14.5 
M3 S255
G1 X93.75 Y14.5 
M3 S255
G1 X94.5 Y14.5 
M3 S0
G0 X98.75 Y14.5 
M3 S255
G1 X98.75 Y14.5 
M3 S255
G1 X99.5 Y14.5 
M3 S0
G0 X102.0 Y14.5 
M3 S255
G1 X102.0 Y14.5 
M3 S255
G1 X102.75 Y14.5 
M3 S0
G0 X106.75 Y14.5 
M3 S255
G1 X106.75 Y14.5 
M3 S255
G1 X107.25 Y14.5 
M3 S0
G0 X135.5 Y14.5 
M3 S255
G1 X135.5 Y14.5 
M3 S255
G1 X136.25 Y14.5 
M3 S0
G0 X136.75 Y14.5 
M3 S255
G1 X136.75 Y14.5 
M3 S255
G1 X137.75 Y14.5 
M3 S0
G0 X139.0 Y14.5 
M3 S255
G1 X139.0 Y14.5 
M3 S255
G1 X139.25 Y14.5 
M3 S0
G0 X146.75 Y14.5 
M3 S255
G1 X146.75 Y14.5 
M3 S255
G1 X149.5 Y14.5 
M3 S0
G0 X150.0 Y14.5 
M3 S255
G1 X150.0 Y14.5 
M3 S255
G1 X151.75 Y14.5 
M3 S0
M5 S0
G0 X152.25 Y14.75 
M3 S255
G1 X152.25 Y14.75 
M3 S255
G1 X150.25 Y14.75 
M3 S0
G0 X149.5 Y14.75 
M3 S255
G1 X149.5 Y14.75 
M3 S255
G1 X146.75 Y14.75 
M3 S0
G0 X139.25 Y14.75 
M3 S255
G1 X139.25 Y14.75 
M3 S255
G1 X139.0 Y14.75 
M3 S0
G0 X137.5 Y14.75 
M3 S255
G1 X137.5 Y14.75 
M3 S255
G1 X136.75 Y14.75 
M3 S0
G0 X136.5 Y14.75 
M3 S255
G1 X136.5 Y14.75 
M3 S255
G1 X135.5 Y14.75 
M3 S0
G0 X107.25 Y14.75 
M3 S255
G1 X107.25 Y14.75 
M3 S255
G1 X106.75 Y14.75 
M3 S0
G0 X102.75 Y14.75 
M3 S255
G1 X102.75 Y14.75 
M3 S255
G1 X102.0 Y14.75 
M3 S0
G0 X99.5 Y14.75 
M3 S255
G1 X99.5 Y14.75 
M3 S255
G1 X98.75 Y14.75 
M3 S0
G0 X94.5 Y14.75 
M3 S255
G1 X94.5 Y14.75 
M3 S255
G1 X93.75 Y14.75 
M3 S0
G0 X88.5 Y14.75 
M3 S255
G1 X88.5 Y14.75 
M3 S255
G1 X87.25 Y14.75 
M3 S0
G0 X54.75 Y14.75 
M3 S255
G1 X54.75 Y14.75 
M3 S255
G1 X53.25 Y14.75 
M3 S0
G0 X49.25 Y14.75 
M3 S255
G1 X49.25 Y14.75 
M3 S255
G1 X47.25 Y14.75 
M3 S0
M5 S0
G0 X46.75 Y15.0 
M3 S255
G1 X46.75 Y15.0 
M3 S255
G1 X48.75 Y15.0 
M3 S0
G0 X52.25 Y15.0 
M3 S255
G1 X52.25 Y15.0 
M3 S255
G1 X55.25 Y15.0 
M3 S0
G0 X87.25 Y15.0 
M3 S255
G1 X87.25 Y15.0 
M3 S255
G1 X88.25 Y15.0 
M3 S0
G0 X93.75 Y15.0 
M3 S255
G1 X93.75 Y15.0 
M3 S255
G1 X94.5 Y15.0 
M3 S0
G0 X98.75 Y15.0 
M3 S255
G1 X98.75 Y15.0 
M3 S255
G1 X99.5 Y15.0 
M3 S0
G0 X102.25 Y15.0 
M3 S255
G1 X102.25 Y15.0 
M3 S255
G1 X102.75 Y15.0 
M3 S0
G0 X106.75 Y15.0 
M3 S255
G1 X106.75 Y15.0 
M3 S255
G1 X107.0 Y15.0 
M3 S0
G0 X135.25 Y15.0 
M3 S255
G1 X135.25 Y15.0 
M3 S255
G1 X137.5 Y15.0 
M3 S0
G0 X148.5 Y15.0 
M3 S255
G1 X148.5 Y15.0 
M3 S255
G1 X149.25 Y15.0 
M3 S0
G0 X149.5 Y15.0 
M3 S255
G1 X149.5 Y15.0 
M3 S255
G1 X150.25 Y15.0 
M3 S0
G0 X150.75 Y15.0 
M3 S255
G1 X150.75 Y15.0 
M3 S255
G1 X152.75 Y15.0 
M3 S0
M5 S0
G0 X153.25 Y15.25 
M3 S255
G1 X153.25 Y15.25 
M3 S255
G1 X151.25 Y15.25 
M3 S0
G0 X150.75 Y15.25 
M3 S255
G1 X150.75 Y15.25 
M3 S255
G1 X149.5 Y15.25 
M3 S0
G0 X137.0 Y15.25 
M3 S255
G1 X137.0 Y15.25 
M3 S255
G1 X135.25 Y15.25 
M3 S0
G0 X107.0 Y15.25 
M3 S255
G1 X107.0 Y15.25 
M3 S255
G1 X106.25 Y15.25 
M3 S0
G0 X102.75 Y15.25 
M3 S255
G1 X102.75 Y15.25 
M3 S255
G1 X102.25 Y15.25 
M3 S0
G0 X99.25 Y15.25 
M3 S255
G1 X99.25 Y15.25 
M3 S255
G1 X98.75 Y15.25 
M3 S0
G0 X94.5 Y15.25 
M3 S255
G1 X94.5 Y15.25 
M3 S255
G1 X93.5 Y15.25 
M3 S0
G0 X88.0 Y15.25 
M3 S255
G1 X88.0 Y15.25 
M3 S255
G1 X87.25 Y15.25 
M3 S0
G0 X55.5 Y15.25 
M3 S255
G1 X55.5 Y15.25 
M3 S255
G1 X54.25 Y15.25 
M3 S0
G0 X52.5 Y15.25 
M3 S255
G1 X52.5 Y15.25 
M3 S255
G1 X51.5 Y15.25 
M3 S0
G0 X48.25 Y15.25 
M3 S255
G1 X48.25 Y15.25 
M3 S255
G1 X46.25 Y15.25 
M3 S0
M5 S0
G0 X46.0 Y15.5 
M3 S255
G1 X46.0 Y15.5 
M3 S255
G1 X48.0 Y15.5 
M3 S0
G0 X51.0 Y15.5 
M3 S255
G1 X51.0 Y15.5 
M3 S255
G1 X52.0 Y15.5 
M3 S0
G0 X54.75 Y15.5 
M3 S255
G1 X54.75 Y15.5 
M3 S255
G1 X55.5 Y15.5 
M3 S0
G0 X87.25 Y15.5 
M3 S255
G1 X87.25 Y15.5 
M3 S255
G1 X88.0 Y15.5 
M3 S0
G0 X93.5 Y15.5 
M3 S255
G1 X93.5 Y15.5 
M3 S255
G1 X94.5 Y15.5 
M3 S0
G0 X98.75 Y15.5 
M3 S255
G1 X98.75 Y15.5 
M3 S255
G1 X99.25 Y15.5 
M3 S0
G0 X102.25 Y15.5 
M3 S255
G1 X102.25 Y15.5 
M3 S255
G1 X102.75 Y15.5 
M3 S0
G0 X106.25 Y15.5 
M3 S255
G1 X106.25 Y15.5 
M3 S255
G1 X107.0 Y15.5 
M3 S0
G0 X135.25 Y15.5 
M3 S255
G1 X135.25 Y15.5 
M3 S255
G1 X136.75 Y15.5 
M3 S0
G0 X150.0 Y15.5 
M3 S255
G1 X150.0 Y15.5 
M3 S255
G1 X151.0 Y15.5 
M3 S0
G0 X151.5 Y15.5 
M3 S255
G1 X151.5 Y15.5 
M3 S255
G1 X153.25 Y15.5 
M3 S0
M5 S0
G0 X154.0 Y15.75 
M3 S255
G1 X154.0 Y15.75 
M3 S255
G1 X150.25 Y15.75 
M3 S0
G0 X139.25 Y15.75 
M3 S255
G1 X139.25 Y15.75 
M3 S255
G1 X139.0 Y15.75 
M3 S0
G0 X136.5 Y15.75 
M3 S255
G1 X136.5 Y15.75 
M3 S255
G1 X135.25 Y15.75 
M3 S0
G0 X107.0 Y15.75 
M3 S255
G1 X107.0 Y15.75 
M3 S255
G1 X106.25 Y15.75 
M3 S0
G0 X102.75 Y15.75 
M3 S255
G1 X102.75 Y15.75 
M3 S255
G1 X102.25 Y15.75 
M3 S0
G0 X99.25 Y15.75 
M3 S255
G1 X99.25 Y15.75 
M3 S255
G1 X98.75 Y15.75 
M3 S0
G0 X94.25 Y15.75 
M3 S255
G1 X94.25 Y15.75 
M3 S255
G1 X93.5 Y15.75 
M3 S0
G0 X88.0 Y15.75 
M3 S255
G1 X88.0 Y15.75 
M3 S255
G1 X87.0 Y15.75 
M3 S0
G0 X55.75 Y15.75 
M3 S255
G1 X55.75 Y15.75 
M3 S255
G1 X55.0 Y15.75 
M3 S0
G0 X51.25 Y15.75 
M3 S255
G1 X51.25 Y15.75 
M3 S255
G1 X50.25 Y15.75 
M3 S0
G0 X47.25 Y15.75 
M3 S255
G1 X47.25 Y15.75 
M3 S255
G1 X45.5 Y15.75 
M3 S0
M5 S0
G0 X45.25 Y16.0 
M3 S255
G1 X45.25 Y16.0 
M3 S255
G1 X47.25 Y16.0 
M3 S0
G0 X50.0 Y16.0 
M3 S255
G1 X50.0 Y16.0 
M3 S255
G1 X51.0 Y16.0 
M3 S0
G0 X55.25 Y16.0 
M3 S255
G1 X55.25 Y16.0 
M3 S255
G1 X56.0 Y16.0 
M3 S0
G0 X86.75 Y16.0 
M3 S255
G1 X86.75 Y16.0 
M3 S255
G1 X88.0 Y16.0 
M3 S0
G0 X93.5 Y16.0 
M3 S255
G1 X93.5 Y16.0 
M3 S255
G1 X94.25 Y16.0 
M3 S0
G0 X98.25 Y16.0 
M3 S255
G1 X98.25 Y16.0 
M3 S255
G1 X99.25 Y16.0 
M3 S0
G0 X102.25 Y16.0 
M3 S255
G1 X102.25 Y16.0 
M3 S255
G1 X102.75 Y16.0 
M3 S0
G0 X106.25 Y16.0 
M3 S255
G1 X106.25 Y16.0 
M3 S255
G1 X107.0 Y16.0 
M3 S0
G0 X135.25 Y16.0 
M3 S255
G1 X135.25 Y16.0 
M3 S255
G1 X136.5 Y16.0 
M3 S0
G0 X139.0 Y16.0 
M3 S255
G1 X139.0 Y16.0 
M3 S255
G1 X139.25 Y16.0 
M3 S0
G0 X150.75 Y16.0 
M3 S255
G1 X150.75 Y16.0 
M3 S255
G1 X154.25 Y16.0 
M3 S0
M5 S0
G0 X154.75 Y16.25 
M3 S255
G1 X154.75 Y16.25 
M3 S255
G1 X150.75 Y16.25 
M3 S0
G0 X144.75 Y16.25 
M3 S255
G1 X144.75 Y16.25 
M3 S255
G1 X144.5 Y16.25 
M3 S0
G0 X139.25 Y16.25 
M3 S255
G1 X139.25 Y16.25 
M3 S255
G1 X139.0 Y16.25 
M3 S0
G0 X136.25 Y16.25 
M3 S255
G1 X136.25 Y16.25 
M3 S255
G1 X135.25 Y16.25 
M3 S0
G0 X107.0 Y16.25 
M3 S255
G1 X107.0 Y16.25 
M3 S255
G1 X106.25 Y16.25 
M3 S0
G0 X102.75 Y16.25 
M3 S255
G1 X102.75 Y16.25 
M3 S255
G1 X102.25 Y16.25 
M3 S0
G0 X99.25 Y16.25 
M3 S255
G1 X99.25 Y16.25 
M3 S255
G1 X98.25 Y16.25 
M3 S0
G0 X94.25 Y16.25 
M3 S255
G1 X94.25 Y16.25 
M3 S255
G1 X93.5 Y16.25 
M3 S0
G0 X87.75 Y16.25 
M3 S255
G1 X87.75 Y16.25 
M3 S255
G1 X86.75 Y16.25 
M3 S0
G0 X56.0 Y16.25 
M3 S255
G1 X56.0 Y16.25 
M3 S255
G1 X55.5 Y16.25 
M3 S0
G0 X50.75 Y16.25 
M3 S255
G1 X50.75 Y16.25 
M3 S255
G1 X49.5 Y16.25 
M3 S0
G0 X46.75 Y16.25 
M3 S255
G1 X46.75 Y16.25 
M3 S255
G1 X44.75 Y16.25 
M3 S0
M5 S0
G0 X44.25 Y16.5 
M3 S255
G1 X44.25 Y16.5 
M3 S255
G1 X46.25 Y16.5 
M3 S0
G0 X48.75 Y16.5 
M3 S255
G1 X48.75 Y16.5 
M3 S255
G1 X50.75 Y16.5 
M3 S0
G0 X55.5 Y16.5 
M3 S255
G1 X55.5 Y16.5 
M3 S255
G1 X56.25 Y16.5 
M3 S0
G0 X86.5 Y16.5 
M3 S255
G1 X86.5 Y16.5 
M3 S255
G1 X87.5 Y16.5 
M3 S0
G0 X93.5 Y16.5 
M3 S255
G1 X93.5 Y16.5 
M3 S255
G1 X94.25 Y16.5 
M3 S0
G0 X98.25 Y16.5 
M3 S255
G1 X98.25 Y16.5 
M3 S255
G1 X99.25 Y16.5 
M3 S0
G0 X102.25 Y16.5 
M3 S255
G1 X102.25 Y16.5 
M3 S255
G1 X103.0 Y16.5 
M3 S0
G0 X106.25 Y16.5 
M3 S255
G1 X106.25 Y16.5 
M3 S255
G1 X106.75 Y16.5 
M3 S0
G0 X135.0 Y16.5 
M3 S255
G1 X135.0 Y16.5 
M3 S255
G1 X136.0 Y16.5 
M3 S0
G0 X139.0 Y16.5 
M3 S255
G1 X139.0 Y16.5 
M3 S255
G1 X139.25 Y16.5 
M3 S0
G0 X144.5 Y16.5 
M3 S255
G1 X144.5 Y16.5 
M3 S255
G1 X144.75 Y16.5 
M3 S0
G0 X150.75 Y16.5 
M3 S255
G1 X150.75 Y16.5 
M3 S255
G1 X155.25 Y16.5 
M3 S0
M5 S0
G0 X155.5 Y16.75 
M3 S255
G1 X155.5 Y16.75 
M3 S255
G1 X151.75 Y16.75 
M3 S0
G0 X151.5 Y16.75 
M3 S255
G1 X151.5 Y16.75 
M3 S255
G1 X150.75 Y16.75 
M3 S0
G0 X149.5 Y16.75 
M3 S255
G1 X149.5 Y16.75 
M3 S255
G1 X148.75 Y16.75 
M3 S0
G0 X139.25 Y16.75 
M3 S255
G1 X139.25 Y16.75 
M3 S255
G1 X139.0 Y16.75 
M3 S0
G0 X136.0 Y16.75 
M3 S255
G1 X136.0 Y16.75 
M3 S255
G1 X134.75 Y16.75 
M3 S0
G0 X106.75 Y16.75 
M3 S255
G1 X106.75 Y16.75 
M3 S255
G1 X106.25 Y16.75 
M3 S0
G0 X103.0 Y16.75 
M3 S255
G1 X103.0 Y16.75 
M3 S255
G1 X102.25 Y16.75 
M3 S0
G0 X100.5 Y16.75 
M3 S255
G1 X100.5 Y16.75 
M3 S255
G1 X100.25 Y16.75 
M3 S0
G0 X99.25 Y16.75 
M3 S255
G1 X99.25 Y16.75 
M3 S255
G1 X98.25 Y16.75 
M3 S0
G0 X94.25 Y16.75 
M3 S255
G1 X94.25 Y16.75 
M3 S255
G1 X93.5 Y16.75 
M3 S0
G0 X87.5 Y16.75 
M3 S255
G1 X87.5 Y16.75 
M3 S255
G1 X86.5 Y16.75 
M3 S0
G0 X56.25 Y16.75 
M3 S255
G1 X56.25 Y16.75 
M3 S255
G1 X55.5 Y16.75 
M3 S0
G0 X50.75 Y16.75 
M3 S255
G1 X50.75 Y16.75 
M3 S255
G1 X48.5 Y16.75 
M3 S0
G0 X46.0 Y16.75 
M3 S255
G1 X46.0 Y16.75 
M3 S255
G1 X44.0 Y16.75 
M3 S0
M5 S0
G0 X43.75 Y17.0 
M3 S255
G1 X43.75 Y17.0 
M3 S255
G1 X45.5 Y17.0 
M3 S0
G0 X48.25 Y17.0 
M3 S255
G1 X48.25 Y17.0 
M3 S255
G1 X50.75 Y17.0 
M3 S0
G0 X55.5 Y17.0 
M3 S255
G1 X55.5 Y17.0 
M3 S255
G1 X56.25 Y17.0 
M3 S0
G0 X86.25 Y17.0 
M3 S255
G1 X86.25 Y17.0 
M3 S255
G1 X87.25 Y17.0 
M3 S0
G0 X93.5 Y17.0 
M3 S255
G1 X93.5 Y17.0 
M3 S255
G1 X94.25 Y17.0 
M3 S0
G0 X98.25 Y17.0 
M3 S255
G1 X98.25 Y17.0 
M3 S255
G1 X99.25 Y17.0 
M3 S0
G0 X100.25 Y17.0 
M3 S255
G1 X100.25 Y17.0 
M3 S255
G1 X100.5 Y17.0 
M3 S0
G0 X102.25 Y17.0 
M3 S255
G1 X102.25 Y17.0 
M3 S255
G1 X103.0 Y17.0 
M3 S0
G0 X106.25 Y17.0 
M3 S255
G1 X106.25 Y17.0 
M3 S255
G1 X106.75 Y17.0 
M3 S0
G0 X134.75 Y17.0 
M3 S255
G1 X134.75 Y17.0 
M3 S255
G1 X136.0 Y17.0 
M3 S0
G0 X138.75 Y17.0 
M3 S255
G1 X138.75 Y17.0 
M3 S255
G1 X139.25 Y17.0 
M3 S0
G0 X148.75 Y17.0 
M3 S255
G1 X148.75 Y17.0 
M3 S255
G1 X149.5 Y17.0 
M3 S0
G0 X150.75 Y17.0 
M3 S255
G1 X150.75 Y17.0 
M3 S255
G1 X151.25 Y17.0 
M3 S0
G0 X152.25 Y17.0 
M3 S255
G1 X152.25 Y17.0 
M3 S255
G1 X155.75 Y17.0 
M3 S0
M5 S0
G0 X156.25 Y17.25 
M3 S255
G1 X156.25 Y17.25 
M3 S255
G1 X154.25 Y17.25 
M3 S0
G0 X154.0 Y17.25 
M3 S255
G1 X154.0 Y17.25 
M3 S255
G1 X152.75 Y17.25 
M3 S0
G0 X149.5 Y17.25 
M3 S255
G1 X149.5 Y17.25 
M3 S255
G1 X148.75 Y17.25 
M3 S0
G0 X147.75 Y17.25 
M3 S255
G1 X147.75 Y17.25 
M3 S255
G1 X147.0 Y17.25 
M3 S0
G0 X139.25 Y17.25 
M3 S255
G1 X139.25 Y17.25 
M3 S255
G1 X138.75 Y17.25 
M3 S0
G0 X136.0 Y17.25 
M3 S255
G1 X136.0 Y17.25 
M3 S255
G1 X134.5 Y17.25 
M3 S0
G0 X106.75 Y17.25 
M3 S255
G1 X106.75 Y17.25 
M3 S255
G1 X106.25 Y17.25 
M3 S0
G0 X103.0 Y17.25 
M3 S255
G1 X103.0 Y17.25 
M3 S255
G1 X102.75 Y17.25 
M3 S0
G0 X102.5 Y17.25 
M3 S255
G1 X102.5 Y17.25 
M3 S255
G1 X102.25 Y17.25 
M3 S0
G0 X100.5 Y17.25 
M3 S255
G1 X100.5 Y17.25 
M3 S255
G1 X100.0 Y17.25 
M3 S0
G0 X99.0 Y17.25 
M3 S255
G1 X99.0 Y17.25 
M3 S255
G1 X98.25 Y17.25 
M3 S0
G0 X94.25 Y17.25 
M3 S255
G1 X94.25 Y17.25 
M3 S255
G1 X93.5 Y17.25 
M3 S0
G0 X87.25 Y17.25 
M3 S255
G1 X87.25 Y17.25 
M3 S255
G1 X86.25 Y17.25 
M3 S0
G0 X56.25 Y17.25 
M3 S255
G1 X56.25 Y17.25 
M3 S255
G1 X55.75 Y17.25 
M3 S0
G0 X50.75 Y17.25 
M3 S255
G1 X50.75 Y17.25 
M3 S255
G1 X47.5 Y17.25 
M3 S0
G0 X45.25 Y17.25 
M3 S255
G1 X45.25 Y17.25 
M3 S255
G1 X43.25 Y17.25 
M3 S0
M5 S0
G0 X43.0 Y17.5 
M3 S255
G1 X43.0 Y17.5 
M3 S255
G1 X44.75 Y17.5 
M3 S0
G0 X47.25 Y17.5 
M3 S255
G1 X47.25 Y17.5 
M3 S255
G1 X50.25 Y17.5 
M3 S0
G0 X50.5 Y17.5 
M3 S255
G1 X50.5 Y17.5 
M3 S255
G1 X50.75 Y17.5 
M3 S0
G0 X55.75 Y17.5 
M3 S255
G1 X55.75 Y17.5 
M3 S255
G1 X56.5 Y17.5 
M3 S0
G0 X86.25 Y17.5 
M3 S255
G1 X86.25 Y17.5 
M3 S255
G1 X87.25 Y17.5 
M3 S0
G0 X93.5 Y17.5 
M3 S255
G1 X93.5 Y17.5 
M3 S255
G1 X94.25 Y17.5 
M3 S0
G0 X98.25 Y17.5 
M3 S255
G1 X98.25 Y17.5 
M3 S255
G1 X98.75 Y17.5 
M3 S0
G0 X100.0 Y17.5 
M3 S255
G1 X100.0 Y17.5 
M3 S255
G1 X100.5 Y17.5 
M3 S0
G0 X102.75 Y17.5 
M3 S255
G1 X102.75 Y17.5 
M3 S255
G1 X103.0 Y17.5 
M3 S0
G0 X106.25 Y17.5 
M3 S255
G1 X106.25 Y17.5 
M3 S255
G1 X106.75 Y17.5 
M3 S0
G0 X134.25 Y17.5 
M3 S255
G1 X134.25 Y17.5 
M3 S255
G1 X136.0 Y17.5 
M3 S0
G0 X138.5 Y17.5 
M3 S255
G1 X138.5 Y17.5 
M3 S255
G1 X139.25 Y17.5 
M3 S0
G0 X147.75 Y17.5 
M3 S255
G1 X147.75 Y17.5 
M3 S255
G1 X149.5 Y17.5 
M3 S0
G0 X153.0 Y17.5 
M3 S255
G1 X153.0 Y17.5 
M3 S255
G1 X154.25 Y17.5 
M3 S0
G0 X154.75 Y17.5 
M3 S255
G1 X154.75 Y17.5 
M3 S255
G1 X156.5 Y17.5 
M3 S0
M5 S0
G0 X157.0 Y17.75 
M3 S255
G1 X157.0 Y17.75 
M3 S255
G1 X155.0 Y17.75 
M3 S0
G0 X154.75 Y17.75 
M3 S255
G1 X154.75 Y17.75 
M3 S255
G1 X154.5 Y17.75 
M3 S0
G0 X154.25 Y17.75 
M3 S255
G1 X154.25 Y17.75 
M3 S255
G1 X153.0 Y17.75 
M3 S0
G0 X149.5 Y17.75 
M3 S255
G1 X149.5 Y17.75 
M3 S255
G1 X148.75 Y17.75 
M3 S0
G0 X139.25 Y17.75 
M3 S255
G1 X139.25 Y17.75 
M3 S255
G1 X138.25 Y17.75 
M3 S0
G0 X135.75 Y17.75 
M3 S255
G1 X135.75 Y17.75 
M3 S255
G1 X134.25 Y17.75 
M3 S0
G0 X106.75 Y17.75 
M3 S255
G1 X106.75 Y17.75 
M3 S255
G1 X106.25 Y17.75 
M3 S0
G0 X103.0 Y17.75 
M3 S255
G1 X103.0 Y17.75 
M3 S255
G1 X102.75 Y17.75 
M3 S0
G0 X100.5 Y17.75 
M3 S255
G1 X100.5 Y17.75 
M3 S255
G1 X100.0 Y17.75 
M3 S0
G0 X99.0 Y17.75 
M3 S255
G1 X99.0 Y17.75 
M3 S255
G1 X98.25 Y17.75 
M3 S0
G0 X94.25 Y17.75 
M3 S255
G1 X94.25 Y17.75 
M3 S255
G1 X93.5 Y17.75 
M3 S0
G0 X87.25 Y17.75 
M3 S255
G1 X87.25 Y17.75 
M3 S255
G1 X86.25 Y17.75 
M3 S0
G0 X56.5 Y17.75 
M3 S255
G1 X56.5 Y17.75 
M3 S255
G1 X55.75 Y17.75 
M3 S0
G0 X50.0 Y17.75 
M3 S255
G1 X50.0 Y17.75 
M3 S255
G1 X46.5 Y17.75 
M3 S0
G0 X44.5 Y17.75 
M3 S255
G1 X44.5 Y17.75 
M3 S255
G1 X42.5 Y17.75 
M3 S0
M5 S0
G0 X42.25 Y18.0 
M3 S255
G1 X42.25 Y18.0 
M3 S255
G1 X44.25 Y18.0 
M3 S0
G0 X46.25 Y18.0 
M3 S255
G1 X46.25 Y18.0 
M3 S255
G1 X49.5 Y18.0 
M3 S0
G0 X55.75 Y18.0 
M3 S255
G1 X55.75 Y18.0 
M3 S255
G1 X56.5 Y18.0 
M3 S0
G0 X86.25 Y18.0 
M3 S255
G1 X86.25 Y18.0 
M3 S255
G1 X87.25 Y18.0 
M3 S0
G0 X93.25 Y18.0 
M3 S255
G1 X93.25 Y18.0 
M3 S255
G1 X94.25 Y18.0 
M3 S0
G0 X98.25 Y18.0 
M3 S255
G1 X98.25 Y18.0 
M3 S255
G1 X99.0 Y18.0 
M3 S0
G0 X99.75 Y18.0 
M3 S255
G1 X99.75 Y18.0 
M3 S255
G1 X100.5 Y18.0 
M3 S0
G0 X102.75 Y18.0 
M3 S255
G1 X102.75 Y18.0 
M3 S255
G1 X103.25 Y18.0 
M3 S0
G0 X106.25 Y18.0 
M3 S255
G1 X106.25 Y18.0 
M3 S255
G1 X106.75 Y18.0 
M3 S0
G0 X134.25 Y18.0 
M3 S255
G1 X134.25 Y18.0 
M3 S255
G1 X135.75 Y18.0 
M3 S0
G0 X138.25 Y18.0 
M3 S255
G1 X138.25 Y18.0 
M3 S255
G1 X139.0 Y18.0 
M3 S0
G0 X139.75 Y18.0 
M3 S255
G1 X139.75 Y18.0 
M3 S255
G1 X140.75 Y18.0 
M3 S0
G0 X152.75 Y18.0 
M3 S255
G1 X152.75 Y18.0 
M3 S255
G1 X154.75 Y18.0 
M3 S0
G0 X155.25 Y18.0 
M3 S255
G1 X155.25 Y18.0 
M3 S255
G1 X157.25 Y18.0 
M3 S0
M5 S0
G0 X157.75 Y18.25 
M3 S255
G1 X157.75 Y18.25 
M3 S255
G1 X155.75 Y18.25 
M3 S0
G0 X155.25 Y18.25 
M3 S255
G1 X155.25 Y18.25 
M3 S255
G1 X151.25 Y18.25 
M3 S0
G0 X146.25 Y18.25 
M3 S255
G1 X146.25 Y18.25 
M3 S255
G1 X144.75 Y18.25 
M3 S0
G0 X140.75 Y18.25 
M3 S255
G1 X140.75 Y18.25 
M3 S255
G1 X139.25 Y18.25 
M3 S0
G0 X135.5 Y18.25 
M3 S255
G1 X135.5 Y18.25 
M3 S255
G1 X134.0 Y18.25 
M3 S0
G0 X106.75 Y18.25 
M3 S255
G1 X106.75 Y18.25 
M3 S255
G1 X106.25 Y18.25 
M3 S0
G0 X103.25 Y18.25 
M3 S255
G1 X103.25 Y18.25 
M3 S255
G1 X102.75 Y18.25 
M3 S0
G0 X100.25 Y18.25 
M3 S255
G1 X100.25 Y18.25 
M3 S255
G1 X99.75 Y18.25 
M3 S0
G0 X99.0 Y18.25 
M3 S255
G1 X99.0 Y18.25 
M3 S255
G1 X98.25 Y18.25 
M3 S0
G0 X94.25 Y18.25 
M3 S255
G1 X94.25 Y18.25 
M3 S255
G1 X93.25 Y18.25 
M3 S0
G0 X88.0 Y18.25 
M3 S255
G1 X88.0 Y18.25 
M3 S255
G1 X87.5 Y18.25 
M3 S0
G0 X87.0 Y18.25 
M3 S255
G1 X87.0 Y18.25 
M3 S255
G1 X86.0 Y18.25 
M3 S0
G0 X56.5 Y18.25 
M3 S255
G1 X56.5 Y18.25 
M3 S255
G1 X55.75 Y18.25 
M3 S0
G0 X55.0 Y18.25 
M3 S255
G1 X55.0 Y18.25 
M3 S255
G1 X54.25 Y18.25 
M3 S0
G0 X48.25 Y18.25 
M3 S255
G1 X48.25 Y18.25 
M3 S255
G1 X45.5 Y18.25 
M3 S0
G0 X43.5 Y18.25 
M3 S255
G1 X43.5 Y18.25 
M3 S255
G1 X41.75 Y18.25 
M3 S0
M5 S0
G0 X41.5 Y18.5 
M3 S255
G1 X41.5 Y18.5 
M3 S255
G1 X43.25 Y18.5 
M3 S0
G0 X45.25 Y18.5 
M3 S255
G1 X45.25 Y18.5 
M3 S255
G1 X47.25 Y18.5 
M3 S0
G0 X54.25 Y18.5 
M3 S255
G1 X54.25 Y18.5 
M3 S255
G1 X55.0 Y18.5 
M3 S0
G0 X55.75 Y18.5 
M3 S255
G1 X55.75 Y18.5 
M3 S255
G1 X56.75 Y18.5 
M3 S0
G0 X86.0 Y18.5 
M3 S255
G1 X86.0 Y18.5 
M3 S255
G1 X87.0 Y18.5 
M3 S0
G0 X87.5 Y18.5 
M3 S255
G1 X87.5 Y18.5 
M3 S255
G1 X88.0 Y18.5 
M3 S0
G0 X93.25 Y18.5 
M3 S255
G1 X93.25 Y18.5 
M3 S255
G1 X94.25 Y18.5 
M3 S0
G0 X98.25 Y18.5 
M3 S255
G1 X98.25 Y18.5 
M3 S255
G1 X99.0 Y18.5 
M3 S0
G0 X99.75 Y18.5 
M3 S255
G1 X99.75 Y18.5 
M3 S255
G1 X100.25 Y18.5 
M3 S0
G0 X102.75 Y18.5 
M3 S255
G1 X102.75 Y18.5 
M3 S255
G1 X103.25 Y18.5 
M3 S0
G0 X106.25 Y18.5 
M3 S255
G1 X106.25 Y18.5 
M3 S255
G1 X106.75 Y18.5 
M3 S0
G0 X134.0 Y18.5 
M3 S255
G1 X134.0 Y18.5 
M3 S255
G1 X135.5 Y18.5 
M3 S0
G0 X139.25 Y18.5 
M3 S255
G1 X139.25 Y18.5 
M3 S255
G1 X140.75 Y18.5 
M3 S0
G0 X142.75 Y18.5 
M3 S255
G1 X142.75 Y18.5 
M3 S255
G1 X147.25 Y18.5 
M3 S0
G0 X151.5 Y18.5 
M3 S255
G1 X151.5 Y18.5 
M3 S255
G1 X155.5 Y18.5 
M3 S0
G0 X156.25 Y18.5 
M3 S255
G1 X156.25 Y18.5 
M3 S255
G1 X158.0 Y18.5 
M3 S0
M5 S0
G0 X158.25 Y18.75 
M3 S255
G1 X158.25 Y18.75 
M3 S255
G1 X156.25 Y18.75 
M3 S0
G0 X155.5 Y18.75 
M3 S255
G1 X155.5 Y18.75 
M3 S255
G1 X152.0 Y18.75 
M3 S0
G0 X149.25 Y18.75 
M3 S255
G1 X149.25 Y18.75 
M3 S255
G1 X141.5 Y18.75 
M3 S0
G0 X140.75 Y18.75 
M3 S255
G1 X140.75 Y18.75 
M3 S255
G1 X140.0 Y18.75 
M3 S0
G0 X139.75 Y18.75 
M3 S255
G1 X139.75 Y18.75 
M3 S255
G1 X139.5 Y18.75 
M3 S0
G0 X135.5 Y18.75 
M3 S255
G1 X135.5 Y18.75 
M3 S255
G1 X134.75 Y18.75 
M3 S0
G0 X134.5 Y18.75 
M3 S255
G1 X134.5 Y18.75 
M3 S255
G1 X133.75 Y18.75 
M3 S0
G0 X106.75 Y18.75 
M3 S255
G1 X106.75 Y18.75 
M3 S255
G1 X106.25 Y18.75 
M3 S0
G0 X103.25 Y18.75 
M3 S255
G1 X103.25 Y18.75 
M3 S255
G1 X102.75 Y18.75 
M3 S0
G0 X100.25 Y18.75 
M3 S255
G1 X100.25 Y18.75 
M3 S255
G1 X99.5 Y18.75 
M3 S0
G0 X99.0 Y18.75 
M3 S255
G1 X99.0 Y18.75 
M3 S255
G1 X98.25 Y18.75 
M3 S0
G0 X94.25 Y18.75 
M3 S255
G1 X94.25 Y18.75 
M3 S255
G1 X93.25 Y18.75 
M3 S0
G0 X88.0 Y18.75 
M3 S255
G1 X88.0 Y18.75 
M3 S255
G1 X87.5 Y18.75 
M3 S0
G0 X86.75 Y18.75 
M3 S255
G1 X86.75 Y18.75 
M3 S255
G1 X86.0 Y18.75 
M3 S0
G0 X56.75 Y18.75 
M3 S255
G1 X56.75 Y18.75 
M3 S255
G1 X55.75 Y18.75 
M3 S0
G0 X54.75 Y18.75 
M3 S255
G1 X54.75 Y18.75 
M3 S255
G1 X54.0 Y18.75 
M3 S0
G0 X46.75 Y18.75 
M3 S255
G1 X46.75 Y18.75 
M3 S255
G1 X44.75 Y18.75 
M3 S0
G0 X43.0 Y18.75 
M3 S255
G1 X43.0 Y18.75 
M3 S255
G1 X41.25 Y18.75 
M3 S0
M5 S0
G0 X40.75 Y19.0 
M3 S255
G1 X40.75 Y19.0 
M3 S255
G1 X42.5 Y19.0 
M3 S0
G0 X43.75 Y19.0 
M3 S255
G1 X43.75 Y19.0 
M3 S255
G1 X45.5 Y19.0 
M3 S0
G0 X52.75 Y19.0 
M3 S255
G1 X52.75 Y19.0 
M3 S255
G1 X53.25 Y19.0 
M3 S0
G0 X54.0 Y19.0 
M3 S255
G1 X54.0 Y19.0 
M3 S255
G1 X55.25 Y19.0 
M3 S0
G0 X55.75 Y19.0 
M3 S255
G1 X55.75 Y19.0 
M3 S255
G1 X56.75 Y19.0 
M3 S0
G0 X85.75 Y19.0 
M3 S255
G1 X85.75 Y19.0 
M3 S255
G1 X86.75 Y19.0 
M3 S0
G0 X87.25 Y19.0 
M3 S255
G1 X87.25 Y19.0 
M3 S255
G1 X87.75 Y19.0 
M3 S0
G0 X93.25 Y19.0 
M3 S255
G1 X93.25 Y19.0 
M3 S255
G1 X94.25 Y19.0 
M3 S0
G0 X98.0 Y19.0 
M3 S255
G1 X98.0 Y19.0 
M3 S255
G1 X99.0 Y19.0 
M3 S0
G0 X99.5 Y19.0 
M3 S255
G1 X99.5 Y19.0 
M3 S255
G1 X100.25 Y19.0 
M3 S0
G0 X102.75 Y19.0 
M3 S255
G1 X102.75 Y19.0 
M3 S255
G1 X103.5 Y19.0 
M3 S0
G0 X106.25 Y19.0 
M3 S255
G1 X106.25 Y19.0 
M3 S255
G1 X106.75 Y19.0 
M3 S0
G0 X133.5 Y19.0 
M3 S255
G1 X133.5 Y19.0 
M3 S255
G1 X134.25 Y19.0 
M3 S0
G0 X134.75 Y19.0 
M3 S255
G1 X134.75 Y19.0 
M3 S255
G1 X135.25 Y19.0 
M3 S0
G0 X140.0 Y19.0 
M3 S255
G1 X140.0 Y19.0 
M3 S255
G1 X140.5 Y19.0 
M3 S0
G0 X141.25 Y19.0 
M3 S255
G1 X141.25 Y19.0 
M3 S255
G1 X142.75 Y19.0 
M3 S0
G0 X145.0 Y19.0 
M3 S255
G1 X145.0 Y19.0 
M3 S255
G1 X149.5 Y19.0 
M3 S0
G0 X152.25 Y19.0 
M3 S255
G1 X152.25 Y19.0 
M3 S255
G1 X154.0 Y19.0 
M3 S0
G0 X155.5 Y19.0 
M3 S255
G1 X155.5 Y19.0 
M3 S255
G1 X156.0 Y19.0 
M3 S0
G0 X157.0 Y19.0 
M3 S255
G1 X157.0 Y19.0 
M3 S255
G1 X158.75 Y19.0 
M3 S0
M5 S0
G0 X159.0 Y19.25 
M3 S255
G1 X159.0 Y19.25 
M3 S255
G1 X157.25 Y19.25 
M3 S0
G0 X156.25 Y19.25 
M3 S255
G1 X156.25 Y19.25 
M3 S255
G1 X155.5 Y19.25 
M3 S0
G0 X154.25 Y19.25 
M3 S255
G1 X154.25 Y19.25 
M3 S255
G1 X152.75 Y19.25 
M3 S0
G0 X150.75 Y19.25 
M3 S255
G1 X150.75 Y19.25 
M3 S255
G1 X147.25 Y19.25 
M3 S0
G0 X142.25 Y19.25 
M3 S255
G1 X142.25 Y19.25 
M3 S255
G1 X141.0 Y19.25 
M3 S0
G0 X140.25 Y19.25 
M3 S255
G1 X140.25 Y19.25 
M3 S255
G1 X140.0 Y19.25 
M3 S0
G0 X135.25 Y19.25 
M3 S255
G1 X135.25 Y19.25 
M3 S255
G1 X134.75 Y19.25 
M3 S0
G0 X134.25 Y19.25 
M3 S255
G1 X134.25 Y19.25 
M3 S255
G1 X133.5 Y19.25 
M3 S0
G0 X106.75 Y19.25 
M3 S255
G1 X106.75 Y19.25 
M3 S255
G1 X106.0 Y19.25 
M3 S0
G0 X103.5 Y19.25 
M3 S255
G1 X103.5 Y19.25 
M3 S255
G1 X102.75 Y19.25 
M3 S0
G0 X100.25 Y19.25 
M3 S255
G1 X100.25 Y19.25 
M3 S255
G1 X99.5 Y19.25 
M3 S0
G0 X98.75 Y19.25 
M3 S255
G1 X98.75 Y19.25 
M3 S255
G1 X98.0 Y19.25 
M3 S0
G0 X94.25 Y19.25 
M3 S255
G1 X94.25 Y19.25 
M3 S255
G1 X93.25 Y19.25 
M3 S0
G0 X87.75 Y19.25 
M3 S255
G1 X87.75 Y19.25 
M3 S255
G1 X87.25 Y19.25 
M3 S0
G0 X86.5 Y19.25 
M3 S255
G1 X86.5 Y19.25 
M3 S255
G1 X85.75 Y19.25 
M3 S0
G0 X56.75 Y19.25 
M3 S255
G1 X56.75 Y19.25 
M3 S255
G1 X56.0 Y19.25 
M3 S0
G0 X55.25 Y19.25 
M3 S255
G1 X55.25 Y19.25 
M3 S255
G1 X54.25 Y19.25 
M3 S0
G0 X53.25 Y19.25 
M3 S255
G1 X53.25 Y19.25 
M3 S255
G1 X52.75 Y19.25 
M3 S0
G0 X45.5 Y19.25 
M3 S255
G1 X45.5 Y19.25 
M3 S255
G1 X43.25 Y19.25 
M3 S0
G0 X42.25 Y19.25 
M3 S255
G1 X42.25 Y19.25 
M3 S255
G1 X40.5 Y19.25 
M3 S0
M5 S0
G0 X40.25 Y19.5 
M3 S255
G1 X40.25 Y19.5 
M3 S255
G1 X42.0 Y19.5 
M3 S0
G0 X43.0 Y19.5 
M3 S255
G1 X43.0 Y19.5 
M3 S255
G1 X45.5 Y19.5 
M3 S0
G0 X52.75 Y19.5 
M3 S255
G1 X52.75 Y19.5 
M3 S255
G1 X53.25 Y19.5 
M3 S0
G0 X54.25 Y19.5 
M3 S255
G1 X54.25 Y19.5 
M3 S255
G1 X55.5 Y19.5 
M3 S0
G0 X55.75 Y19.5 
M3 S255
G1 X55.75 Y19.5 
M3 S255
G1 X56.75 Y19.5 
M3 S0
G0 X85.5 Y19.5 
M3 S255
G1 X85.5 Y19.5 
M3 S255
G1 X86.5 Y19.5 
M3 S0
G0 X87.25 Y19.5 
M3 S255
G1 X87.25 Y19.5 
M3 S255
G1 X87.75 Y19.5 
M3 S0
G0 X93.25 Y19.5 
M3 S255
G1 X93.25 Y19.5 
M3 S255
G1 X94.25 Y19.5 
M3 S0
G0 X98.0 Y19.5 
M3 S255
G1 X98.0 Y19.5 
M3 S255
G1 X98.75 Y19.5 
M3 S0
G0 X99.5 Y19.5 
M3 S255
G1 X99.5 Y19.5 
M3 S255
G1 X100.0 Y19.5 
M3 S0
G0 X102.75 Y19.5 
M3 S255
G1 X102.75 Y19.5 
M3 S255
G1 X103.5 Y19.5 
M3 S0
G0 X106.0 Y19.5 
M3 S255
G1 X106.0 Y19.5 
M3 S255
G1 X106.75 Y19.5 
M3 S0
G0 X133.25 Y19.5 
M3 S255
G1 X133.25 Y19.5 
M3 S255
G1 X134.25 Y19.5 
M3 S0
G0 X134.5 Y19.5 
M3 S255
G1 X134.5 Y19.5 
M3 S255
G1 X135.25 Y19.5 
M3 S0
G0 X140.75 Y19.5 
M3 S255
G1 X140.75 Y19.5 
M3 S255
G1 X142.25 Y19.5 
M3 S0
G0 X148.25 Y19.5 
M3 S255
G1 X148.25 Y19.5 
M3 S255
G1 X151.5 Y19.5 
M3 S0
G0 X153.0 Y19.5 
M3 S255
G1 X153.0 Y19.5 
M3 S255
G1 X156.25 Y19.5 
M3 S0
G0 X157.5 Y19.5 
M3 S255
G1 X157.5 Y19.5 
M3 S255
G1 X159.25 Y19.5 
M3 S0
M5 S0
G0 X159.75 Y19.75 
M3 S255
G1 X159.75 Y19.75 
M3 S255
G1 X158.0 Y19.75 
M3 S0
G0 X156.75 Y19.75 
M3 S255
G1 X156.75 Y19.75 
M3 S255
G1 X156.25 Y19.75 
M3 S0
G0 X155.5 Y19.75 
M3 S255
G1 X155.5 Y19.75 
M3 S255
G1 X149.75 Y19.75 
M3 S0
G0 X141.5 Y19.75 
M3 S255
G1 X141.5 Y19.75 
M3 S255
G1 X140.75 Y19.75 
M3 S0
G0 X135.25 Y19.75 
M3 S255
G1 X135.25 Y19.75 
M3 S255
G1 X134.5 Y19.75 
M3 S0
G0 X134.0 Y19.75 
M3 S255
G1 X134.0 Y19.75 
M3 S255
G1 X132.75 Y19.75 
M3 S0
G0 X106.75 Y19.75 
M3 S255
G1 X106.75 Y19.75 
M3 S255
G1 X106.0 Y19.75 
M3 S0
G0 X103.5 Y19.75 
M3 S255
G1 X103.5 Y19.75 
M3 S255
G1 X103.0 Y19.75 
M3 S0
G0 X100.0 Y19.75 
M3 S255
G1 X100.0 Y19.75 
M3 S255
G1 X99.5 Y19.75 
M3 S0
G0 X98.75 Y19.75 
M3 S255
G1 X98.75 Y19.75 
M3 S255
G1 X98.0 Y19.75 
M3 S0
G0 X94.25 Y19.75 
M3 S255
G1 X94.25 Y19.75 
M3 S255
G1 X92.75 Y19.75 
M3 S0
G0 X87.5 Y19.75 
M3 S255
G1 X87.5 Y19.75 
M3 S255
G1 X87.0 Y19.75 
M3 S0
G0 X86.25 Y19.75 
M3 S255
G1 X86.25 Y19.75 
M3 S255
G1 X85.5 Y19.75 
M3 S0
G0 X57.0 Y19.75 
M3 S255
G1 X57.0 Y19.75 
M3 S255
G1 X54.75 Y19.75 
M3 S0
G0 X53.25 Y19.75 
M3 S255
G1 X53.25 Y19.75 
M3 S255
G1 X53.0 Y19.75 
M3 S0
G0 X44.0 Y19.75 
M3 S255
G1 X44.0 Y19.75 
M3 S255
G1 X42.25 Y19.75 
M3 S0
G0 X41.5 Y19.75 
M3 S255
G1 X41.5 Y19.75 
M3 S255
G1 X39.75 Y19.75 
M3 S0
M5 S0
G0 X39.5 Y20.0 
M3 S255
G1 X39.5 Y20.0 
M3 S255
G1 X41.25 Y20.0 
M3 S0
G0 X41.75 Y20.0 
M3 S255
G1 X41.75 Y20.0 
M3 S255
G1 X43.75 Y20.0 
M3 S0
G0 X54.75 Y20.0 
M3 S255
G1 X54.75 Y20.0 
M3 S255
G1 X57.0 Y20.0 
M3 S0
G0 X85.5 Y20.0 
M3 S255
G1 X85.5 Y20.0 
M3 S255
G1 X86.25 Y20.0 
M3 S0
G0 X87.0 Y20.0 
M3 S255
G1 X87.0 Y20.0 
M3 S255
G1 X87.5 Y20.0 
M3 S0
G0 X92.75 Y20.0 
M3 S255
G1 X92.75 Y20.0 
M3 S255
G1 X94.25 Y20.0 
M3 S0
G0 X98.0 Y20.0 
M3 S255
G1 X98.0 Y20.0 
M3 S255
G1 X98.75 Y20.0 
M3 S0
G0 X99.5 Y20.0 
M3 S255
G1 X99.5 Y20.0 
M3 S255
G1 X100.0 Y20.0 
M3 S0
G0 X103.0 Y20.0 
M3 S255
G1 X103.0 Y20.0 
M3 S255
G1 X103.5 Y20.0 
M3 S0
G0 X106.0 Y20.0 
M3 S255
G1 X106.0 Y20.0 
M3 S255
G1 X106.75 Y20.0 
M3 S0
G0 X132.75 Y20.0 
M3 S255
G1 X132.75 Y20.0 
M3 S255
G1 X133.75 Y20.0 
M3 S0
G0 X134.5 Y20.0 
M3 S255
G1 X134.5 Y20.0 
M3 S255
G1 X135.25 Y20.0 
M3 S0
G0 X138.25 Y20.0 
M3 S255
G1 X138.25 Y20.0 
M3 S255
G1 X138.5 Y20.0 
M3 S0
G0 X140.5 Y20.0 
M3 S255
G1 X140.5 Y20.0 
M3 S255
G1 X141.5 Y20.0 
M3 S0
G0 X150.75 Y20.0 
M3 S255
G1 X150.75 Y20.0 
M3 S255
G1 X153.5 Y20.0 
M3 S0
G0 X156.5 Y20.0 
M3 S255
G1 X156.5 Y20.0 
M3 S255
G1 X157.0 Y20.0 
M3 S0
G0 X158.25 Y20.0 
M3 S255
G1 X158.25 Y20.0 
M3 S255
G1 X160.0 Y20.0 
M3 S0
M5 S0
G0 X160.25 Y20.25 
M3 S255
G1 X160.25 Y20.25 
M3 S255
G1 X158.5 Y20.25 
M3 S0
G0 X157.25 Y20.25 
M3 S255
G1 X157.25 Y20.25 
M3 S255
G1 X156.75 Y20.25 
M3 S0
G0 X154.0 Y20.25 
M3 S255
G1 X154.0 Y20.25 
M3 S255
G1 X151.5 Y20.25 
M3 S0
G0 X141.25 Y20.25 
M3 S255
G1 X141.25 Y20.25 
M3 S255
G1 X140.25 Y20.25 
M3 S0
G0 X135.25 Y20.25 
M3 S255
G1 X135.25 Y20.25 
M3 S255
G1 X134.5 Y20.25 
M3 S0
G0 X133.5 Y20.25 
M3 S255
G1 X133.5 Y20.25 
M3 S255
G1 X132.75 Y20.25 
M3 S0
G0 X106.75 Y20.25 
M3 S255
G1 X106.75 Y20.25 
M3 S255
G1 X106.0 Y20.25 
M3 S0
G0 X103.5 Y20.25 
M3 S255
G1 X103.5 Y20.25 
M3 S255
G1 X103.0 Y20.25 
M3 S0
G0 X100.0 Y20.25 
M3 S255
G1 X100.0 Y20.25 
M3 S255
G1 X99.5 Y20.25 
M3 S0
G0 X98.75 Y20.25 
M3 S255
G1 X98.75 Y20.25 
M3 S255
G1 X98.0 Y20.25 
M3 S0
G0 X94.25 Y20.25 
M3 S255
G1 X94.25 Y20.25 
M3 S255
G1 X92.75 Y20.25 
M3 S0
G0 X87.5 Y20.25 
M3 S255
G1 X87.5 Y20.25 
M3 S255
G1 X87.0 Y20.25 
M3 S0
G0 X86.25 Y20.25 
M3 S255
G1 X86.25 Y20.25 
M3 S255
G1 X85.5 Y20.25 
M3 S0
G0 X57.0 Y20.25 
M3 S255
G1 X57.0 Y20.25 
M3 S255
G1 X55.0 Y20.25 
M3 S0
G0 X43.5 Y20.25 
M3 S255
G1 X43.5 Y20.25 
M3 S255
G1 X43.25 Y20.25 
M3 S0
G0 X42.75 Y20.25 
M3 S255
G1 X42.75 Y20.25 
M3 S255
G1 X41.5 Y20.25 
M3 S0
G0 X41.0 Y20.25 
M3 S255
G1 X41.0 Y20.25 
M3 S255
G1 X39.25 Y20.25 
M3 S0
M5 S0
G0 X38.75 Y20.5 
M3 S255
G1 X38.75 Y20.5 
M3 S255
G1 X40.5 Y20.5 
M3 S0
G0 X40.75 Y20.5 
M3 S255
G1 X40.75 Y20.5 
M3 S255
G1 X42.25 Y20.5 
M3 S0
G0 X55.5 Y20.5 
M3 S255
G1 X55.5 Y20.5 
M3 S255
G1 X57.0 Y20.5 
M3 S0
G0 X85.5 Y20.5 
M3 S255
G1 X85.5 Y20.5 
M3 S255
G1 X86.25 Y20.5 
M3 S0
G0 X86.75 Y20.5 
M3 S255
G1 X86.75 Y20.5 
M3 S255
G1 X87.25 Y20.5 
M3 S0
G0 X92.75 Y20.5 
M3 S255
G1 X92.75 Y20.5 
M3 S255
G1 X94.25 Y20.5 
M3 S0
G0 X98.0 Y20.5 
M3 S255
G1 X98.0 Y20.5 
M3 S255
G1 X99.0 Y20.5 
M3 S0
G0 X99.5 Y20.5 
M3 S255
G1 X99.5 Y20.5 
M3 S255
G1 X100.0 Y20.5 
M3 S0
G0 X103.0 Y20.5 
M3 S255
G1 X103.0 Y20.5 
M3 S255
G1 X103.5 Y20.5 
M3 S0
G0 X106.0 Y20.5 
M3 S255
G1 X106.0 Y20.5 
M3 S255
G1 X106.75 Y20.5 
M3 S0
G0 X132.25 Y20.5 
M3 S255
G1 X132.25 Y20.5 
M3 S255
G1 X133.5 Y20.5 
M3 S0
G0 X134.25 Y20.5 
M3 S255
G1 X134.25 Y20.5 
M3 S255
G1 X135.0 Y20.5 
M3 S0
G0 X140.0 Y20.5 
M3 S255
G1 X140.0 Y20.5 
M3 S255
G1 X141.0 Y20.5 
M3 S0
G0 X153.0 Y20.5 
M3 S255
G1 X153.0 Y20.5 
M3 S255
G1 X154.5 Y20.5 
M3 S0
G0 X155.75 Y20.5 
M3 S255
G1 X155.75 Y20.5 
M3 S255
G1 X156.25 Y20.5 
M3 S0
G0 X156.75 Y20.5 
M3 S255
G1 X156.75 Y20.5 
M3 S255
G1 X157.25 Y20.5 
M3 S0
G0 X159.0 Y20.5 
M3 S255
G1 X159.0 Y20.5 
M3 S255
G1 X160.75 Y20.5 
M3 S0
M5 S0
G0 X161.0 Y20.75 
M3 S255
G1 X161.0 Y20.75 
M3 S255
G1 X159.25 Y20.75 
M3 S0
G0 X157.25 Y20.75 
M3 S255
G1 X157.25 Y20.75 
M3 S255
G1 X153.5 Y20.75 
M3 S0
G0 X140.75 Y20.75 
M3 S255
G1 X140.75 Y20.75 
M3 S255
G1 X140.0 Y20.75 
M3 S0
G0 X135.0 Y20.75 
M3 S255
G1 X135.0 Y20.75 
M3 S255
G1 X134.25 Y20.75 
M3 S0
G0 X133.25 Y20.75 
M3 S255
G1 X133.25 Y20.75 
M3 S255
G1 X132.0 Y20.75 
M3 S0
G0 X106.75 Y20.75 
M3 S255
G1 X106.75 Y20.75 
M3 S255
G1 X106.0 Y20.75 
M3 S0
G0 X103.5 Y20.75 
M3 S255
G1 X103.5 Y20.75 
M3 S255
G1 X103.25 Y20.75 
M3 S0
G0 X100.0 Y20.75 
M3 S255
G1 X100.0 Y20.75 
M3 S255
G1 X99.5 Y20.75 
M3 S0
G0 X99.0 Y20.75 
M3 S255
G1 X99.0 Y20.75 
M3 S255
G1 X98.0 Y20.75 
M3 S0
G0 X94.25 Y20.75 
M3 S255
G1 X94.25 Y20.75 
M3 S255
G1 X92.75 Y20.75 
M3 S0
G0 X87.25 Y20.75 
M3 S255
G1 X87.25 Y20.75 
M3 S255
G1 X86.75 Y20.75 
M3 S0
G0 X86.25 Y20.75 
M3 S255
G1 X86.25 Y20.75 
M3 S255
G1 X85.5 Y20.75 
M3 S0
G0 X57.25 Y20.75 
M3 S255
G1 X57.25 Y20.75 
M3 S255
G1 X55.75 Y20.75 
M3 S0
G0 X42.0 Y20.75 
M3 S255
G1 X42.0 Y20.75 
M3 S255
G1 X40.5 Y20.75 
M3 S0
G0 X40.0 Y20.75 
M3 S255
G1 X40.0 Y20.75 
M3 S255
G1 X38.25 Y20.75 
M3 S0
M5 S0
G0 X38.25 Y21.0 
M3 S255
G1 X38.25 Y21.0 
M3 S255
G1 X41.75 Y21.0 
M3 S0
G0 X53.0 Y21.0 
M3 S255
G1 X53.0 Y21.0 
M3 S255
G1 X53.25 Y21.0 
M3 S0
G0 X55.75 Y21.0 
M3 S255
G1 X55.75 Y21.0 
M3 S255
G1 X57.25 Y21.0 
M3 S0
G0 X85.25 Y21.0 
M3 S255
G1 X85.25 Y21.0 
M3 S255
G1 X86.25 Y21.0 
M3 S0
G0 X86.75 Y21.0 
M3 S255
G1 X86.75 Y21.0 
M3 S255
G1 X87.25 Y21.0 
M3 S0
G0 X92.75 Y21.0 
M3 S255
G1 X92.75 Y21.0 
M3 S255
G1 X94.25 Y21.0 
M3 S0
G0 X98.0 Y21.0 
M3 S255
G1 X98.0 Y21.0 
M3 S255
G1 X99.0 Y21.0 
M3 S0
G0 X99.5 Y21.0 
M3 S255
G1 X99.5 Y21.0 
M3 S255
G1 X100.0 Y21.0 
M3 S0
G0 X103.25 Y21.0 
M3 S255
G1 X103.25 Y21.0 
M3 S255
G1 X103.5 Y21.0 
M3 S0
G0 X106.0 Y21.0 
M3 S255
G1 X106.0 Y21.0 
M3 S255
G1 X106.75 Y21.0 
M3 S0
G0 X132.0 Y21.0 
M3 S255
G1 X132.0 Y21.0 
M3 S255
G1 X133.0 Y21.0 
M3 S0
G0 X134.25 Y21.0 
M3 S255
G1 X134.25 Y21.0 
M3 S255
G1 X135.0 Y21.0 
M3 S0
G0 X139.75 Y21.0 
M3 S255
G1 X139.75 Y21.0 
M3 S255
G1 X140.75 Y21.0 
M3 S0
G0 X154.0 Y21.0 
M3 S255
G1 X154.0 Y21.0 
M3 S255
G1 X157.25 Y21.0 
M3 S0
G0 X159.5 Y21.0 
M3 S255
G1 X159.5 Y21.0 
M3 S255
G1 X161.25 Y21.0 
M3 S0
M5 S0
G0 X161.75 Y21.25 
M3 S255
G1 X161.75 Y21.25 
M3 S255
G1 X160.0 Y21.25 
M3 S0
G0 X156.75 Y21.25 
M3 S255
G1 X156.75 Y21.25 
M3 S255
G1 X155.25 Y21.25 
M3 S0
G0 X140.25 Y21.25 
M3 S255
G1 X140.25 Y21.25 
M3 S255
G1 X139.5 Y21.25 
M3 S0
G0 X134.75 Y21.25 
M3 S255
G1 X134.75 Y21.25 
M3 S255
G1 X134.25 Y21.25 
M3 S0
G0 X132.75 Y21.25 
M3 S255
G1 X132.75 Y21.25 
M3 S255
G1 X131.75 Y21.25 
M3 S0
G0 X106.75 Y21.25 
M3 S255
G1 X106.75 Y21.25 
M3 S255
G1 X106.0 Y21.25 
M3 S0
G0 X103.5 Y21.25 
M3 S255
G1 X103.5 Y21.25 
M3 S255
G1 X103.25 Y21.25 
M3 S0
G0 X100.0 Y21.25 
M3 S255
G1 X100.0 Y21.25 
M3 S255
G1 X99.25 Y21.25 
M3 S0
G0 X99.0 Y21.25 
M3 S255
G1 X99.0 Y21.25 
M3 S255
G1 X98.0 Y21.25 
M3 S0
G0 X94.25 Y21.25 
M3 S255
G1 X94.25 Y21.25 
M3 S255
G1 X93.5 Y21.25 
M3 S0
G0 X93.25 Y21.25 
M3 S255
G1 X93.25 Y21.25 
M3 S255
G1 X92.75 Y21.25 
M3 S0
G0 X87.25 Y21.25 
M3 S255
G1 X87.25 Y21.25 
M3 S255
G1 X86.5 Y21.25 
M3 S0
G0 X86.25 Y21.25 
M3 S255
G1 X86.25 Y21.25 
M3 S255
G1 X85.25 Y21.25 
M3 S0
G0 X57.25 Y21.25 
M3 S255
G1 X57.25 Y21.25 
M3 S255
G1 X56.0 Y21.25 
M3 S0
G0 X53.25 Y21.25 
M3 S255
G1 X53.25 Y21.25 
M3 S255
G1 X53.0 Y21.25 
M3 S0
G0 X48.0 Y21.25 
M3 S255
G1 X48.0 Y21.25 
M3 S255
G1 X47.25 Y21.25 
M3 S0
G0 X41.5 Y21.25 
M3 S255
G1 X41.5 Y21.25 
M3 S255
G1 X37.75 Y21.25 
M3 S0
M5 S0
G0 X37.5 Y21.5 
M3 S255
G1 X37.5 Y21.5 
M3 S255
G1 X41.5 Y21.5 
M3 S0
G0 X47.25 Y21.5 
M3 S255
G1 X47.25 Y21.5 
M3 S255
G1 X48.0 Y21.5 
M3 S0
G0 X53.0 Y21.5 
M3 S255
G1 X53.0 Y21.5 
M3 S255
G1 X53.25 Y21.5 
M3 S0
G0 X56.0 Y21.5 
M3 S255
G1 X56.0 Y21.5 
M3 S255
G1 X57.25 Y21.5 
M3 S0
G0 X85.25 Y21.5 
M3 S255
G1 X85.25 Y21.5 
M3 S255
G1 X86.0 Y21.5 
M3 S0
G0 X86.5 Y21.5 
M3 S255
G1 X86.5 Y21.5 
M3 S255
G1 X87.25 Y21.5 
M3 S0
G0 X93.5 Y21.5 
M3 S255
G1 X93.5 Y21.5 
M3 S255
G1 X94.25 Y21.5 
M3 S0
G0 X98.0 Y21.5 
M3 S255
G1 X98.0 Y21.5 
M3 S255
G1 X100.0 Y21.5 
M3 S0
G0 X103.25 Y21.5 
M3 S255
G1 X103.25 Y21.5 
M3 S255
G1 X103.5 Y21.5 
M3 S0
G0 X106.0 Y21.5 
M3 S255
G1 X106.0 Y21.5 
M3 S255
G1 X106.75 Y21.5 
M3 S0
G0 X131.5 Y21.5 
M3 S255
G1 X131.5 Y21.5 
M3 S255
G1 X132.75 Y21.5 
M3 S0
G0 X134.25 Y21.5 
M3 S255
G1 X134.25 Y21.5 
M3 S255
G1 X134.75 Y21.5 
M3 S0
G0 X139.5 Y21.5 
M3 S255
G1 X139.5 Y21.5 
M3 S255
G1 X140.25 Y21.5 
M3 S0
G0 X156.0 Y21.5 
M3 S255
G1 X156.0 Y21.5 
M3 S255
G1 X156.25 Y21.5 
M3 S0
G0 X160.25 Y21.5 
M3 S255
G1 X160.25 Y21.5 
M3 S255
G1 X162.0 Y21.5 
M3 S0
M5 S0
G0 X162.25 Y21.75 
M3 S255
G1 X162.25 Y21.75 
M3 S255
G1 X160.5 Y21.75 
M3 S0
G0 X140.0 Y21.75 
M3 S255
G1 X140.0 Y21.75 
M3 S255
G1 X139.75 Y21.75 
M3 S0
G0 X139.5 Y21.75 
M3 S255
G1 X139.5 Y21.75 
M3 S255
G1 X139.25 Y21.75 
M3 S0
G0 X134.75 Y21.75 
M3 S255
G1 X134.75 Y21.75 
M3 S255
G1 X134.25 Y21.75 
M3 S0
G0 X132.5 Y21.75 
M3 S255
G1 X132.5 Y21.75 
M3 S255
G1 X131.25 Y21.75 
M3 S0
G0 X106.75 Y21.75 
M3 S255
G1 X106.75 Y21.75 
M3 S255
G1 X106.0 Y21.75 
M3 S0
G0 X103.5 Y21.75 
M3 S255
G1 X103.5 Y21.75 
M3 S255
G1 X103.25 Y21.75 
M3 S0
G0 X100.0 Y21.75 
M3 S255
G1 X100.0 Y21.75 
M3 S255
G1 X98.0 Y21.75 
M3 S0
G0 X94.25 Y21.75 
M3 S255
G1 X94.25 Y21.75 
M3 S255
G1 X93.5 Y21.75 
M3 S0
G0 X87.0 Y21.75 
M3 S255
G1 X87.0 Y21.75 
M3 S255
G1 X86.5 Y21.75 
M3 S0
G0 X86.0 Y21.75 
M3 S255
G1 X86.0 Y21.75 
M3 S255
G1 X85.0 Y21.75 
M3 S0
G0 X57.25 Y21.75 
M3 S255
G1 X57.25 Y21.75 
M3 S255
G1 X56.25 Y21.75 
M3 S0
G0 X53.25 Y21.75 
M3 S255
G1 X53.25 Y21.75 
M3 S255
G1 X53.0 Y21.75 
M3 S0
G0 X47.75 Y21.75 
M3 S255
G1 X47.75 Y21.75 
M3 S255
G1 X47.5 Y21.75 
M3 S0
G0 X43.25 Y21.75 
M3 S255
G1 X43.25 Y21.75 
M3 S255
G1 X42.75 Y21.75 
M3 S0
G0 X41.5 Y21.75 
M3 S255
G1 X41.5 Y21.75 
M3 S255
G1 X37.25 Y21.75 
M3 S0
M5 S0
G0 X37.0 Y22.0 
M3 S255
G1 X37.0 Y22.0 
M3 S255
G1 X40.25 Y22.0 
M3 S0
G0 X40.75 Y22.0 
M3 S255
G1 X40.75 Y22.0 
M3 S255
G1 X41.5 Y22.0 
M3 S0
G0 X42.75 Y22.0 
M3 S255
G1 X42.75 Y22.0 
M3 S255
G1 X43.25 Y22.0 
M3 S0
G0 X53.0 Y22.0 
M3 S255
G1 X53.0 Y22.0 
M3 S255
G1 X53.5 Y22.0 
M3 S0
G0 X56.25 Y22.0 
M3 S255
G1 X56.25 Y22.0 
M3 S255
G1 X57.5 Y22.0 
M3 S0
G0 X85.0 Y22.0 
M3 S255
G1 X85.0 Y22.0 
M3 S255
G1 X86.0 Y22.0 
M3 S0
G0 X86.5 Y22.0 
M3 S255
G1 X86.5 Y22.0 
M3 S255
G1 X87.0 Y22.0 
M3 S0
G0 X93.25 Y22.0 
M3 S255
G1 X93.25 Y22.0 
M3 S255
G1 X94.25 Y22.0 
M3 S0
G0 X98.0 Y22.0 
M3 S255
G1 X98.0 Y22.0 
M3 S255
G1 X100.0 Y22.0 
M3 S0
G0 X103.25 Y22.0 
M3 S255
G1 X103.25 Y22.0 
M3 S255
G1 X103.5 Y22.0 
M3 S0
G0 X106.0 Y22.0 
M3 S255
G1 X106.0 Y22.0 
M3 S255
G1 X106.75 Y22.0 
M3 S0
G0 X131.25 Y22.0 
M3 S255
G1 X131.25 Y22.0 
M3 S255
G1 X132.25 Y22.0 
M3 S0
G0 X134.25 Y22.0 
M3 S255
G1 X134.25 Y22.0 
M3 S255
G1 X134.75 Y22.0 
M3 S0
G0 X139.25 Y22.0 
M3 S255
G1 X139.25 Y22.0 
M3 S255
G1 X139.75 Y22.0 
M3 S0
G0 X160.75 Y22.0 
M3 S255
G1 X160.75 Y22.0 
M3 S255
G1 X162.5 Y22.0 
M3 S0
M5 S0
G0 X163.0 Y22.25 
M3 S255
G1 X163.0 Y22.25 
M3 S255
G1 X161.25 Y22.25 
M3 S0
G0 X139.75 Y22.25 
M3 S255
G1 X139.75 Y22.25 
M3 S255
G1 X139.0 Y22.25 
M3 S0
G0 X134.5 Y22.25 
M3 S255
G1 X134.5 Y22.25 
M3 S255
G1 X134.25 Y22.25 
M3 S0
G0 X132.0 Y22.25 
M3 S255
G1 X132.0 Y22.25 
M3 S255
G1 X131.0 Y22.25 
M3 S0
G0 X106.75 Y22.25 
M3 S255
G1 X106.75 Y22.25 
M3 S255
G1 X106.0 Y22.25 
M3 S0
G0 X100.0 Y22.25 
M3 S255
G1 X100.0 Y22.25 
M3 S255
G1 X98.0 Y22.25 
M3 S0
G0 X94.0 Y22.25 
M3 S255
G1 X94.0 Y22.25 
M3 S255
G1 X93.25 Y22.25 
M3 S0
G0 X87.0 Y22.25 
M3 S255
G1 X87.0 Y22.25 
M3 S255
G1 X86.25 Y22.25 
M3 S0
G0 X86.0 Y22.25 
M3 S255
G1 X86.0 Y22.25 
M3 S255
G1 X85.0 Y22.25 
M3 S0
G0 X57.75 Y22.25 
M3 S255
G1 X57.75 Y22.25 
M3 S255
G1 X56.25 Y22.25 
M3 S0
G0 X53.5 Y22.25 
M3 S255
G1 X53.5 Y22.25 
M3 S255
G1 X53.25 Y22.25 
M3 S0
G0 X45.25 Y22.25 
M3 S255
G1 X45.25 Y22.25 
M3 S255
G1 X44.75 Y22.25 
M3 S0
G0 X43.5 Y22.25 
M3 S255
G1 X43.5 Y22.25 
M3 S255
G1 X43.0 Y22.25 
M3 S0
G0 X39.75 Y22.25 
M3 S255
G1 X39.75 Y22.25 
M3 S255
G1 X36.5 Y22.25 
M3 S0
M5 S0
G0 X36.25 Y22.5 
M3 S255
G1 X36.25 Y22.5 
M3 S255
G1 X39.25 Y22.5 
M3 S0
G0 X42.75 Y22.5 
M3 S255
G1 X42.75 Y22.5 
M3 S255
G1 X43.75 Y22.5 
M3 S0
G0 X44.0 Y22.5 
M3 S255
G1 X44.0 Y22.5 
M3 S255
G1 X44.75 Y22.5 
M3 S0
G0 X53.25 Y22.5 
M3 S255
G1 X53.25 Y22.5 
M3 S255
G1 X53.5 Y22.5 
M3 S0
G0 X56.25 Y22.5 
M3 S255
G1 X56.25 Y22.5 
M3 S255
G1 X57.75 Y22.5 
M3 S0
G0 X84.75 Y22.5 
M3 S255
G1 X84.75 Y22.5 
M3 S255
G1 X85.75 Y22.5 
M3 S0
G0 X86.25 Y22.5 
M3 S255
G1 X86.25 Y22.5 
M3 S255
G1 X86.75 Y22.5 
M3 S0
G0 X93.25 Y22.5 
M3 S255
G1 X93.25 Y22.5 
M3 S255
G1 X94.0 Y22.5 
M3 S0
G0 X98.0 Y22.5 
M3 S255
G1 X98.0 Y22.5 
M3 S255
G1 X100.0 Y22.5 
M3 S0
G0 X106.0 Y22.5 
M3 S255
G1 X106.0 Y22.5 
M3 S255
G1 X106.75 Y22.5 
M3 S0
G0 X130.75 Y22.5 
M3 S255
G1 X130.75 Y22.5 
M3 S255
G1 X131.75 Y22.5 
M3 S0
G0 X134.0 Y22.5 
M3 S255
G1 X134.0 Y22.5 
M3 S255
G1 X134.5 Y22.5 
M3 S0
G0 X139.0 Y22.5 
M3 S255
G1 X139.0 Y22.5 
M3 S255
G1 X139.5 Y22.5 
M3 S0
G0 X161.5 Y22.5 
M3 S255
G1 X161.5 Y22.5 
M3 S255
G1 X163.25 Y22.5 
M3 S0
M5 S0
G0 X163.5 Y22.75 
M3 S255
G1 X163.5 Y22.75 
M3 S255
G1 X161.75 Y22.75 
M3 S0
G0 X139.5 Y22.75 
M3 S255
G1 X139.5 Y22.75 
M3 S255
G1 X138.75 Y22.75 
M3 S0
G0 X134.5 Y22.75 
M3 S255
G1 X134.5 Y22.75 
M3 S255
G1 X134.0 Y22.75 
M3 S0
G0 X131.5 Y22.75 
M3 S255
G1 X131.5 Y22.75 
M3 S255
G1 X130.5 Y22.75 
M3 S0
G0 X106.75 Y22.75 
M3 S255
G1 X106.75 Y22.75 
M3 S255
G1 X106.0 Y22.75 
M3 S0
G0 X100.0 Y22.75 
M3 S255
G1 X100.0 Y22.75 
M3 S255
G1 X98.0 Y22.75 
M3 S0
G0 X94.0 Y22.75 
M3 S255
G1 X94.0 Y22.75 
M3 S255
G1 X93.25 Y22.75 
M3 S0
G0 X86.75 Y22.75 
M3 S255
G1 X86.75 Y22.75 
M3 S255
G1 X86.25 Y22.75 
M3 S0
G0 X85.75 Y22.75 
M3 S255
G1 X85.75 Y22.75 
M3 S255
G1 X84.75 Y22.75 
M3 S0
G0 X58.0 Y22.75 
M3 S255
G1 X58.0 Y22.75 
M3 S255
G1 X56.5 Y22.75 
M3 S0
G0 X53.5 Y22.75 
M3 S255
G1 X53.5 Y22.75 
M3 S255
G1 X53.25 Y22.75 
M3 S0
G0 X44.0 Y22.75 
M3 S255
G1 X44.0 Y22.75 
M3 S255
G1 X42.5 Y22.75 
M3 S0
G0 X39.25 Y22.75 
M3 S255
G1 X39.25 Y22.75 
M3 S255
G1 X36.0 Y22.75 
M3 S0
M5 S0
G0 X35.5 Y23.0 
M3 S255
G1 X35.5 Y23.0 
M3 S255
G1 X39.75 Y23.0 
M3 S0
G0 X40.0 Y23.0 
M3 S255
G1 X40.0 Y23.0 
M3 S255
G1 X41.0 Y23.0 
M3 S0
G0 X51.5 Y23.0 
M3 S255
G1 X51.5 Y23.0 
M3 S255
G1 X52.75 Y23.0 
M3 S0
G0 X53.5 Y23.0 
M3 S255
G1 X53.5 Y23.0 
M3 S255
G1 X54.0 Y23.0 
M3 S0
G0 X56.5 Y23.0 
M3 S255
G1 X56.5 Y23.0 
M3 S255
G1 X58.0 Y23.0 
M3 S0
G0 X85.0 Y23.0 
M3 S255
G1 X85.0 Y23.0 
M3 S255
G1 X85.75 Y23.0 
M3 S0
G0 X86.25 Y23.0 
M3 S255
G1 X86.25 Y23.0 
M3 S255
G1 X86.75 Y23.0 
M3 S0
G0 X93.25 Y23.0 
M3 S255
G1 X93.25 Y23.0 
M3 S255
G1 X93.75 Y23.0 
M3 S0
G0 X98.0 Y23.0 
M3 S255
G1 X98.0 Y23.0 
M3 S255
G1 X100.0 Y23.0 
M3 S0
G0 X103.5 Y23.0 
M3 S255
G1 X103.5 Y23.0 
M3 S255
G1 X103.75 Y23.0 
M3 S0
G0 X106.0 Y23.0 
M3 S255
G1 X106.0 Y23.0 
M3 S255
G1 X106.75 Y23.0 
M3 S0
G0 X130.25 Y23.0 
M3 S255
G1 X130.25 Y23.0 
M3 S255
G1 X131.25 Y23.0 
M3 S0
G0 X134.0 Y23.0 
M3 S255
G1 X134.0 Y23.0 
M3 S255
G1 X134.5 Y23.0 
M3 S0
G0 X138.5 Y23.0 
M3 S255
G1 X138.5 Y23.0 
M3 S255
G1 X139.25 Y23.0 
M3 S0
G0 X162.25 Y23.0 
M3 S255
G1 X162.25 Y23.0 
M3 S255
G1 X163.75 Y23.0 
M3 S0
M5 S0
G0 X164.25 Y23.25 
M3 S255
G1 X164.25 Y23.25 
M3 S255
G1 X162.5 Y23.25 
M3 S0
G0 X139.25 Y23.25 
M3 S255
G1 X139.25 Y23.25 
M3 S255
G1 X138.25 Y23.25 
M3 S0
G0 X134.25 Y23.25 
M3 S255
G1 X134.25 Y23.25 
M3 S255
G1 X133.75 Y23.25 
M3 S0
G0 X131.25 Y23.25 
M3 S255
G1 X131.25 Y23.25 
M3 S255
G1 X130.0 Y23.25 
M3 S0
G0 X106.75 Y23.25 
M3 S255
G1 X106.75 Y23.25 
M3 S255
G1 X106.0 Y23.25 
M3 S0
G0 X103.75 Y23.25 
M3 S255
G1 X103.75 Y23.25 
M3 S255
G1 X103.5 Y23.25 
M3 S0
G0 X100.0 Y23.25 
M3 S255
G1 X100.0 Y23.25 
M3 S255
G1 X99.25 Y23.25 
M3 S0
G0 X99.0 Y23.25 
M3 S255
G1 X99.0 Y23.25 
M3 S255
G1 X98.0 Y23.25 
M3 S0
G0 X93.75 Y23.25 
M3 S255
G1 X93.75 Y23.25 
M3 S255
G1 X92.75 Y23.25 
M3 S0
G0 X86.75 Y23.25 
M3 S255
G1 X86.75 Y23.25 
M3 S255
G1 X86.25 Y23.25 
M3 S0
G0 X85.75 Y23.25 
M3 S255
G1 X85.75 Y23.25 
M3 S255
G1 X84.75 Y23.25 
M3 S0
G0 X58.25 Y23.25 
M3 S255
G1 X58.25 Y23.25 
M3 S255
G1 X56.5 Y23.25 
M3 S0
G0 X53.0 Y23.25 
M3 S255
G1 X53.0 Y23.25 
M3 S255
G1 X51.5 Y23.25 
M3 S0
G0 X41.25 Y23.25 
M3 S255
G1 X41.25 Y23.25 
M3 S255
G1 X35.25 Y23.25 
M3 S0
M5 S0
G0 X35.25 Y23.5 
M3 S255
G1 X35.25 Y23.5 
M3 S255
G1 X40.75 Y23.5 
M3 S0
G0 X45.25 Y23.5 
M3 S255
G1 X45.25 Y23.5 
M3 S255
G1 X49.25 Y23.5 
M3 S0
G0 X51.5 Y23.5 
M3 S255
G1 X51.5 Y23.5 
M3 S255
G1 X53.0 Y23.5 
M3 S0
G0 X56.75 Y23.5 
M3 S255
G1 X56.75 Y23.5 
M3 S255
G1 X58.25 Y23.5 
M3 S0
G0 X84.5 Y23.5 
M3 S255
G1 X84.5 Y23.5 
M3 S255
G1 X85.25 Y23.5 
M3 S0
G0 X86.25 Y23.5 
M3 S255
G1 X86.25 Y23.5 
M3 S255
G1 X86.75 Y23.5 
M3 S0
G0 X92.75 Y23.5 
M3 S255
G1 X92.75 Y23.5 
M3 S255
G1 X93.75 Y23.5 
M3 S0
G0 X98.0 Y23.5 
M3 S255
G1 X98.0 Y23.5 
M3 S255
G1 X99.0 Y23.5 
M3 S0
G0 X99.25 Y23.5 
M3 S255
G1 X99.25 Y23.5 
M3 S255
G1 X100.0 Y23.5 
M3 S0
G0 X103.5 Y23.5 
M3 S255
G1 X103.5 Y23.5 
M3 S255
G1 X103.75 Y23.5 
M3 S0
G0 X106.0 Y23.5 
M3 S255
G1 X106.0 Y23.5 
M3 S255
G1 X106.75 Y23.5 
M3 S0
G0 X129.75 Y23.5 
M3 S255
G1 X129.75 Y23.5 
M3 S255
G1 X131.0 Y23.5 
M3 S0
G0 X133.75 Y23.5 
M3 S255
G1 X133.75 Y23.5 
M3 S255
G1 X134.25 Y23.5 
M3 S0
G0 X138.25 Y23.5 
M3 S255
G1 X138.25 Y23.5 
M3 S255
G1 X139.25 Y23.5 
M3 S0
G0 X162.75 Y23.5 
M3 S255
G1 X162.75 Y23.5 
M3 S255
G1 X164.25 Y23.5 
M3 S0
M5 S0
G0 X164.75 Y23.75 
M3 S255
G1 X164.75 Y23.75 
M3 S255
G1 X163.25 Y23.75 
M3 S0
G0 X139.0 Y23.75 
M3 S255
G1 X139.0 Y23.75 
M3 S255
G1 X138.25 Y23.75 
M3 S0
G0 X134.25 Y23.75 
M3 S255
G1 X134.25 Y23.75 
M3 S255
G1 X133.5 Y23.75 
M3 S0
G0 X130.5 Y23.75 
M3 S255
G1 X130.5 Y23.75 
M3 S255
G1 X129.5 Y23.75 
M3 S0
G0 X106.75 Y23.75 
M3 S255
G1 X106.75 Y23.75 
M3 S255
G1 X106.0 Y23.75 
M3 S0
G0 X103.75 Y23.75 
M3 S255
G1 X103.75 Y23.75 
M3 S255
G1 X103.5 Y23.75 
M3 S0
G0 X99.75 Y23.75 
M3 S255
G1 X99.75 Y23.75 
M3 S255
G1 X99.5 Y23.75 
M3 S0
G0 X98.75 Y23.75 
M3 S255
G1 X98.75 Y23.75 
M3 S255
G1 X98.0 Y23.75 
M3 S0
G0 X93.5 Y23.75 
M3 S255
G1 X93.5 Y23.75 
M3 S255
G1 X92.75 Y23.75 
M3 S0
G0 X86.5 Y23.75 
M3 S255
G1 X86.5 Y23.75 
M3 S255
G1 X86.25 Y23.75 
M3 S0
G0 X85.5 Y23.75 
M3 S255
G1 X85.5 Y23.75 
M3 S255
G1 X84.25 Y23.75 
M3 S0
G0 X58.75 Y23.75 
M3 S255
G1 X58.75 Y23.75 
M3 S255
G1 X57.75 Y23.75 
M3 S0
G0 X57.5 Y23.75 
M3 S255
G1 X57.5 Y23.75 
M3 S255
G1 X56.75 Y23.75 
M3 S0
G0 X52.25 Y23.75 
M3 S255
G1 X52.25 Y23.75 
M3 S255
G1 X51.5 Y23.75 
M3 S0
G0 X50.75 Y23.75 
M3 S255
G1 X50.75 Y23.75 
M3 S255
G1 X43.0 Y23.75 
M3 S0
G0 X40.25 Y23.75 
M3 S255
G1 X40.25 Y23.75 
M3 S255
G1 X38.25 Y23.75 
M3 S0
G0 X37.5 Y23.75 
M3 S255
G1 X37.5 Y23.75 
M3 S255
G1 X36.5 Y23.75 
M3 S0
G0 X36.25 Y23.75 
M3 S255
G1 X36.25 Y23.75 
M3 S255
G1 X34.75 Y23.75 
M3 S0
M5 S0
G0 X34.75 Y24.0 
M3 S255
G1 X34.75 Y24.0 
M3 S255
G1 X36.25 Y24.0 
M3 S0
G0 X36.5 Y24.0 
M3 S255
G1 X36.5 Y24.0 
M3 S255
G1 X37.5 Y24.0 
M3 S0
G0 X38.25 Y24.0 
M3 S255
G1 X38.25 Y24.0 
M3 S255
G1 X40.25 Y24.0 
M3 S0
G0 X43.0 Y24.0 
M3 S255
G1 X43.0 Y24.0 
M3 S255
G1 X50.75 Y24.0 
M3 S0
G0 X51.5 Y24.0 
M3 S255
G1 X51.5 Y24.0 
M3 S255
G1 X52.25 Y24.0 
M3 S0
G0 X56.75 Y24.0 
M3 S255
G1 X56.75 Y24.0 
M3 S255
G1 X57.5 Y24.0 
M3 S0
G0 X57.75 Y24.0 
M3 S255
G1 X57.75 Y24.0 
M3 S255
G1 X58.0 Y24.0 
M3 S0
G0 X58.25 Y24.0 
M3 S255
G1 X58.25 Y24.0 
M3 S255
G1 X58.75 Y24.0 
M3 S0
G0 X84.25 Y24.0 
M3 S255
G1 X84.25 Y24.0 
M3 S255
G1 X85.5 Y24.0 
M3 S0
G0 X86.25 Y24.0 
M3 S255
G1 X86.25 Y24.0 
M3 S255
G1 X86.5 Y24.0 
M3 S0
G0 X92.75 Y24.0 
M3 S255
G1 X92.75 Y24.0 
M3 S255
G1 X93.5 Y24.0 
M3 S0
G0 X98.0 Y24.0 
M3 S255
G1 X98.0 Y24.0 
M3 S255
G1 X98.75 Y24.0 
M3 S0
G0 X99.5 Y24.0 
M3 S255
G1 X99.5 Y24.0 
M3 S255
G1 X100.0 Y24.0 
M3 S0
G0 X103.5 Y24.0 
M3 S255
G1 X103.5 Y24.0 
M3 S255
G1 X103.75 Y24.0 
M3 S0
G0 X106.0 Y24.0 
M3 S255
G1 X106.0 Y24.0 
M3 S255
G1 X106.75 Y24.0 
M3 S0
G0 X129.5 Y24.0 
M3 S255
G1 X129.5 Y24.0 
M3 S255
G1 X130.5 Y24.0 
M3 S0
G0 X133.5 Y24.0 
M3 S255
G1 X133.5 Y24.0 
M3 S255
G1 X134.25 Y24.0 
M3 S0
G0 X138.25 Y24.0 
M3 S255
G1 X138.25 Y24.0 
M3 S255
G1 X139.0 Y24.0 
M3 S0
G0 X163.25 Y24.0 
M3 S255
G1 X163.25 Y24.0 
M3 S255
G1 X164.75 Y24.0 
M3 S0
M5 S0
G0 X165.25 Y24.25 
M3 S255
G1 X165.25 Y24.25 
M3 S255
G1 X163.5 Y24.25 
M3 S0
G0 X138.75 Y24.25 
M3 S255
G1 X138.75 Y24.25 
M3 S255
G1 X138.0 Y24.25 
M3 S0
G0 X134.25 Y24.25 
M3 S255
G1 X134.25 Y24.25 
M3 S255
G1 X133.5 Y24.25 
M3 S0
G0 X130.25 Y24.25 
M3 S255
G1 X130.25 Y24.25 
M3 S255
G1 X129.25 Y24.25 
M3 S0
G0 X106.75 Y24.25 
M3 S255
G1 X106.75 Y24.25 
M3 S255
G1 X106.0 Y24.25 
M3 S0
G0 X103.75 Y24.25 
M3 S255
G1 X103.75 Y24.25 
M3 S255
G1 X103.5 Y24.25 
M3 S0
G0 X98.25 Y24.25 
M3 S255
G1 X98.25 Y24.25 
M3 S255
G1 X97.5 Y24.25 
M3 S0
G0 X93.5 Y24.25 
M3 S255
G1 X93.5 Y24.25 
M3 S255
G1 X92.75 Y24.25 
M3 S0
G0 X86.5 Y24.25 
M3 S255
G1 X86.5 Y24.25 
M3 S255
G1 X86.25 Y24.25 
M3 S0
G0 X85.5 Y24.25 
M3 S255
G1 X85.5 Y24.25 
M3 S255
G1 X84.0 Y24.25 
M3 S0
G0 X58.75 Y24.25 
M3 S255
G1 X58.75 Y24.25 
M3 S255
G1 X58.0 Y24.25 
M3 S0
G0 X57.5 Y24.25 
M3 S255
G1 X57.5 Y24.25 
M3 S255
G1 X57.0 Y24.25 
M3 S0
G0 X52.25 Y24.25 
M3 S255
G1 X52.25 Y24.25 
M3 S255
G1 X51.75 Y24.25 
M3 S0
G0 X51.25 Y24.25 
M3 S255
G1 X51.25 Y24.25 
M3 S255
G1 X50.0 Y24.25 
M3 S0
G0 X45.25 Y24.25 
M3 S255
G1 X45.25 Y24.25 
M3 S255
G1 X42.0 Y24.25 
M3 S0
G0 X39.75 Y24.25 
M3 S255
G1 X39.75 Y24.25 
M3 S255
G1 X38.0 Y24.25 
M3 S0
G0 X36.75 Y24.25 
M3 S255
G1 X36.75 Y24.25 
M3 S255
G1 X34.25 Y24.25 
M3 S0
M5 S0
G0 X33.75 Y24.5 
M3 S255
G1 X33.75 Y24.5 
M3 S255
G1 X35.25 Y24.5 
M3 S0
G0 X35.75 Y24.5 
M3 S255
G1 X35.75 Y24.5 
M3 S255
G1 X39.25 Y24.5 
M3 S0
G0 X40.0 Y24.5 
M3 S255
G1 X40.0 Y24.5 
M3 S255
G1 X43.5 Y24.5 
M3 S0
G0 X50.25 Y24.5 
M3 S255
G1 X50.25 Y24.5 
M3 S255
G1 X51.5 Y24.5 
M3 S0
G0 X57.0 Y24.5 
M3 S255
G1 X57.0 Y24.5 
M3 S255
G1 X57.5 Y24.5 
M3 S0
G0 X58.25 Y24.5 
M3 S255
G1 X58.25 Y24.5 
M3 S255
G1 X59.0 Y24.5 
M3 S0
G0 X84.0 Y24.5 
M3 S255
G1 X84.0 Y24.5 
M3 S255
G1 X85.5 Y24.5 
M3 S0
G0 X92.75 Y24.5 
M3 S255
G1 X92.75 Y24.5 
M3 S255
G1 X93.5 Y24.5 
M3 S0
G0 X97.5 Y24.5 
M3 S255
G1 X97.5 Y24.5 
M3 S255
G1 X98.25 Y24.5 
M3 S0
G0 X99.5 Y24.5 
M3 S255
G1 X99.5 Y24.5 
M3 S255
G1 X100.0 Y24.5 
M3 S0
G0 X103.5 Y24.5 
M3 S255
G1 X103.5 Y24.5 
M3 S255
G1 X103.75 Y24.5 
M3 S0
G0 X106.25 Y24.5 
M3 S255
G1 X106.25 Y24.5 
M3 S255
G1 X106.75 Y24.5 
M3 S0
G0 X128.75 Y24.5 
M3 S255
G1 X128.75 Y24.5 
M3 S255
G1 X129.75 Y24.5 
M3 S0
G0 X133.5 Y24.5 
M3 S255
G1 X133.5 Y24.5 
M3 S255
G1 X134.25 Y24.5 
M3 S0
G0 X137.75 Y24.5 
M3 S255
G1 X137.75 Y24.5 
M3 S255
G1 X138.5 Y24.5 
M3 S0
G0 X164.0 Y24.5 
M3 S255
G1 X164.0 Y24.5 
M3 S255
G1 X165.75 Y24.5 
M3 S0
M5 S0
G0 X166.0 Y24.75 
M3 S255
G1 X166.0 Y24.75 
M3 S255
G1 X164.25 Y24.75 
M3 S0
G0 X138.5 Y24.75 
M3 S255
G1 X138.5 Y24.75 
M3 S255
G1 X137.75 Y24.75 
M3 S0
G0 X134.0 Y24.75 
M3 S255
G1 X134.0 Y24.75 
M3 S255
G1 X133.5 Y24.75 
M3 S0
G0 X129.5 Y24.75 
M3 S255
G1 X129.5 Y24.75 
M3 S255
G1 X128.75 Y24.75 
M3 S0
G0 X106.75 Y24.75 
M3 S255
G1 X106.75 Y24.75 
M3 S255
G1 X106.25 Y24.75 
M3 S0
G0 X103.75 Y24.75 
M3 S255
G1 X103.75 Y24.75 
M3 S255
G1 X103.5 Y24.75 
M3 S0
G0 X100.0 Y24.75 
M3 S255
G1 X100.0 Y24.75 
M3 S255
G1 X99.5 Y24.75 
M3 S0
G0 X98.0 Y24.75 
M3 S255
G1 X98.0 Y24.75 
M3 S255
G1 X97.25 Y24.75 
M3 S0
G0 X93.5 Y24.75 
M3 S255
G1 X93.5 Y24.75 
M3 S255
G1 X92.75 Y24.75 
M3 S0
G0 X86.5 Y24.75 
M3 S255
G1 X86.5 Y24.75 
M3 S255
G1 X86.0 Y24.75 
M3 S0
G0 X85.5 Y24.75 
M3 S255
G1 X85.5 Y24.75 
M3 S255
G1 X84.0 Y24.75 
M3 S0
G0 X59.25 Y24.75 
M3 S255
G1 X59.25 Y24.75 
M3 S255
G1 X58.25 Y24.75 
M3 S0
G0 X57.75 Y24.75 
M3 S255
G1 X57.75 Y24.75 
M3 S255
G1 X57.5 Y24.75 
M3 S0
G0 X51.5 Y24.75 
M3 S255
G1 X51.5 Y24.75 
M3 S255
G1 X50.25 Y24.75 
M3 S0
G0 X42.75 Y24.75 
M3 S255
G1 X42.75 Y24.75 
M3 S255
G1 X36.5 Y24.75 
M3 S0
G0 X36.0 Y24.75 
M3 S255
G1 X36.0 Y24.75 
M3 S255
G1 X35.5 Y24.75 
M3 S0
G0 X35.25 Y24.75 
M3 S255
G1 X35.25 Y24.75 
M3 S255
G1 X33.5 Y24.75 
M3 S0
M5 S0
G0 X33.5 Y25.0 
M3 S255
G1 X33.5 Y25.0 
M3 S255
G1 X35.0 Y25.0 
M3 S0
G0 X35.25 Y25.0 
M3 S255
G1 X35.25 Y25.0 
M3 S255
G1 X35.75 Y25.0 
M3 S0
G0 X37.0 Y25.0 
M3 S255
G1 X37.0 Y25.0 
M3 S255
G1 X37.5 Y25.0 
M3 S0
G0 X38.0 Y25.0 
M3 S255
G1 X38.0 Y25.0 
M3 S255
G1 X38.25 Y25.0 
M3 S0
G0 X38.5 Y25.0 
M3 S255
G1 X38.5 Y25.0 
M3 S255
G1 X42.0 Y25.0 
M3 S0
G0 X50.75 Y25.0 
M3 S255
G1 X50.75 Y25.0 
M3 S255
G1 X51.75 Y25.0 
M3 S0
G0 X53.5 Y25.0 
M3 S255
G1 X53.5 Y25.0 
M3 S255
G1 X54.0 Y25.0 
M3 S0
G0 X57.25 Y25.0 
M3 S255
G1 X57.25 Y25.0 
M3 S255
G1 X57.75 Y25.0 
M3 S0
G0 X58.5 Y25.0 
M3 S255
G1 X58.5 Y25.0 
M3 S255
G1 X59.5 Y25.0 
M3 S0
G0 X83.75 Y25.0 
M3 S255
G1 X83.75 Y25.0 
M3 S255
G1 X85.5 Y25.0 
M3 S0
G0 X86.0 Y25.0 
M3 S255
G1 X86.0 Y25.0 
M3 S255
G1 X86.5 Y25.0 
M3 S0
G0 X92.75 Y25.0 
M3 S255
G1 X92.75 Y25.0 
M3 S255
G1 X93.5 Y25.0 
M3 S0
G0 X97.25 Y25.0 
M3 S255
G1 X97.25 Y25.0 
M3 S255
G1 X98.0 Y25.0 
M3 S0
G0 X99.5 Y25.0 
M3 S255
G1 X99.5 Y25.0 
M3 S255
G1 X100.0 Y25.0 
M3 S0
G0 X103.5 Y25.0 
M3 S255
G1 X103.5 Y25.0 
M3 S255
G1 X103.75 Y25.0 
M3 S0
G0 X106.25 Y25.0 
M3 S255
G1 X106.25 Y25.0 
M3 S255
G1 X106.75 Y25.0 
M3 S0
G0 X128.75 Y25.0 
M3 S255
G1 X128.75 Y25.0 
M3 S255
G1 X129.5 Y25.0 
M3 S0
G0 X133.5 Y25.0 
M3 S255
G1 X133.5 Y25.0 
M3 S255
G1 X134.0 Y25.0 
M3 S0
G0 X137.5 Y25.0 
M3 S255
G1 X137.5 Y25.0 
M3 S255
G1 X138.25 Y25.0 
M3 S0
G0 X164.5 Y25.0 
M3 S255
G1 X164.5 Y25.0 
M3 S255
G1 X166.0 Y25.0 
M3 S0
M5 S0
G0 X166.5 Y25.25 
M3 S255
G1 X166.5 Y25.25 
M3 S255
G1 X165.0 Y25.25 
M3 S0
G0 X138.25 Y25.25 
M3 S255
G1 X138.25 Y25.25 
M3 S255
G1 X137.5 Y25.25 
M3 S0
G0 X134.0 Y25.25 
M3 S255
G1 X134.0 Y25.25 
M3 S255
G1 X133.25 Y25.25 
M3 S0
G0 X129.25 Y25.25 
M3 S255
G1 X129.25 Y25.25 
M3 S255
G1 X128.25 Y25.25 
M3 S0
G0 X106.75 Y25.25 
M3 S255
G1 X106.75 Y25.25 
M3 S255
G1 X106.25 Y25.25 
M3 S0
G0 X103.75 Y25.25 
M3 S255
G1 X103.75 Y25.25 
M3 S255
G1 X103.5 Y25.25 
M3 S0
G0 X98.0 Y25.25 
M3 S255
G1 X98.0 Y25.25 
M3 S255
G1 X96.75 Y25.25 
M3 S0
G0 X93.5 Y25.25 
M3 S255
G1 X93.5 Y25.25 
M3 S255
G1 X92.75 Y25.25 
M3 S0
G0 X86.5 Y25.25 
M3 S255
G1 X86.5 Y25.25 
M3 S255
G1 X86.0 Y25.25 
M3 S0
G0 X85.5 Y25.25 
M3 S255
G1 X85.5 Y25.25 
M3 S255
G1 X83.5 Y25.25 
M3 S0
G0 X59.75 Y25.25 
M3 S255
G1 X59.75 Y25.25 
M3 S255
G1 X58.75 Y25.25 
M3 S0
G0 X57.75 Y25.25 
M3 S255
G1 X57.75 Y25.25 
M3 S255
G1 X57.25 Y25.25 
M3 S0
G0 X52.0 Y25.25 
M3 S255
G1 X52.0 Y25.25 
M3 S255
G1 X51.0 Y25.25 
M3 S0
G0 X40.25 Y25.25 
M3 S255
G1 X40.25 Y25.25 
M3 S255
G1 X38.25 Y25.25 
M3 S0
G0 X35.5 Y25.25 
M3 S255
G1 X35.5 Y25.25 
M3 S255
G1 X35.0 Y25.25 
M3 S0
G0 X34.5 Y25.25 
M3 S255
G1 X34.5 Y25.25 
M3 S255
G1 X32.75 Y25.25 
M3 S0
M5 S0
G0 X32.75 Y25.5 
M3 S255
G1 X32.75 Y25.5 
M3 S255
G1 X34.25 Y25.5 
M3 S0
G0 X35.0 Y25.5 
M3 S255
G1 X35.0 Y25.5 
M3 S255
G1 X35.5 Y25.5 
M3 S0
G0 X36.0 Y25.5 
M3 S255
G1 X36.0 Y25.5 
M3 S255
G1 X36.5 Y25.5 
M3 S0
G0 X37.75 Y25.5 
M3 S255
G1 X37.75 Y25.5 
M3 S255
G1 X39.5 Y25.5 
M3 S0
G0 X51.25 Y25.5 
M3 S255
G1 X51.25 Y25.5 
M3 S255
G1 X52.25 Y25.5 
M3 S0
G0 X57.25 Y25.5 
M3 S255
G1 X57.25 Y25.5 
M3 S255
G1 X58.0 Y25.5 
M3 S0
G0 X58.75 Y25.5 
M3 S255
G1 X58.75 Y25.5 
M3 S255
G1 X59.75 Y25.5 
M3 S0
G0 X83.5 Y25.5 
M3 S255
G1 X83.5 Y25.5 
M3 S255
G1 X84.75 Y25.5 
M3 S0
G0 X85.0 Y25.5 
M3 S255
G1 X85.0 Y25.5 
M3 S255
G1 X85.5 Y25.5 
M3 S0
G0 X86.0 Y25.5 
M3 S255
G1 X86.0 Y25.5 
M3 S255
G1 X86.5 Y25.5 
M3 S0
G0 X92.75 Y25.5 
M3 S255
G1 X92.75 Y25.5 
M3 S255
G1 X93.5 Y25.5 
M3 S0
G0 X96.75 Y25.5 
M3 S255
G1 X96.75 Y25.5 
M3 S255
G1 X97.5 Y25.5 
M3 S0
G0 X99.75 Y25.5 
M3 S255
G1 X99.75 Y25.5 
M3 S255
G1 X100.0 Y25.5 
M3 S0
G0 X103.5 Y25.5 
M3 S255
G1 X103.5 Y25.5 
M3 S255
G1 X103.75 Y25.5 
M3 S0
G0 X106.25 Y25.5 
M3 S255
G1 X106.25 Y25.5 
M3 S255
G1 X106.75 Y25.5 
M3 S0
G0 X128.0 Y25.5 
M3 S255
G1 X128.0 Y25.5 
M3 S255
G1 X129.0 Y25.5 
M3 S0
G0 X131.25 Y25.5 
M3 S255
G1 X131.25 Y25.5 
M3 S255
G1 X131.5 Y25.5 
M3 S0
G0 X133.25 Y25.5 
M3 S255
G1 X133.25 Y25.5 
M3 S255
G1 X133.75 Y25.5 
M3 S0
G0 X137.5 Y25.5 
M3 S255
G1 X137.5 Y25.5 
M3 S255
G1 X138.25 Y25.5 
M3 S0
G0 X165.25 Y25.5 
M3 S255
G1 X165.25 Y25.5 
M3 S255
G1 X166.75 Y25.5 
M3 S0
M5 S0
G0 X166.75 Y25.75 
M3 S255
G1 X166.75 Y25.75 
M3 S255
G1 X165.25 Y25.75 
M3 S0
G0 X138.25 Y25.75 
M3 S255
G1 X138.25 Y25.75 
M3 S255
G1 X137.25 Y25.75 
M3 S0
G0 X133.75 Y25.75 
M3 S255
G1 X133.75 Y25.75 
M3 S255
G1 X133.0 Y25.75 
M3 S0
G0 X131.25 Y25.75 
M3 S255
G1 X131.25 Y25.75 
M3 S255
G1 X130.75 Y25.75 
M3 S0
G0 X128.75 Y25.75 
M3 S255
G1 X128.75 Y25.75 
M3 S255
G1 X128.0 Y25.75 
M3 S0
G0 X106.75 Y25.75 
M3 S255
G1 X106.75 Y25.75 
M3 S255
G1 X106.25 Y25.75 
M3 S0
G0 X103.75 Y25.75 
M3 S255
G1 X103.75 Y25.75 
M3 S255
G1 X103.5 Y25.75 
M3 S0
G0 X100.25 Y25.75 
M3 S255
G1 X100.25 Y25.75 
M3 S255
G1 X99.75 Y25.75 
M3 S0
G0 X97.5 Y25.75 
M3 S255
G1 X97.5 Y25.75 
M3 S255
G1 X96.75 Y25.75 
M3 S0
G0 X93.5 Y25.75 
M3 S255
G1 X93.5 Y25.75 
M3 S255
G1 X92.75 Y25.75 
M3 S0
G0 X86.5 Y25.75 
M3 S255
G1 X86.5 Y25.75 
M3 S255
G1 X86.0 Y25.75 
M3 S0
G0 X85.5 Y25.75 
M3 S255
G1 X85.5 Y25.75 
M3 S255
G1 X84.75 Y25.75 
M3 S0
G0 X84.5 Y25.75 
M3 S255
G1 X84.5 Y25.75 
M3 S255
G1 X83.5 Y25.75 
M3 S0
G0 X60.0 Y25.75 
M3 S255
G1 X60.0 Y25.75 
M3 S255
G1 X59.0 Y25.75 
M3 S0
G0 X58.0 Y25.75 
M3 S255
G1 X58.0 Y25.75 
M3 S255
G1 X57.25 Y25.75 
M3 S0
G0 X52.25 Y25.75 
M3 S255
G1 X52.25 Y25.75 
M3 S255
G1 X51.5 Y25.75 
M3 S0
G0 X39.0 Y25.75 
M3 S255
G1 X39.0 Y25.75 
M3 S255
G1 X37.25 Y25.75 
M3 S0
G0 X37.0 Y25.75 
M3 S255
G1 X37.0 Y25.75 
M3 S255
G1 X35.75 Y25.75 
M3 S0
G0 X35.5 Y25.75 
M3 S255
G1 X35.5 Y25.75 
M3 S255
G1 X35.0 Y25.75 
M3 S0
G0 X34.0 Y25.75 
M3 S255
G1 X34.0 Y25.75 
M3 S255
G1 X32.5 Y25.75 
M3 S0
M5 S0
G0 X32.25 Y26.0 
M3 S255
G1 X32.25 Y26.0 
M3 S255
G1 X33.75 Y26.0 
M3 S0
G0 X35.0 Y26.0 
M3 S255
G1 X35.0 Y26.0 
M3 S255
G1 X38.25 Y26.0 
M3 S0
G0 X51.5 Y26.0 
M3 S255
G1 X51.5 Y26.0 
M3 S255
G1 X52.25 Y26.0 
M3 S0
G0 X57.25 Y26.0 
M3 S255
G1 X57.25 Y26.0 
M3 S255
G1 X58.0 Y26.0 
M3 S0
G0 X59.25 Y26.0 
M3 S255
G1 X59.25 Y26.0 
M3 S255
G1 X60.25 Y26.0 
M3 S0
G0 X83.25 Y26.0 
M3 S255
G1 X83.25 Y26.0 
M3 S255
G1 X84.5 Y26.0 
M3 S0
G0 X84.75 Y26.0 
M3 S255
G1 X84.75 Y26.0 
M3 S255
G1 X85.5 Y26.0 
M3 S0
G0 X86.0 Y26.0 
M3 S255
G1 X86.0 Y26.0 
M3 S255
G1 X86.25 Y26.0 
M3 S0
G0 X92.75 Y26.0 
M3 S255
G1 X92.75 Y26.0 
M3 S255
G1 X93.5 Y26.0 
M3 S0
G0 X96.75 Y26.0 
M3 S255
G1 X96.75 Y26.0 
M3 S255
G1 X97.5 Y26.0 
M3 S0
G0 X99.75 Y26.0 
M3 S255
G1 X99.75 Y26.0 
M3 S255
G1 X100.25 Y26.0 
M3 S0
G0 X103.5 Y26.0 
M3 S255
G1 X103.5 Y26.0 
M3 S255
G1 X103.75 Y26.0 
M3 S0
G0 X106.25 Y26.0 
M3 S255
G1 X106.25 Y26.0 
M3 S255
G1 X106.75 Y26.0 
M3 S0
G0 X128.0 Y26.0 
M3 S255
G1 X128.0 Y26.0 
M3 S255
G1 X128.75 Y26.0 
M3 S0
G0 X130.5 Y26.0 
M3 S255
G1 X130.5 Y26.0 
M3 S255
G1 X131.25 Y26.0 
M3 S0
G0 X133.0 Y26.0 
M3 S255
G1 X133.0 Y26.0 
M3 S255
G1 X133.75 Y26.0 
M3 S0
G0 X137.25 Y26.0 
M3 S255
G1 X137.25 Y26.0 
M3 S255
G1 X138.0 Y26.0 
M3 S0
G0 X165.5 Y26.0 
M3 S255
G1 X165.5 Y26.0 
M3 S255
G1 X167.25 Y26.0 
M3 S0
M5 S0
G0 X167.5 Y26.25 
M3 S255
G1 X167.5 Y26.25 
M3 S255
G1 X166.0 Y26.25 
M3 S0
G0 X137.75 Y26.25 
M3 S255
G1 X137.75 Y26.25 
M3 S255
G1 X137.0 Y26.25 
M3 S0
G0 X133.5 Y26.25 
M3 S255
G1 X133.5 Y26.25 
M3 S255
G1 X132.75 Y26.25 
M3 S0
G0 X130.75 Y26.25 
M3 S255
G1 X130.75 Y26.25 
M3 S255
G1 X130.25 Y26.25 
M3 S0
G0 X128.25 Y26.25 
M3 S255
G1 X128.25 Y26.25 
M3 S255
G1 X127.5 Y26.25 
M3 S0
G0 X106.75 Y26.25 
M3 S255
G1 X106.75 Y26.25 
M3 S255
G1 X106.25 Y26.25 
M3 S0
G0 X103.75 Y26.25 
M3 S255
G1 X103.75 Y26.25 
M3 S255
G1 X103.5 Y26.25 
M3 S0
G0 X97.5 Y26.25 
M3 S255
G1 X97.5 Y26.25 
M3 S255
G1 X96.75 Y26.25 
M3 S0
G0 X93.5 Y26.25 
M3 S255
G1 X93.5 Y26.25 
M3 S255
G1 X92.75 Y26.25 
M3 S0
G0 X86.25 Y26.25 
M3 S255
G1 X86.25 Y26.25 
M3 S255
G1 X86.0 Y26.25 
M3 S0
G0 X85.5 Y26.25 
M3 S255
G1 X85.5 Y26.25 
M3 S255
G1 X84.75 Y26.25 
M3 S0
G0 X84.25 Y26.25 
M3 S255
G1 X84.25 Y26.25 
M3 S255
G1 X83.25 Y26.25 
M3 S0
G0 X60.5 Y26.25 
M3 S255
G1 X60.5 Y26.25 
M3 S255
G1 X59.5 Y26.25 
M3 S0
G0 X58.0 Y26.25 
M3 S255
G1 X58.0 Y26.25 
M3 S255
G1 X57.25 Y26.25 
M3 S0
G0 X52.75 Y26.25 
M3 S255
G1 X52.75 Y26.25 
M3 S255
G1 X51.75 Y26.25 
M3 S0
G0 X37.25 Y26.25 
M3 S255
G1 X37.25 Y26.25 
M3 S255
G1 X35.25 Y26.25 
M3 S0
G0 X33.5 Y26.25 
M3 S255
G1 X33.5 Y26.25 
M3 S255
G1 X32.0 Y26.25 
M3 S0
M5 S0
G0 X31.75 Y26.5 
M3 S255
G1 X31.75 Y26.5 
M3 S255
G1 X33.25 Y26.5 
M3 S0
G0 X35.75 Y26.5 
M3 S255
G1 X35.75 Y26.5 
M3 S255
G1 X36.75 Y26.5 
M3 S0
G0 X52.0 Y26.5 
M3 S255
G1 X52.0 Y26.5 
M3 S255
G1 X52.75 Y26.5 
M3 S0
G0 X57.5 Y26.5 
M3 S255
G1 X57.5 Y26.5 
M3 S255
G1 X58.0 Y26.5 
M3 S0
G0 X59.5 Y26.5 
M3 S255
G1 X59.5 Y26.5 
M3 S255
G1 X60.75 Y26.5 
M3 S0
G0 X83.25 Y26.5 
M3 S255
G1 X83.25 Y26.5 
M3 S255
G1 X84.0 Y26.5 
M3 S0
G0 X84.75 Y26.5 
M3 S255
G1 X84.75 Y26.5 
M3 S255
G1 X85.5 Y26.5 
M3 S0
G0 X86.0 Y26.5 
M3 S255
G1 X86.0 Y26.5 
M3 S255
G1 X86.25 Y26.5 
M3 S0
G0 X93.25 Y26.5 
M3 S255
G1 X93.25 Y26.5 
M3 S255
G1 X93.75 Y26.5 
M3 S0
G0 X96.5 Y26.5 
M3 S255
G1 X96.5 Y26.5 
M3 S255
G1 X97.5 Y26.5 
M3 S0
G0 X103.5 Y26.5 
M3 S255
G1 X103.5 Y26.5 
M3 S255
G1 X103.75 Y26.5 
M3 S0
G0 X106.25 Y26.5 
M3 S255
G1 X106.25 Y26.5 
M3 S255
G1 X106.75 Y26.5 
M3 S0
G0 X127.5 Y26.5 
M3 S255
G1 X127.5 Y26.5 
M3 S255
G1 X128.25 Y26.5 
M3 S0
G0 X130.0 Y26.5 
M3 S255
G1 X130.0 Y26.5 
M3 S255
G1 X130.5 Y26.5 
M3 S0
G0 X132.75 Y26.5 
M3 S255
G1 X132.75 Y26.5 
M3 S255
G1 X133.5 Y26.5 
M3 S0
G0 X137.0 Y26.5 
M3 S255
G1 X137.0 Y26.5 
M3 S255
G1 X137.75 Y26.5 
M3 S0
G0 X166.25 Y26.5 
M3 S255
G1 X166.25 Y26.5 
M3 S255
G1 X167.75 Y26.5 
M3 S0
M5 S0
G0 X168.0 Y26.75 
M3 S255
G1 X168.0 Y26.75 
M3 S255
G1 X166.5 Y26.75 
M3 S0
G0 X137.75 Y26.75 
M3 S255
G1 X137.75 Y26.75 
M3 S255
G1 X136.75 Y26.75 
M3 S0
G0 X133.5 Y26.75 
M3 S255
G1 X133.5 Y26.75 
M3 S255
G1 X132.75 Y26.75 
M3 S0
G0 X130.25 Y26.75 
M3 S255
G1 X130.25 Y26.75 
M3 S255
G1 X129.75 Y26.75 
M3 S0
G0 X128.25 Y26.75 
M3 S255
G1 X128.25 Y26.75 
M3 S255
G1 X127.25 Y26.75 
M3 S0
G0 X106.75 Y26.75 
M3 S255
G1 X106.75 Y26.75 
M3 S255
G1 X106.25 Y26.75 
M3 S0
G0 X103.75 Y26.75 
M3 S255
G1 X103.75 Y26.75 
M3 S255
G1 X103.5 Y26.75 
M3 S0
G0 X100.25 Y26.75 
M3 S255
G1 X100.25 Y26.75 
M3 S255
G1 X100.0 Y26.75 
M3 S0
G0 X97.25 Y26.75 
M3 S255
G1 X97.25 Y26.75 
M3 S255
G1 X96.5 Y26.75 
M3 S0
G0 X94.0 Y26.75 
M3 S255
G1 X94.0 Y26.75 
M3 S255
G1 X93.25 Y26.75 
M3 S0
G0 X86.25 Y26.75 
M3 S255
G1 X86.25 Y26.75 
M3 S255
G1 X86.0 Y26.75 
M3 S0
G0 X85.25 Y26.75 
M3 S255
G1 X85.25 Y26.75 
M3 S255
G1 X84.75 Y26.75 
M3 S0
G0 X84.0 Y26.75 
M3 S255
G1 X84.0 Y26.75 
M3 S255
G1 X83.25 Y26.75 
M3 S0
G0 X61.0 Y26.75 
M3 S255
G1 X61.0 Y26.75 
M3 S255
G1 X59.75 Y26.75 
M3 S0
G0 X58.0 Y26.75 
M3 S255
G1 X58.0 Y26.75 
M3 S255
G1 X57.5 Y26.75 
M3 S0
G0 X53.0 Y26.75 
M3 S255
G1 X53.0 Y26.75 
M3 S255
G1 X52.25 Y26.75 
M3 S0
G0 X33.0 Y26.75 
M3 S255
G1 X33.0 Y26.75 
M3 S255
G1 X31.5 Y26.75 
M3 S0
M5 S0
G0 X31.25 Y27.0 
M3 S255
G1 X31.25 Y27.0 
M3 S255
G1 X31.5 Y27.0 
M3 S0
G0 X31.75 Y27.0 
M3 S255
G1 X31.75 Y27.0 
M3 S255
G1 X32.75 Y27.0 
M3 S0
G0 X52.25 Y27.0 
M3 S255
G1 X52.25 Y27.0 
M3 S255
G1 X53.25 Y27.0 
M3 S0
G0 X57.5 Y27.0 
M3 S255
G1 X57.5 Y27.0 
M3 S255
G1 X58.0 Y27.0 
M3 S0
G0 X60.25 Y27.0 
M3 S255
G1 X60.25 Y27.0 
M3 S255
G1 X61.25 Y27.0 
M3 S0
G0 X83.25 Y27.0 
M3 S255
G1 X83.25 Y27.0 
M3 S255
G1 X84.0 Y27.0 
M3 S0
G0 X86.0 Y27.0 
M3 S255
G1 X86.0 Y27.0 
M3 S255
G1 X86.25 Y27.0 
M3 S0
G0 X93.25 Y27.0 
M3 S255
G1 X93.25 Y27.0 
M3 S255
G1 X94.0 Y27.0 
M3 S0
G0 X96.25 Y27.0 
M3 S255
G1 X96.25 Y27.0 
M3 S255
G1 X97.25 Y27.0 
M3 S0
G0 X103.5 Y27.0 
M3 S255
G1 X103.5 Y27.0 
M3 S255
G1 X103.75 Y27.0 
M3 S0
G0 X106.25 Y27.0 
M3 S255
G1 X106.25 Y27.0 
M3 S255
G1 X106.75 Y27.0 
M3 S0
G0 X127.25 Y27.0 
M3 S255
G1 X127.25 Y27.0 
M3 S255
G1 X128.0 Y27.0 
M3 S0
G0 X129.5 Y27.0 
M3 S255
G1 X129.5 Y27.0 
M3 S255
G1 X130.0 Y27.0 
M3 S0
G0 X132.75 Y27.0 
M3 S255
G1 X132.75 Y27.0 
M3 S255
G1 X133.5 Y27.0 
M3 S0
G0 X136.75 Y27.0 
M3 S255
G1 X136.75 Y27.0 
M3 S255
G1 X137.5 Y27.0 
M3 S0
G0 X166.75 Y27.0 
M3 S255
G1 X166.75 Y27.0 
M3 S255
G1 X168.25 Y27.0 
M3 S0
M5 S0
G0 X168.5 Y27.25 
M3 S255
G1 X168.5 Y27.25 
M3 S255
G1 X167.0 Y27.25 
M3 S0
G0 X137.5 Y27.25 
M3 S255
G1 X137.5 Y27.25 
M3 S255
G1 X136.75 Y27.25 
M3 S0
G0 X133.5 Y27.25 
M3 S255
G1 X133.5 Y27.25 
M3 S255
G1 X132.75 Y27.25 
M3 S0
G0 X130.0 Y27.25 
M3 S255
G1 X130.0 Y27.25 
M3 S255
G1 X129.5 Y27.25 
M3 S0
G0 X128.0 Y27.25 
M3 S255
G1 X128.0 Y27.25 
M3 S255
G1 X126.75 Y27.25 
M3 S0
G0 X106.75 Y27.25 
M3 S255
G1 X106.75 Y27.25 
M3 S255
G1 X106.25 Y27.25 
M3 S0
G0 X103.75 Y27.25 
M3 S255
G1 X103.75 Y27.25 
M3 S255
G1 X103.5 Y27.25 
M3 S0
G0 X97.25 Y27.25 
M3 S255
G1 X97.25 Y27.25 
M3 S255
G1 X96.25 Y27.25 
M3 S0
G0 X94.0 Y27.25 
M3 S255
G1 X94.0 Y27.25 
M3 S255
G1 X93.25 Y27.25 
M3 S0
G0 X86.25 Y27.25 
M3 S255
G1 X86.25 Y27.25 
M3 S255
G1 X86.0 Y27.25 
M3 S0
G0 X84.0 Y27.25 
M3 S255
G1 X84.0 Y27.25 
M3 S255
G1 X83.0 Y27.25 
M3 S0
G0 X61.25 Y27.25 
M3 S255
G1 X61.25 Y27.25 
M3 S255
G1 X60.25 Y27.25 
M3 S0
G0 X58.0 Y27.25 
M3 S255
G1 X58.0 Y27.25 
M3 S255
G1 X57.75 Y27.25 
M3 S0
G0 X53.25 Y27.25 
M3 S255
G1 X53.25 Y27.25 
M3 S255
G1 X52.5 Y27.25 
M3 S0
G0 X32.5 Y27.25 
M3 S255
G1 X32.5 Y27.25 
M3 S255
G1 X30.75 Y27.25 
M3 S0
M5 S0
G0 X30.5 Y27.5 
M3 S255
G1 X30.5 Y27.5 
M3 S255
G1 X32.0 Y27.5 
M3 S0
G0 X52.5 Y27.5 
M3 S255
G1 X52.5 Y27.5 
M3 S255
G1 X53.25 Y27.5 
M3 S0
G0 X57.75 Y27.5 
M3 S255
G1 X57.75 Y27.5 
M3 S255
G1 X58.0 Y27.5 
M3 S0
G0 X60.5 Y27.5 
M3 S255
G1 X60.5 Y27.5 
M3 S255
G1 X61.5 Y27.5 
M3 S0
G0 X83.0 Y27.5 
M3 S255
G1 X83.0 Y27.5 
M3 S255
G1 X84.0 Y27.5 
M3 S0
G0 X86.0 Y27.5 
M3 S255
G1 X86.0 Y27.5 
M3 S255
G1 X86.25 Y27.5 
M3 S0
G0 X93.25 Y27.5 
M3 S255
G1 X93.25 Y27.5 
M3 S255
G1 X94.0 Y27.5 
M3 S0
G0 X96.25 Y27.5 
M3 S255
G1 X96.25 Y27.5 
M3 S255
G1 X97.25 Y27.5 
M3 S0
G0 X103.5 Y27.5 
M3 S255
G1 X103.5 Y27.5 
M3 S255
G1 X103.75 Y27.5 
M3 S0
G0 X106.25 Y27.5 
M3 S255
G1 X106.25 Y27.5 
M3 S255
G1 X106.75 Y27.5 
M3 S0
G0 X126.75 Y27.5 
M3 S255
G1 X126.75 Y27.5 
M3 S255
G1 X127.5 Y27.5 
M3 S0
G0 X129.25 Y27.5 
M3 S255
G1 X129.25 Y27.5 
M3 S255
G1 X129.75 Y27.5 
M3 S0
G0 X132.5 Y27.5 
M3 S255
G1 X132.5 Y27.5 
M3 S255
G1 X133.25 Y27.5 
M3 S0
G0 X136.75 Y27.5 
M3 S255
G1 X136.75 Y27.5 
M3 S255
G1 X137.5 Y27.5 
M3 S0
G0 X167.25 Y27.5 
M3 S255
G1 X167.25 Y27.5 
M3 S255
G1 X167.75 Y27.5 
M3 S0
G0 X168.0 Y27.5 
M3 S255
G1 X168.0 Y27.5 
M3 S255
G1 X169.0 Y27.5 
M3 S0
M5 S0
G0 X169.25 Y27.75 
M3 S255
G1 X169.25 Y27.75 
M3 S255
G1 X167.5 Y27.75 
M3 S0
G0 X137.25 Y27.75 
M3 S255
G1 X137.25 Y27.75 
M3 S255
G1 X136.5 Y27.75 
M3 S0
G0 X133.25 Y27.75 
M3 S255
G1 X133.25 Y27.75 
M3 S255
G1 X132.5 Y27.75 
M3 S0
G0 X129.5 Y27.75 
M3 S255
G1 X129.5 Y27.75 
M3 S255
G1 X128.75 Y27.75 
M3 S0
G0 X127.5 Y27.75 
M3 S255
G1 X127.5 Y27.75 
M3 S255
G1 X126.75 Y27.75 
M3 S0
G0 X107.0 Y27.75 
M3 S255
G1 X107.0 Y27.75 
M3 S255
G1 X106.25 Y27.75 
M3 S0
G0 X103.75 Y27.75 
M3 S255
G1 X103.75 Y27.75 
M3 S255
G1 X103.5 Y27.75 
M3 S0
G0 X97.25 Y27.75 
M3 S255
G1 X97.25 Y27.75 
M3 S255
G1 X96.0 Y27.75 
M3 S0
G0 X94.0 Y27.75 
M3 S255
G1 X94.0 Y27.75 
M3 S255
G1 X93.25 Y27.75 
M3 S0
G0 X86.25 Y27.75 
M3 S255
G1 X86.25 Y27.75 
M3 S255
G1 X86.0 Y27.75 
M3 S0
G0 X85.5 Y27.75 
M3 S255
G1 X85.5 Y27.75 
M3 S255
G1 X85.25 Y27.75 
M3 S0
G0 X83.75 Y27.75 
M3 S255
G1 X83.75 Y27.75 
M3 S255
G1 X83.0 Y27.75 
M3 S0
G0 X62.0 Y27.75 
M3 S255
G1 X62.0 Y27.75 
M3 S255
G1 X60.75 Y27.75 
M3 S0
G0 X58.25 Y27.75 
M3 S255
G1 X58.25 Y27.75 
M3 S255
G1 X57.75 Y27.75 
M3 S0
G0 X53.5 Y27.75 
M3 S255
G1 X53.5 Y27.75 
M3 S255
G1 X53.0 Y27.75 
M3 S0
G0 X31.75 Y27.75 
M3 S255
G1 X31.75 Y27.75 
M3 S255
G1 X30.25 Y27.75 
M3 S0
M5 S0
G0 X30.25 Y28.0 
M3 S255
G1 X30.25 Y28.0 
M3 S255
G1 X31.75 Y28.0 
M3 S0
G0 X53.0 Y28.0 
M3 S255
G1 X53.0 Y28.0 
M3 S255
G1 X53.5 Y28.0 
M3 S0
G0 X57.75 Y28.0 
M3 S255
G1 X57.75 Y28.0 
M3 S255
G1 X58.25 Y28.0 
M3 S0
G0 X60.75 Y28.0 
M3 S255
G1 X60.75 Y28.0 
M3 S255
G1 X62.0 Y28.0 
M3 S0
G0 X83.0 Y28.0 
M3 S255
G1 X83.0 Y28.0 
M3 S255
G1 X83.75 Y28.0 
M3 S0
G0 X85.25 Y28.0 
M3 S255
G1 X85.25 Y28.0 
M3 S255
G1 X85.5 Y28.0 
M3 S0
G0 X86.0 Y28.0 
M3 S255
G1 X86.0 Y28.0 
M3 S255
G1 X86.25 Y28.0 
M3 S0
G0 X93.25 Y28.0 
M3 S255
G1 X93.25 Y28.0 
M3 S255
G1 X94.0 Y28.0 
M3 S0
G0 X96.0 Y28.0 
M3 S255
G1 X96.0 Y28.0 
M3 S255
G1 X97.25 Y28.0 
M3 S0
G0 X103.5 Y28.0 
M3 S255
G1 X103.5 Y28.0 
M3 S255
G1 X103.75 Y28.0 
M3 S0
G0 X106.25 Y28.0 
M3 S255
G1 X106.25 Y28.0 
M3 S255
G1 X107.0 Y28.0 
M3 S0
G0 X126.75 Y28.0 
M3 S255
G1 X126.75 Y28.0 
M3 S255
G1 X127.5 Y28.0 
M3 S0
G0 X128.75 Y28.0 
M3 S255
G1 X128.75 Y28.0 
M3 S255
G1 X129.5 Y28.0 
M3 S0
G0 X132.5 Y28.0 
M3 S255
G1 X132.5 Y28.0 
M3 S255
G1 X133.25 Y28.0 
M3 S0
G0 X136.5 Y28.0 
M3 S255
G1 X136.5 Y28.0 
M3 S255
G1 X137.25 Y28.0 
M3 S0
G0 X167.75 Y28.0 
M3 S255
G1 X167.75 Y28.0 
M3 S255
G1 X169.25 Y28.0 
M3 S0
M5 S0
G0 X169.75 Y28.25 
M3 S255
G1 X169.75 Y28.25 
M3 S255
G1 X168.25 Y28.25 
M3 S0
G0 X137.25 Y28.25 
M3 S255
G1 X137.25 Y28.25 
M3 S255
G1 X136.25 Y28.25 
M3 S0
G0 X133.0 Y28.25 
M3 S255
G1 X133.0 Y28.25 
M3 S255
G1 X132.25 Y28.25 
M3 S0
G0 X129.25 Y28.25 
M3 S255
G1 X129.25 Y28.25 
M3 S255
G1 X128.75 Y28.25 
M3 S0
G0 X127.25 Y28.25 
M3 S255
G1 X127.25 Y28.25 
M3 S255
G1 X126.5 Y28.25 
M3 S0
G0 X107.0 Y28.25 
M3 S255
G1 X107.0 Y28.25 
M3 S255
G1 X106.0 Y28.25 
