( imgcode generated code )
( developed by M. "Vidmo" Widomski )
(  github.com/vidmo91 )
(  hackaday.io/vidmo91 )
 
H5 S0 
F100
G0 Z0 ( for some grbl senders compatibility )
 
G0 X237.5 Y0.0
M3 S255
G1 X237.5 Y0.0
M3 S255
G1 X250.0 Y0.0
M3 S0
M5 S0
G0 X250.0 Y0.5
M3 S255
G1 X250.0 Y0.5
M3 S255
G1 X237.5 Y0.5
M3 S0
M5 S0
G0 X237.5 Y1.0
M3 S255
G1 X237.5 Y1.0
M3 S255
G1 X250.0 Y1.0
M3 S0
M5 S0
G0 X250.0 Y1.5
M3 S255
G1 X250.0 Y1.5
M3 S255
G1 X237.5 Y1.5
M3 S0
M5 S0
G0 X232.5 Y2.0
M3 S255
G1 X232.5 Y2.0
M3 S255
G1 X237.5 Y2.0
M3 S0
G0 X252.0 Y2.0
M3 S255
G1 X252.0 Y2.0
M3 S255
G1 X259.0 Y2.0
M3 S0
M5 S0
G0 X259.0 Y2.5
M3 S255
G1 X259.0 Y2.5
M3 S255
G1 X252.0 Y2.5
M3 S0
G0 X237.5 Y2.5
M3 S255
G1 X237.5 Y2.5
M3 S255
G1 X232.5 Y2.5
M3 S0
M5 S0
G0 X232.5 Y3.0
M3 S255
G1 X232.5 Y3.0
M3 S255
G1 X237.5 Y3.0
M3 S0
G0 X252.0 Y3.0
M3 S255
G1 X252.0 Y3.0
M3 S255
G1 X259.0 Y3.0
M3 S0
M5 S0
G0 X264.5 Y3.5
M3 S255
G1 X264.5 Y3.5
M3 S255
G1 X257.5 Y3.5
M3 S0
G0 X236.0 Y3.5
M3 S255
G1 X236.0 Y3.5
M3 S255
G1 X230.5 Y3.5
M3 S0
M5 S0
G0 X230.5 Y4.0
M3 S255
G1 X230.5 Y4.0
M3 S255
G1 X236.0 Y4.0
M3 S0
G0 X257.5 Y4.0
M3 S255
G1 X257.5 Y4.0
M3 S255
G1 X264.5 Y4.0
M3 S0
M5 S0
G0 X264.5 Y4.5
M3 S255
G1 X264.5 Y4.5
M3 S255
G1 X257.5 Y4.5
M3 S0
G0 X236.0 Y4.5
M3 S255
G1 X236.0 Y4.5
M3 S255
G1 X230.5 Y4.5
M3 S0
M5 S0
G0 X230.5 Y5.0
M3 S255
G1 X230.5 Y5.0
M3 S255
G1 X236.0 Y5.0
M3 S0
G0 X257.5 Y5.0
M3 S255
G1 X257.5 Y5.0
M3 S255
G1 X264.5 Y5.0
M3 S0
M5 S0
G0 X268.0 Y5.5
M3 S255
G1 X268.0 Y5.5
M3 S255
G1 X261.0 Y5.5
M3 S0
G0 X236.0 Y5.5
M3 S255
G1 X236.0 Y5.5
M3 S255
G1 X234.0 Y5.5
M3 S0
G0 X232.5 Y5.5
M3 S255
G1 X232.5 Y5.5
M3 S255
G1 X227.0 Y5.5
M3 S0
M5 S0
G0 X227.0 Y6.0
M3 S255
G1 X227.0 Y6.0
M3 S255
G1 X232.5 Y6.0
M3 S0
G0 X234.0 Y6.0
M3 S255
G1 X234.0 Y6.0
M3 S255
G1 X236.0 Y6.0
M3 S0
G0 X261.0 Y6.0
M3 S255
G1 X261.0 Y6.0
M3 S255
G1 X268.0 Y6.0
M3 S0
M5 S0
G0 X268.0 Y6.5
M3 S255
G1 X268.0 Y6.5
M3 S255
G1 X261.0 Y6.5
M3 S0
G0 X236.0 Y6.5
M3 S255
G1 X236.0 Y6.5
M3 S255
G1 X234.0 Y6.5
M3 S0
G0 X232.5 Y6.5
M3 S255
G1 X232.5 Y6.5
M3 S255
G1 X227.0 Y6.5
M3 S0
M5 S0
G0 X133.0 Y7.0
M3 S255
G1 X133.0 Y7.0
M3 S255
G1 X152.5 Y7.0
M3 S0
G0 X227.0 Y7.0
M3 S255
G1 X227.0 Y7.0
M3 S255
G1 X229.0 Y7.0
M3 S0
G0 X234.0 Y7.0
M3 S255
G1 X234.0 Y7.0
M3 S255
G1 X236.0 Y7.0
M3 S0
G0 X264.5 Y7.0
M3 S255
G1 X264.5 Y7.0
M3 S255
G1 X269.5 Y7.0
M3 S0
M5 S0
G0 X269.5 Y7.5
M3 S255
G1 X269.5 Y7.5
M3 S255
G1 X264.5 Y7.5
M3 S0
G0 X236.0 Y7.5
M3 S255
G1 X236.0 Y7.5
M3 S255
G1 X234.0 Y7.5
M3 S0
G0 X229.0 Y7.5
M3 S255
G1 X229.0 Y7.5
M3 S255
G1 X227.0 Y7.5
M3 S0
G0 X152.5 Y7.5
M3 S255
G1 X152.5 Y7.5
M3 S255
G1 X133.0 Y7.5
M3 S0
M5 S0
G0 X133.0 Y8.0
M3 S255
G1 X133.0 Y8.0
M3 S255
G1 X152.5 Y8.0
M3 S0
G0 X227.0 Y8.0
M3 S255
G1 X227.0 Y8.0
M3 S255
G1 X229.0 Y8.0
M3 S0
G0 X234.0 Y8.0
M3 S255
G1 X234.0 Y8.0
M3 S255
G1 X236.0 Y8.0
M3 S0
G0 X264.5 Y8.0
M3 S255
G1 X264.5 Y8.0
M3 S255
G1 X269.5 Y8.0
M3 S0
M5 S0
G0 X269.5 Y8.5
M3 S255
G1 X269.5 Y8.5
M3 S255
G1 X264.5 Y8.5
M3 S0
G0 X236.0 Y8.5
M3 S255
G1 X236.0 Y8.5
M3 S255
G1 X234.0 Y8.5
M3 S0
G0 X229.0 Y8.5
M3 S255
G1 X229.0 Y8.5
M3 S255
G1 X227.0 Y8.5
M3 S0
G0 X152.5 Y8.5
M3 S255
G1 X152.5 Y8.5
M3 S255
G1 X133.0 Y8.5
M3 S0
M5 S0
G0 X118.5 Y9.0
M3 S255
G1 X118.5 Y9.0
M3 S255
G1 X163.0 Y9.0
M3 S0
G0 X225.5 Y9.0
M3 S255
G1 X225.5 Y9.0
M3 S255
G1 X227.0 Y9.0
M3 S0
G0 X268.0 Y9.0
M3 S255
G1 X268.0 Y9.0
M3 S255
G1 X273.5 Y9.0
M3 S0
M5 S0
G0 X273.5 Y9.5
M3 S255
G1 X273.5 Y9.5
M3 S255
G1 X268.0 Y9.5
M3 S0
G0 X227.0 Y9.5
M3 S255
G1 X227.0 Y9.5
M3 S255
G1 X225.5 Y9.5
M3 S0
G0 X163.0 Y9.5
M3 S255
G1 X163.0 Y9.5
M3 S255
G1 X118.5 Y9.5
M3 S0
M5 S0
G0 X118.5 Y10.0
M3 S255
G1 X118.5 Y10.0
M3 S255
G1 X163.0 Y10.0
M3 S0
G0 X225.5 Y10.0
M3 S255
G1 X225.5 Y10.0
M3 S255
G1 X227.0 Y10.0
M3 S0
G0 X268.0 Y10.0
M3 S255
G1 X268.0 Y10.0
M3 S255
G1 X273.5 Y10.0
M3 S0
M5 S0
G0 X275.0 Y10.5
M3 S255
G1 X275.0 Y10.5
M3 S255
G1 X269.5 Y10.5
M3 S0
G0 X237.5 Y10.5
M3 S255
G1 X237.5 Y10.5
M3 S255
G1 X236.0 Y10.5
M3 S0
G0 X225.5 Y10.5
M3 S255
G1 X225.5 Y10.5
M3 S255
G1 X223.5 Y10.5
M3 S0
G0 X170.0 Y10.5
M3 S255
G1 X170.0 Y10.5
M3 S255
G1 X163.0 Y10.5
M3 S0
G0 X124.0 Y10.5
M3 S255
G1 X124.0 Y10.5
M3 S255
G1 X111.5 Y10.5
M3 S0
M5 S0
G0 X111.5 Y11.0
M3 S255
G1 X111.5 Y11.0
M3 S255
G1 X124.0 Y11.0
M3 S0
G0 X163.0 Y11.0
M3 S255
G1 X163.0 Y11.0
M3 S255
G1 X170.0 Y11.0
M3 S0
G0 X223.5 Y11.0
M3 S255
G1 X223.5 Y11.0
M3 S255
G1 X225.5 Y11.0
M3 S0
G0 X236.0 Y11.0
M3 S255
G1 X236.0 Y11.0
M3 S255
G1 X237.5 Y11.0
M3 S0
G0 X269.5 Y11.0
M3 S255
G1 X269.5 Y11.0
M3 S255
G1 X275.0 Y11.0
M3 S0
M5 S0
G0 X275.0 Y11.5
M3 S255
G1 X275.0 Y11.5
M3 S255
G1 X269.5 Y11.5
M3 S0
G0 X237.5 Y11.5
M3 S255
G1 X237.5 Y11.5
M3 S255
G1 X236.0 Y11.5
M3 S0
G0 X225.5 Y11.5
M3 S255
G1 X225.5 Y11.5
M3 S255
G1 X223.5 Y11.5
M3 S0
G0 X170.0 Y11.5
M3 S255
G1 X170.0 Y11.5
M3 S255
G1 X163.0 Y11.5
M3 S0
G0 X124.0 Y11.5
M3 S255
G1 X124.0 Y11.5
M3 S255
G1 X111.5 Y11.5
M3 S0
M5 S0
G0 X111.5 Y12.0
M3 S255
G1 X111.5 Y12.0
M3 S255
G1 X124.0 Y12.0
M3 S0
G0 X163.0 Y12.0
M3 S255
G1 X163.0 Y12.0
M3 S255
G1 X170.0 Y12.0
M3 S0
G0 X223.5 Y12.0
M3 S255
G1 X223.5 Y12.0
M3 S255
G1 X225.5 Y12.0
M3 S0
G0 X236.0 Y12.0
M3 S255
G1 X236.0 Y12.0
M3 S255
G1 X237.5 Y12.0
M3 S0
G0 X269.5 Y12.0
M3 S255
G1 X269.5 Y12.0
M3 S255
G1 X275.0 Y12.0
M3 S0
M5 S0
G0 X278.5 Y12.5
M3 S255
G1 X278.5 Y12.5
M3 S255
G1 X273.5 Y12.5
M3 S0
G0 X237.5 Y12.5
M3 S255
G1 X237.5 Y12.5
M3 S255
G1 X236.0 Y12.5
M3 S0
G0 X223.5 Y12.5
M3 S255
G1 X223.5 Y12.5
M3 S255
G1 X221.5 Y12.5
M3 S0
G0 X177.5 Y12.5
M3 S255
G1 X177.5 Y12.5
M3 S255
G1 X170.0 Y12.5
M3 S0
G0 X117.0 Y12.5
M3 S255
G1 X117.0 Y12.5
M3 S255
G1 X108.0 Y12.5
M3 S0
M5 S0
G0 X108.0 Y13.0
M3 S255
G1 X108.0 Y13.0
M3 S255
G1 X117.0 Y13.0
M3 S0
G0 X170.0 Y13.0
M3 S255
G1 X170.0 Y13.0
M3 S255
G1 X177.5 Y13.0
M3 S0
G0 X221.5 Y13.0
M3 S255
G1 X221.5 Y13.0
M3 S255
G1 X223.5 Y13.0
M3 S0
G0 X236.0 Y13.0
M3 S255
G1 X236.0 Y13.0
M3 S255
G1 X237.5 Y13.0
M3 S0
G0 X273.5 Y13.0
M3 S255
G1 X273.5 Y13.0
M3 S255
G1 X278.5 Y13.0
M3 S0
M5 S0
G0 X278.5 Y13.5
M3 S255
G1 X278.5 Y13.5
M3 S255
G1 X273.5 Y13.5
M3 S0
G0 X237.5 Y13.5
M3 S255
G1 X237.5 Y13.5
M3 S255
G1 X236.0 Y13.5
M3 S0
G0 X223.5 Y13.5
M3 S255
G1 X223.5 Y13.5
M3 S255
G1 X221.5 Y13.5
M3 S0
G0 X177.5 Y13.5
M3 S255
G1 X177.5 Y13.5
M3 S255
G1 X170.0 Y13.5
M3 S0
G0 X117.0 Y13.5
M3 S255
G1 X117.0 Y13.5
M3 S255
G1 X108.0 Y13.5
M3 S0
M5 S0
G0 X102.5 Y14.0
M3 S255
G1 X102.5 Y14.0
M3 S255
G1 X111.5 Y14.0
M3 S0
G0 X175.5 Y14.0
M3 S255
G1 X175.5 Y14.0
M3 S255
G1 X182.5 Y14.0
M3 S0
G0 X220.0 Y14.0
M3 S255
G1 X220.0 Y14.0
M3 S255
G1 X223.5 Y14.0
M3 S0
G0 X237.5 Y14.0
M3 S255
G1 X237.5 Y14.0
M3 S255
G1 X239.5 Y14.0
M3 S0
G0 X275.0 Y14.0
M3 S255
G1 X275.0 Y14.0
M3 S255
G1 X280.5 Y14.0
M3 S0
M5 S0
G0 X280.5 Y14.5
M3 S255
G1 X280.5 Y14.5
M3 S255
G1 X275.0 Y14.5
M3 S0
G0 X239.5 Y14.5
M3 S255
G1 X239.5 Y14.5
M3 S255
G1 X237.5 Y14.5
M3 S0
G0 X223.5 Y14.5
M3 S255
G1 X223.5 Y14.5
M3 S255
G1 X220.0 Y14.5
M3 S0
G0 X182.5 Y14.5
M3 S255
G1 X182.5 Y14.5
M3 S255
G1 X175.5 Y14.5
M3 S0
G0 X111.5 Y14.5
M3 S255
G1 X111.5 Y14.5
M3 S255
G1 X102.5 Y14.5
M3 S0
M5 S0
G0 X102.5 Y15.0
M3 S255
G1 X102.5 Y15.0
M3 S255
G1 X111.5 Y15.0
M3 S0
G0 X175.5 Y15.0
M3 S255
G1 X175.5 Y15.0
M3 S255
G1 X182.5 Y15.0
M3 S0
G0 X220.0 Y15.0
M3 S255
G1 X220.0 Y15.0
M3 S255
G1 X223.5 Y15.0
M3 S0
G0 X237.5 Y15.0
M3 S255
G1 X237.5 Y15.0
M3 S255
G1 X239.5 Y15.0
M3 S0
G0 X275.0 Y15.0
M3 S255
G1 X275.0 Y15.0
M3 S255
G1 X280.5 Y15.0
M3 S0
M5 S0
G0 X280.5 Y15.5
M3 S255
G1 X280.5 Y15.5
M3 S255
G1 X275.0 Y15.5
M3 S0
G0 X239.5 Y15.5
M3 S255
G1 X239.5 Y15.5
M3 S255
G1 X237.5 Y15.5
M3 S0
G0 X223.5 Y15.5
M3 S255
G1 X223.5 Y15.5
M3 S255
G1 X220.0 Y15.5
M3 S0
G0 X182.5 Y15.5
M3 S255
G1 X182.5 Y15.5
M3 S255
G1 X175.5 Y15.5
M3 S0
G0 X111.5 Y15.5
M3 S255
G1 X111.5 Y15.5
M3 S255
G1 X102.5 Y15.5
M3 S0
M5 S0
G0 X99.0 Y16.0
M3 S255
G1 X99.0 Y16.0
M3 S255
G1 X106.0 Y16.0
M3 S0
G0 X181.0 Y16.0
M3 S255
G1 X181.0 Y16.0
M3 S255
G1 X188.0 Y16.0
M3 S0
G0 X220.0 Y16.0
M3 S255
G1 X220.0 Y16.0
M3 S255
G1 X221.5 Y16.0
M3 S0
G0 X237.5 Y16.0
M3 S255
G1 X237.5 Y16.0
M3 S255
G1 X239.5 Y16.0
M3 S0
G0 X250.0 Y16.0
M3 S255
G1 X250.0 Y16.0
M3 S255
G1 X266.0 Y16.0
M3 S0
G0 X277.0 Y16.0
M3 S255
G1 X277.0 Y16.0
M3 S255
G1 X282.0 Y16.0
M3 S0
M5 S0
G0 X282.0 Y16.5
M3 S255
G1 X282.0 Y16.5
M3 S255
G1 X277.0 Y16.5
M3 S0
G0 X266.0 Y16.5
M3 S255
G1 X266.0 Y16.5
M3 S255
G1 X250.0 Y16.5
M3 S0
G0 X239.5 Y16.5
M3 S255
G1 X239.5 Y16.5
M3 S255
G1 X237.5 Y16.5
M3 S0
G0 X221.5 Y16.5
M3 S255
G1 X221.5 Y16.5
M3 S255
G1 X220.0 Y16.5
M3 S0
G0 X188.0 Y16.5
M3 S255
G1 X188.0 Y16.5
M3 S255
G1 X181.0 Y16.5
M3 S0
G0 X106.0 Y16.5
M3 S255
G1 X106.0 Y16.5
M3 S255
G1 X99.0 Y16.5
M3 S0
M5 S0
G0 X99.0 Y17.0
M3 S255
G1 X99.0 Y17.0
M3 S255
G1 X106.0 Y17.0
M3 S0
G0 X181.0 Y17.0
M3 S255
G1 X181.0 Y17.0
M3 S255
G1 X188.0 Y17.0
M3 S0
G0 X220.0 Y17.0
M3 S255
G1 X220.0 Y17.0
M3 S255
G1 X221.5 Y17.0
M3 S0
G0 X237.5 Y17.0
M3 S255
G1 X237.5 Y17.0
M3 S255
G1 X239.5 Y17.0
M3 S0
G0 X250.0 Y17.0
M3 S255
G1 X250.0 Y17.0
M3 S255
G1 X266.0 Y17.0
M3 S0
G0 X277.0 Y17.0
M3 S255
G1 X277.0 Y17.0
M3 S255
G1 X282.0 Y17.0
M3 S0
M5 S0
G0 X282.0 Y17.5
M3 S255
G1 X282.0 Y17.5
M3 S255
G1 X277.0 Y17.5
M3 S0
G0 X266.0 Y17.5
M3 S255
G1 X266.0 Y17.5
M3 S255
G1 X250.0 Y17.5
M3 S0
G0 X239.5 Y17.5
M3 S255
G1 X239.5 Y17.5
M3 S255
G1 X237.5 Y17.5
M3 S0
G0 X221.5 Y17.5
M3 S255
G1 X221.5 Y17.5
M3 S255
G1 X220.0 Y17.5
M3 S0
G0 X188.0 Y17.5
M3 S255
G1 X188.0 Y17.5
M3 S255
G1 X181.0 Y17.5
M3 S0
G0 X106.0 Y17.5
M3 S255
G1 X106.0 Y17.5
M3 S255
G1 X99.0 Y17.5
M3 S0
M5 S0
G0 X95.5 Y18.0
M3 S255
G1 X95.5 Y18.0
M3 S255
G1 X101.0 Y18.0
M3 S0
G0 X186.0 Y18.0
M3 S255
G1 X186.0 Y18.0
M3 S255
G1 X191.5 Y18.0
M3 S0
G0 X218.0 Y18.0
M3 S255
G1 X218.0 Y18.0
M3 S255
G1 X221.5 Y18.0
M3 S0
G0 X239.5 Y18.0
M3 S255
G1 X239.5 Y18.0
M3 S255
G1 X246.5 Y18.0
M3 S0
G0 X269.5 Y18.0
M3 S255
G1 X269.5 Y18.0
M3 S255
G1 X275.0 Y18.0
M3 S0
G0 X278.5 Y18.0
M3 S255
G1 X278.5 Y18.0
M3 S255
G1 X285.5 Y18.0
M3 S0
M5 S0
G0 X285.5 Y18.5
M3 S255
G1 X285.5 Y18.5
M3 S255
G1 X278.5 Y18.5
M3 S0
G0 X275.0 Y18.5
M3 S255
G1 X275.0 Y18.5
M3 S255
G1 X269.5 Y18.5
M3 S0
G0 X246.5 Y18.5
M3 S255
G1 X246.5 Y18.5
M3 S255
G1 X239.5 Y18.5
M3 S0
G0 X221.5 Y18.5
M3 S255
G1 X221.5 Y18.5
M3 S255
G1 X218.0 Y18.5
M3 S0
G0 X191.5 Y18.5
M3 S255
G1 X191.5 Y18.5
M3 S255
G1 X186.0 Y18.5
M3 S0
G0 X101.0 Y18.5
M3 S255
G1 X101.0 Y18.5
M3 S255
G1 X95.5 Y18.5
M3 S0
M5 S0
G0 X95.5 Y19.0
M3 S255
G1 X95.5 Y19.0
M3 S255
G1 X101.0 Y19.0
M3 S0
G0 X186.0 Y19.0
M3 S255
G1 X186.0 Y19.0
M3 S255
G1 X191.5 Y19.0
M3 S0
G0 X218.0 Y19.0
M3 S255
G1 X218.0 Y19.0
M3 S255
G1 X221.5 Y19.0
M3 S0
G0 X239.5 Y19.0
M3 S255
G1 X239.5 Y19.0
M3 S255
G1 X246.5 Y19.0
M3 S0
G0 X269.5 Y19.0
M3 S255
G1 X269.5 Y19.0
M3 S255
G1 X275.0 Y19.0
M3 S0
G0 X278.5 Y19.0
M3 S255
G1 X278.5 Y19.0
M3 S255
G1 X285.5 Y19.0
M3 S0
M5 S0
G0 X287.5 Y19.5
M3 S255
G1 X287.5 Y19.5
M3 S255
G1 X278.5 Y19.5
M3 S0
G0 X243.0 Y19.5
M3 S255
G1 X243.0 Y19.5
M3 S255
G1 X241.5 Y19.5
M3 S0
G0 X220.0 Y19.5
M3 S255
G1 X220.0 Y19.5
M3 S255
G1 X218.0 Y19.5
M3 S0
G0 X195.0 Y19.5
M3 S255
G1 X195.0 Y19.5
M3 S255
G1 X189.5 Y19.5
M3 S0
G0 X99.0 Y19.5
M3 S255
G1 X99.0 Y19.5
M3 S255
G1 X93.5 Y19.5
M3 S0
M5 S0
G0 X93.5 Y20.0
M3 S255
G1 X93.5 Y20.0
M3 S255
G1 X99.0 Y20.0
M3 S0
G0 X189.5 Y20.0
M3 S255
G1 X189.5 Y20.0
M3 S255
G1 X195.0 Y20.0
M3 S0
G0 X218.0 Y20.0
M3 S255
G1 X218.0 Y20.0
M3 S255
G1 X220.0 Y20.0
M3 S0
G0 X241.5 Y20.0
M3 S255
G1 X241.5 Y20.0
M3 S255
G1 X243.0 Y20.0
M3 S0
G0 X278.5 Y20.0
M3 S255
G1 X278.5 Y20.0
M3 S255
G1 X287.5 Y20.0
M3 S0
M5 S0
G0 X287.5 Y20.5
M3 S255
G1 X287.5 Y20.5
M3 S255
G1 X278.5 Y20.5
M3 S0
G0 X243.0 Y20.5
M3 S255
G1 X243.0 Y20.5
M3 S255
G1 X241.5 Y20.5
M3 S0
G0 X220.0 Y20.5
M3 S255
G1 X220.0 Y20.5
M3 S255
G1 X218.0 Y20.5
M3 S0
G0 X195.0 Y20.5
M3 S255
G1 X195.0 Y20.5
M3 S255
G1 X189.5 Y20.5
M3 S0
G0 X99.0 Y20.5
M3 S255
G1 X99.0 Y20.5
M3 S255
G1 X93.5 Y20.5
M3 S0
M5 S0
G0 X93.5 Y21.0
M3 S255
G1 X93.5 Y21.0
M3 S255
G1 X99.0 Y21.0
M3 S0
G0 X189.5 Y21.0
M3 S255
G1 X189.5 Y21.0
M3 S255
G1 X195.0 Y21.0
M3 S0
G0 X218.0 Y21.0
M3 S255
G1 X218.0 Y21.0
M3 S255
G1 X220.0 Y21.0
M3 S0
G0 X241.5 Y21.0
M3 S255
G1 X241.5 Y21.0
M3 S255
G1 X243.0 Y21.0
M3 S0
G0 X278.5 Y21.0
M3 S255
G1 X278.5 Y21.0
M3 S255
G1 X287.5 Y21.0
M3 S0
M5 S0
G0 X289.5 Y21.5
M3 S255
G1 X289.5 Y21.5
M3 S255
G1 X282.0 Y21.5
M3 S0
G0 X245.0 Y21.5
M3 S255
G1 X245.0 Y21.5
M3 S255
G1 X241.5 Y21.5
M3 S0
G0 X220.0 Y21.5
M3 S255
G1 X220.0 Y21.5
M3 S255
G1 X218.0 Y21.5
M3 S0
G0 X197.0 Y21.5
M3 S255
G1 X197.0 Y21.5
M3 S255
G1 X193.5 Y21.5
M3 S0
G0 X95.5 Y21.5
M3 S255
G1 X95.5 Y21.5
M3 S255
G1 X90.0 Y21.5
M3 S0
M5 S0
G0 X90.0 Y22.0
M3 S255
G1 X90.0 Y22.0
M3 S255
G1 X95.5 Y22.0
M3 S0
G0 X193.5 Y22.0
M3 S255
G1 X193.5 Y22.0
M3 S255
G1 X197.0 Y22.0
M3 S0
G0 X218.0 Y22.0
M3 S255
G1 X218.0 Y22.0
M3 S255
G1 X220.0 Y22.0
M3 S0
G0 X241.5 Y22.0
M3 S255
G1 X241.5 Y22.0
M3 S255
G1 X245.0 Y22.0
M3 S0
G0 X282.0 Y22.0
M3 S255
G1 X282.0 Y22.0
M3 S255
G1 X289.5 Y22.0
M3 S0
M5 S0
G0 X289.5 Y22.5
M3 S255
G1 X289.5 Y22.5
M3 S255
G1 X282.0 Y22.5
M3 S0
G0 X245.0 Y22.5
M3 S255
G1 X245.0 Y22.5
M3 S255
G1 X241.5 Y22.5
M3 S0
G0 X220.0 Y22.5
M3 S255
G1 X220.0 Y22.5
M3 S255
G1 X218.0 Y22.5
M3 S0
G0 X197.0 Y22.5
M3 S255
G1 X197.0 Y22.5
M3 S255
G1 X193.5 Y22.5
M3 S0
G0 X95.5 Y22.5
M3 S255
G1 X95.5 Y22.5
M3 S255
G1 X90.0 Y22.5
M3 S0
M5 S0
G0 X88.5 Y23.0
M3 S255
G1 X88.5 Y23.0
M3 S255
G1 X93.5 Y23.0
M3 S0
G0 X195.0 Y23.0
M3 S255
G1 X195.0 Y23.0
M3 S255
G1 X200.5 Y23.0
M3 S0
G0 X218.0 Y23.0
M3 S255
G1 X218.0 Y23.0
M3 S255
G1 X220.0 Y23.0
M3 S0
G0 X243.0 Y23.0
M3 S255
G1 X243.0 Y23.0
M3 S255
G1 X245.0 Y23.0
M3 S0
G0 X285.5 Y23.0
M3 S255
G1 X285.5 Y23.0
M3 S255
G1 X291.0 Y23.0
M3 S0
M5 S0
G0 X291.0 Y23.5
M3 S255
G1 X291.0 Y23.5
M3 S255
G1 X285.5 Y23.5
M3 S0
G0 X245.0 Y23.5
M3 S255
G1 X245.0 Y23.5
M3 S255
G1 X243.0 Y23.5
M3 S0
G0 X220.0 Y23.5
M3 S255
G1 X220.0 Y23.5
M3 S255
G1 X218.0 Y23.5
M3 S0
G0 X200.5 Y23.5
M3 S255
G1 X200.5 Y23.5
M3 S255
G1 X195.0 Y23.5
M3 S0
G0 X93.5 Y23.5
M3 S255
G1 X93.5 Y23.5
M3 S255
G1 X88.5 Y23.5
M3 S0
M5 S0
G0 X88.5 Y24.0
M3 S255
G1 X88.5 Y24.0
M3 S255
G1 X93.5 Y24.0
M3 S0
G0 X195.0 Y24.0
M3 S255
G1 X195.0 Y24.0
M3 S255
G1 X200.5 Y24.0
M3 S0
G0 X218.0 Y24.0
M3 S255
G1 X218.0 Y24.0
M3 S255
G1 X220.0 Y24.0
M3 S0
G0 X243.0 Y24.0
M3 S255
G1 X243.0 Y24.0
M3 S255
G1 X245.0 Y24.0
M3 S0
G0 X285.5 Y24.0
M3 S255
G1 X285.5 Y24.0
M3 S255
G1 X291.0 Y24.0
M3 S0
M5 S0
G0 X291.0 Y24.5
M3 S255
G1 X291.0 Y24.5
M3 S255
G1 X285.5 Y24.5
M3 S0
G0 X245.0 Y24.5
M3 S255
G1 X245.0 Y24.5
M3 S255
G1 X243.0 Y24.5
M3 S0
G0 X220.0 Y24.5
M3 S255
G1 X220.0 Y24.5
M3 S255
G1 X218.0 Y24.5
M3 S0
G0 X200.5 Y24.5
M3 S255
G1 X200.5 Y24.5
M3 S255
G1 X195.0 Y24.5
M3 S0
G0 X93.5 Y24.5
M3 S255
G1 X93.5 Y24.5
M3 S255
G1 X88.5 Y24.5
M3 S0
M5 S0
G0 X86.5 Y25.0
M3 S255
G1 X86.5 Y25.0
M3 S255
G1 X90.0 Y25.0
M3 S0
G0 X198.5 Y25.0
M3 S255
G1 X198.5 Y25.0
M3 S255
G1 X202.0 Y25.0
M3 S0
G0 X216.5 Y25.0
M3 S255
G1 X216.5 Y25.0
M3 S255
G1 X218.0 Y25.0
M3 S0
G0 X245.0 Y25.0
M3 S255
G1 X245.0 Y25.0
M3 S255
G1 X246.5 Y25.0
M3 S0
G0 X289.5 Y25.0
M3 S255
G1 X289.5 Y25.0
M3 S255
G1 X293.0 Y25.0
M3 S0
M5 S0
G0 X293.0 Y25.5
M3 S255
G1 X293.0 Y25.5
M3 S255
G1 X289.5 Y25.5
M3 S0
G0 X246.5 Y25.5
M3 S255
G1 X246.5 Y25.5
M3 S255
G1 X245.0 Y25.5
M3 S0
G0 X218.0 Y25.5
M3 S255
G1 X218.0 Y25.5
M3 S255
G1 X216.5 Y25.5
M3 S0
G0 X202.0 Y25.5
M3 S255
G1 X202.0 Y25.5
M3 S255
G1 X198.5 Y25.5
M3 S0
G0 X90.0 Y25.5
M3 S255
G1 X90.0 Y25.5
M3 S255
G1 X86.5 Y25.5
M3 S0
M5 S0
G0 X86.5 Y26.0
M3 S255
G1 X86.5 Y26.0
M3 S255
G1 X90.0 Y26.0
M3 S0
G0 X198.5 Y26.0
M3 S255
G1 X198.5 Y26.0
M3 S255
G1 X202.0 Y26.0
M3 S0
G0 X216.5 Y26.0
M3 S255
G1 X216.5 Y26.0
M3 S255
G1 X218.0 Y26.0
M3 S0
G0 X245.0 Y26.0
M3 S255
G1 X245.0 Y26.0
M3 S255
G1 X246.5 Y26.0
M3 S0
G0 X289.5 Y26.0
M3 S255
G1 X289.5 Y26.0
M3 S255
G1 X293.0 Y26.0
M3 S0
M5 S0
G0 X294.5 Y26.5
M3 S255
G1 X294.5 Y26.5
M3 S255
G1 X291.0 Y26.5
M3 S0
G0 X248.5 Y26.5
M3 S255
G1 X248.5 Y26.5
M3 S255
G1 X245.0 Y26.5
M3 S0
G0 X218.0 Y26.5
M3 S255
G1 X218.0 Y26.5
M3 S255
G1 X216.5 Y26.5
M3 S0
G0 X204.0 Y26.5
M3 S255
G1 X204.0 Y26.5
M3 S255
G1 X200.5 Y26.5
M3 S0
G0 X88.5 Y26.5
M3 S255
G1 X88.5 Y26.5
M3 S255
G1 X85.0 Y26.5
M3 S0
M5 S0
G0 X85.0 Y27.0
M3 S255
G1 X85.0 Y27.0
M3 S255
G1 X88.5 Y27.0
M3 S0
G0 X200.5 Y27.0
M3 S255
G1 X200.5 Y27.0
M3 S255
G1 X204.0 Y27.0
M3 S0
G0 X216.5 Y27.0
M3 S255
G1 X216.5 Y27.0
M3 S255
G1 X218.0 Y27.0
M3 S0
G0 X245.0 Y27.0
M3 S255
G1 X245.0 Y27.0
M3 S255
G1 X248.5 Y27.0
M3 S0
G0 X291.0 Y27.0
M3 S255
G1 X291.0 Y27.0
M3 S255
G1 X294.5 Y27.0
M3 S0
M5 S0
G0 X294.5 Y27.5
M3 S255
G1 X294.5 Y27.5
M3 S255
G1 X291.0 Y27.5
M3 S0
G0 X248.5 Y27.5
M3 S255
G1 X248.5 Y27.5
M3 S255
G1 X245.0 Y27.5
M3 S0
G0 X218.0 Y27.5
M3 S255
G1 X218.0 Y27.5
M3 S255
G1 X216.5 Y27.5
M3 S0
G0 X204.0 Y27.5
M3 S255
G1 X204.0 Y27.5
M3 S255
G1 X200.5 Y27.5
M3 S0
G0 X88.5 Y27.5
M3 S255
G1 X88.5 Y27.5
M3 S255
G1 X85.0 Y27.5
M3 S0
M5 S0
G0 X85.0 Y28.0
M3 S255
G1 X85.0 Y28.0
M3 S255
G1 X88.5 Y28.0
M3 S0
G0 X200.5 Y28.0
M3 S255
G1 X200.5 Y28.0
M3 S255
G1 X204.0 Y28.0
M3 S0
G0 X216.5 Y28.0
M3 S255
G1 X216.5 Y28.0
M3 S255
G1 X218.0 Y28.0
M3 S0
G0 X245.0 Y28.0
M3 S255
G1 X245.0 Y28.0
M3 S255
G1 X248.5 Y28.0
M3 S0
G0 X291.0 Y28.0
M3 S255
G1 X291.0 Y28.0
M3 S255
G1 X294.5 Y28.0
M3 S0
M5 S0
G0 X296.5 Y28.5
M3 S255
G1 X296.5 Y28.5
M3 S255
G1 X293.0 Y28.5
M3 S0
G0 X248.5 Y28.5
M3 S255
G1 X248.5 Y28.5
M3 S255
G1 X246.5 Y28.5
M3 S0
G0 X218.0 Y28.5
M3 S255
G1 X218.0 Y28.5
M3 S255
G1 X216.5 Y28.5
M3 S0
G0 X205.5 Y28.5
M3 S255
G1 X205.5 Y28.5
M3 S255
G1 X202.0 Y28.5
M3 S0
G0 X86.5 Y28.5
M3 S255
G1 X86.5 Y28.5
M3 S255
G1 X83.0 Y28.5
M3 S0
M5 S0
G0 X83.0 Y29.0
M3 S255
G1 X83.0 Y29.0
M3 S255
G1 X86.5 Y29.0
M3 S0
G0 X202.0 Y29.0
M3 S255
G1 X202.0 Y29.0
M3 S255
G1 X205.5 Y29.0
M3 S0
G0 X216.5 Y29.0
M3 S255
G1 X216.5 Y29.0
M3 S255
G1 X218.0 Y29.0
M3 S0
G0 X246.5 Y29.0
M3 S255
G1 X246.5 Y29.0
M3 S255
G1 X248.5 Y29.0
M3 S0
G0 X293.0 Y29.0
M3 S255
G1 X293.0 Y29.0
M3 S255
G1 X296.5 Y29.0
M3 S0
M5 S0
G0 X296.5 Y29.5
M3 S255
G1 X296.5 Y29.5
M3 S255
G1 X293.0 Y29.5
M3 S0
G0 X248.5 Y29.5
M3 S255
G1 X248.5 Y29.5
M3 S255
G1 X246.5 Y29.5
M3 S0
G0 X218.0 Y29.5
M3 S255
G1 X218.0 Y29.5
M3 S255
G1 X216.5 Y29.5
M3 S0
G0 X205.5 Y29.5
M3 S255
G1 X205.5 Y29.5
M3 S255
G1 X202.0 Y29.5
M3 S0
G0 X86.5 Y29.5
M3 S255
G1 X86.5 Y29.5
M3 S255
G1 X83.0 Y29.5
M3 S0
M5 S0
G0 X81.5 Y30.0
M3 S255
G1 X81.5 Y30.0
M3 S255
G1 X85.0 Y30.0
M3 S0
G0 X204.0 Y30.0
M3 S255
G1 X204.0 Y30.0
M3 S255
G1 X205.5 Y30.0
M3 S0
G0 X216.5 Y30.0
M3 S255
G1 X216.5 Y30.0
M3 S255
G1 X218.0 Y30.0
M3 S0
G0 X248.5 Y30.0
M3 S255
G1 X248.5 Y30.0
M3 S255
G1 X250.0 Y30.0
M3 S0
G0 X294.5 Y30.0
M3 S255
G1 X294.5 Y30.0
M3 S255
G1 X298.0 Y30.0
M3 S0
M5 S0
G0 X298.0 Y30.5
M3 S255
G1 X298.0 Y30.5
M3 S255
G1 X294.5 Y30.5
M3 S0
G0 X250.0 Y30.5
M3 S255
G1 X250.0 Y30.5
M3 S255
G1 X248.5 Y30.5
M3 S0
G0 X218.0 Y30.5
M3 S255
G1 X218.0 Y30.5
M3 S255
G1 X216.5 Y30.5
M3 S0
G0 X205.5 Y30.5
M3 S255
G1 X205.5 Y30.5
M3 S255
G1 X204.0 Y30.5
M3 S0
G0 X85.0 Y30.5
M3 S255
G1 X85.0 Y30.5
M3 S255
G1 X81.5 Y30.5
M3 S0
M5 S0
G0 X81.5 Y31.0
M3 S255
G1 X81.5 Y31.0
M3 S255
G1 X85.0 Y31.0
M3 S0
G0 X204.0 Y31.0
M3 S255
G1 X204.0 Y31.0
M3 S255
G1 X205.5 Y31.0
M3 S0
G0 X216.5 Y31.0
M3 S255
G1 X216.5 Y31.0
M3 S255
G1 X218.0 Y31.0
M3 S0
G0 X248.5 Y31.0
M3 S255
G1 X248.5 Y31.0
M3 S255
G1 X250.0 Y31.0
M3 S0
G0 X294.5 Y31.0
M3 S255
G1 X294.5 Y31.0
M3 S255
G1 X298.0 Y31.0
M3 S0
M5 S0
G0 X298.0 Y31.5
M3 S255
G1 X298.0 Y31.5
M3 S255
G1 X294.5 Y31.5
M3 S0
G0 X250.0 Y31.5
M3 S255
G1 X250.0 Y31.5
M3 S255
G1 X248.5 Y31.5
M3 S0
G0 X218.0 Y31.5
M3 S255
G1 X218.0 Y31.5
M3 S255
G1 X216.5 Y31.5
M3 S0
G0 X205.5 Y31.5
M3 S255
G1 X205.5 Y31.5
M3 S255
G1 X204.0 Y31.5
M3 S0
G0 X85.0 Y31.5
M3 S255
G1 X85.0 Y31.5
M3 S255
G1 X81.5 Y31.5
M3 S0
M5 S0
G0 X79.5 Y32.0
M3 S255
G1 X79.5 Y32.0
M3 S255
G1 X83.0 Y32.0
M3 S0
G0 X204.0 Y32.0
M3 S255
G1 X204.0 Y32.0
M3 S255
G1 X207.5 Y32.0
M3 S0
G0 X216.5 Y32.0
M3 S255
G1 X216.5 Y32.0
M3 S255
G1 X218.0 Y32.0
M3 S0
G0 X248.5 Y32.0
M3 S255
G1 X248.5 Y32.0
M3 S255
G1 X252.0 Y32.0
M3 S0
G0 X296.5 Y32.0
M3 S255
G1 X296.5 Y32.0
M3 S255
G1 X300.0 Y32.0
M3 S0
M5 S0
G0 X300.0 Y32.5
M3 S255
G1 X300.0 Y32.5
M3 S255
G1 X296.5 Y32.5
M3 S0
G0 X252.0 Y32.5
M3 S255
G1 X252.0 Y32.5
M3 S255
G1 X248.5 Y32.5
M3 S0
G0 X218.0 Y32.5
M3 S255
G1 X218.0 Y32.5
M3 S255
G1 X216.5 Y32.5
M3 S0
G0 X207.5 Y32.5
M3 S255
G1 X207.5 Y32.5
M3 S255
G1 X204.0 Y32.5
M3 S0
G0 X83.0 Y32.5
M3 S255
G1 X83.0 Y32.5
M3 S255
G1 X79.5 Y32.5
M3 S0
M5 S0
G0 X79.5 Y33.0
M3 S255
G1 X79.5 Y33.0
M3 S255
G1 X83.0 Y33.0
M3 S0
G0 X204.0 Y33.0
M3 S255
G1 X204.0 Y33.0
M3 S255
G1 X207.5 Y33.0
M3 S0
G0 X216.5 Y33.0
M3 S255
G1 X216.5 Y33.0
M3 S255
G1 X218.0 Y33.0
M3 S0
G0 X248.5 Y33.0
M3 S255
G1 X248.5 Y33.0
M3 S255
G1 X252.0 Y33.0
M3 S0
G0 X296.5 Y33.0
M3 S255
G1 X296.5 Y33.0
M3 S255
G1 X300.0 Y33.0
M3 S0
M5 S0
G0 X300.0 Y33.5
M3 S255
G1 X300.0 Y33.5
M3 S255
G1 X296.5 Y33.5
M3 S0
G0 X252.0 Y33.5
M3 S255
G1 X252.0 Y33.5
M3 S255
G1 X248.5 Y33.5
M3 S0
G0 X218.0 Y33.5
M3 S255
G1 X218.0 Y33.5
M3 S255
G1 X216.5 Y33.5
M3 S0
G0 X207.5 Y33.5
M3 S255
G1 X207.5 Y33.5
M3 S255
G1 X204.0 Y33.5
M3 S0
G0 X83.0 Y33.5
M3 S255
G1 X83.0 Y33.5
M3 S255
G1 X79.5 Y33.5
M3 S0
M5 S0
G0 X77.5 Y34.0
M3 S255
G1 X77.5 Y34.0
M3 S255
G1 X81.5 Y34.0
M3 S0
G0 X205.5 Y34.0
M3 S255
G1 X205.5 Y34.0
M3 S255
G1 X207.5 Y34.0
M3 S0
G0 X216.5 Y34.0
M3 S255
G1 X216.5 Y34.0
M3 S255
G1 X218.0 Y34.0
M3 S0
G0 X250.0 Y34.0
M3 S255
G1 X250.0 Y34.0
M3 S255
G1 X252.0 Y34.0
M3 S0
G0 X298.0 Y34.0
M3 S255
G1 X298.0 Y34.0
M3 S255
G1 X301.5 Y34.0
M3 S0
M5 S0
G0 X301.5 Y34.5
M3 S255
G1 X301.5 Y34.5
M3 S255
G1 X298.0 Y34.5
M3 S0
G0 X252.0 Y34.5
M3 S255
G1 X252.0 Y34.5
M3 S255
G1 X250.0 Y34.5
M3 S0
G0 X218.0 Y34.5
M3 S255
G1 X218.0 Y34.5
M3 S255
G1 X216.5 Y34.5
M3 S0
G0 X207.5 Y34.5
M3 S255
G1 X207.5 Y34.5
M3 S255
G1 X205.5 Y34.5
M3 S0
G0 X81.5 Y34.5
M3 S255
G1 X81.5 Y34.5
M3 S255
G1 X77.5 Y34.5
M3 S0
M5 S0
G0 X77.5 Y35.0
M3 S255
G1 X77.5 Y35.0
M3 S255
G1 X81.5 Y35.0
M3 S0
G0 X205.5 Y35.0
M3 S255
G1 X205.5 Y35.0
M3 S255
G1 X207.5 Y35.0
M3 S0
G0 X216.5 Y35.0
M3 S255
G1 X216.5 Y35.0
M3 S255
G1 X218.0 Y35.0
M3 S0
G0 X250.0 Y35.0
M3 S255
G1 X250.0 Y35.0
M3 S255
G1 X252.0 Y35.0
M3 S0
G0 X298.0 Y35.0
M3 S255
G1 X298.0 Y35.0
M3 S255
G1 X301.5 Y35.0
M3 S0
M5 S0
G0 X303.5 Y35.5
M3 S255
G1 X303.5 Y35.5
M3 S255
G1 X300.0 Y35.5
M3 S0
G0 X253.5 Y35.5
M3 S255
G1 X253.5 Y35.5
M3 S255
G1 X252.0 Y35.5
M3 S0
G0 X218.0 Y35.5
M3 S255
G1 X218.0 Y35.5
M3 S255
G1 X216.5 Y35.5
M3 S0
G0 X207.5 Y35.5
M3 S255
G1 X207.5 Y35.5
M3 S255
G1 X205.5 Y35.5
M3 S0
G0 X79.5 Y35.5
M3 S255
G1 X79.5 Y35.5
M3 S255
G1 X76.0 Y35.5
M3 S0
M5 S0
G0 X76.0 Y36.0
M3 S255
G1 X76.0 Y36.0
M3 S255
G1 X79.5 Y36.0
M3 S0
G0 X205.5 Y36.0
M3 S255
G1 X205.5 Y36.0
M3 S255
G1 X207.5 Y36.0
M3 S0
G0 X216.5 Y36.0
M3 S255
G1 X216.5 Y36.0
M3 S255
G1 X218.0 Y36.0
M3 S0
G0 X252.0 Y36.0
M3 S255
G1 X252.0 Y36.0
M3 S255
G1 X253.5 Y36.0
M3 S0
G0 X300.0 Y36.0
M3 S255
G1 X300.0 Y36.0
M3 S255
G1 X303.5 Y36.0
M3 S0
M5 S0
G0 X303.5 Y36.5
M3 S255
G1 X303.5 Y36.5
M3 S255
G1 X300.0 Y36.5
M3 S0
G0 X253.5 Y36.5
M3 S255
G1 X253.5 Y36.5
M3 S255
G1 X252.0 Y36.5
M3 S0
G0 X218.0 Y36.5
M3 S255
G1 X218.0 Y36.5
M3 S255
G1 X216.5 Y36.5
M3 S0
G0 X207.5 Y36.5
M3 S255
G1 X207.5 Y36.5
M3 S255
G1 X205.5 Y36.5
M3 S0
G0 X79.5 Y36.5
M3 S255
G1 X79.5 Y36.5
M3 S255
G1 X76.0 Y36.5
M3 S0
M5 S0
G0 X76.0 Y37.0
M3 S255
G1 X76.0 Y37.0
M3 S255
G1 X79.5 Y37.0
M3 S0
G0 X205.5 Y37.0
M3 S255
G1 X205.5 Y37.0
M3 S255
G1 X207.5 Y37.0
M3 S0
G0 X216.5 Y37.0
M3 S255
G1 X216.5 Y37.0
M3 S255
G1 X218.0 Y37.0
M3 S0
G0 X252.0 Y37.0
M3 S255
G1 X252.0 Y37.0
M3 S255
G1 X253.5 Y37.0
M3 S0
G0 X300.0 Y37.0
M3 S255
G1 X300.0 Y37.0
M3 S255
G1 X303.5 Y37.0
M3 S0
M5 S0
G0 X305.5 Y37.5
M3 S255
G1 X305.5 Y37.5
M3 S255
G1 X301.5 Y37.5
M3 S0
G0 X255.5 Y37.5
M3 S255
G1 X255.5 Y37.5
M3 S255
G1 X252.0 Y37.5
M3 S0
G0 X218.0 Y37.5
M3 S255
G1 X218.0 Y37.5
M3 S255
G1 X216.5 Y37.5
M3 S0
G0 X209.5 Y37.5
M3 S255
G1 X209.5 Y37.5
M3 S255
G1 X207.5 Y37.5
M3 S0
G0 X77.5 Y37.5
M3 S255
G1 X77.5 Y37.5
M3 S255
G1 X74.0 Y37.5
M3 S0
M5 S0
G0 X74.0 Y38.0
M3 S255
G1 X74.0 Y38.0
M3 S255
G1 X77.5 Y38.0
M3 S0
G0 X207.5 Y38.0
M3 S255
G1 X207.5 Y38.0
M3 S255
G1 X209.5 Y38.0
M3 S0
G0 X216.5 Y38.0
M3 S255
G1 X216.5 Y38.0
M3 S255
G1 X218.0 Y38.0
M3 S0
G0 X252.0 Y38.0
M3 S255
G1 X252.0 Y38.0
M3 S255
G1 X255.5 Y38.0
M3 S0
G0 X301.5 Y38.0
M3 S255
G1 X301.5 Y38.0
M3 S255
G1 X305.5 Y38.0
M3 S0
M5 S0
G0 X305.5 Y38.5
M3 S255
G1 X305.5 Y38.5
M3 S255
G1 X301.5 Y38.5
M3 S0
G0 X255.5 Y38.5
M3 S255
G1 X255.5 Y38.5
M3 S255
G1 X252.0 Y38.5
M3 S0
G0 X218.0 Y38.5
M3 S255
G1 X218.0 Y38.5
M3 S255
G1 X216.5 Y38.5
M3 S0
G0 X209.5 Y38.5
M3 S255
G1 X209.5 Y38.5
M3 S255
G1 X207.5 Y38.5
M3 S0
G0 X77.5 Y38.5
M3 S255
G1 X77.5 Y38.5
M3 S255
G1 X74.0 Y38.5
M3 S0
M5 S0
G0 X74.0 Y39.0
M3 S255
G1 X74.0 Y39.0
M3 S255
G1 X76.0 Y39.0
M3 S0
G0 X207.5 Y39.0
M3 S255
G1 X207.5 Y39.0
M3 S255
G1 X209.5 Y39.0
M3 S0
G0 X214.5 Y39.0
M3 S255
G1 X214.5 Y39.0
M3 S255
G1 X218.0 Y39.0
M3 S0
G0 X253.5 Y39.0
M3 S255
G1 X253.5 Y39.0
M3 S255
G1 X255.5 Y39.0
M3 S0
G0 X301.5 Y39.0
M3 S255
G1 X301.5 Y39.0
M3 S255
G1 X305.5 Y39.0
M3 S0
M5 S0
G0 X305.5 Y39.5
M3 S255
G1 X305.5 Y39.5
M3 S255
G1 X301.5 Y39.5
M3 S0
G0 X255.5 Y39.5
M3 S255
G1 X255.5 Y39.5
M3 S255
G1 X253.5 Y39.5
M3 S0
G0 X218.0 Y39.5
M3 S255
G1 X218.0 Y39.5
M3 S255
G1 X214.5 Y39.5
M3 S0
G0 X209.5 Y39.5
M3 S255
G1 X209.5 Y39.5
M3 S255
G1 X207.5 Y39.5
M3 S0
G0 X76.0 Y39.5
M3 S255
G1 X76.0 Y39.5
M3 S255
G1 X74.0 Y39.5
M3 S0
M5 S0
G0 X74.0 Y40.0
M3 S255
G1 X74.0 Y40.0
M3 S255
G1 X76.0 Y40.0
M3 S0
G0 X207.5 Y40.0
M3 S255
G1 X207.5 Y40.0
M3 S255
G1 X209.5 Y40.0
M3 S0
G0 X214.5 Y40.0
M3 S255
G1 X214.5 Y40.0
M3 S255
G1 X218.0 Y40.0
M3 S0
G0 X253.5 Y40.0
M3 S255
G1 X253.5 Y40.0
M3 S255
G1 X255.5 Y40.0
M3 S0
G0 X301.5 Y40.0
M3 S255
G1 X301.5 Y40.0
M3 S255
G1 X305.5 Y40.0
M3 S0
M5 S0
G0 X305.5 Y40.5
M3 S255
G1 X305.5 Y40.5
M3 S255
G1 X301.5 Y40.5
M3 S0
G0 X255.5 Y40.5
M3 S255
G1 X255.5 Y40.5
M3 S255
G1 X253.5 Y40.5
M3 S0
G0 X218.0 Y40.5
M3 S255
G1 X218.0 Y40.5
M3 S255
G1 X214.5 Y40.5
M3 S0
G0 X209.5 Y40.5
M3 S255
G1 X209.5 Y40.5
M3 S255
G1 X207.5 Y40.5
M3 S0
G0 X76.0 Y40.5
M3 S255
G1 X76.0 Y40.5
M3 S255
G1 X74.0 Y40.5
M3 S0
M5 S0
G0 X72.5 Y41.0
M3 S255
G1 X72.5 Y41.0
M3 S255
G1 X76.0 Y41.0
M3 S0
G0 X207.5 Y41.0
M3 S255
G1 X207.5 Y41.0
M3 S255
G1 X209.5 Y41.0
M3 S0
G0 X213.0 Y41.0
M3 S255
G1 X213.0 Y41.0
M3 S255
G1 X214.5 Y41.0
M3 S0
G0 X218.0 Y41.0
M3 S255
G1 X218.0 Y41.0
M3 S255
G1 X220.0 Y41.0
M3 S0
G0 X255.5 Y41.0
M3 S255
G1 X255.5 Y41.0
M3 S255
G1 X257.5 Y41.0
M3 S0
G0 X303.5 Y41.0
M3 S255
G1 X303.5 Y41.0
M3 S255
G1 X307.0 Y41.0
M3 S0
M5 S0
G0 X307.0 Y41.5
M3 S255
G1 X307.0 Y41.5
M3 S255
G1 X303.5 Y41.5
M3 S0
G0 X257.5 Y41.5
M3 S255
G1 X257.5 Y41.5
M3 S255
G1 X255.5 Y41.5
M3 S0
G0 X220.0 Y41.5
M3 S255
G1 X220.0 Y41.5
M3 S255
G1 X218.0 Y41.5
M3 S0
G0 X214.5 Y41.5
M3 S255
G1 X214.5 Y41.5
M3 S255
G1 X213.0 Y41.5
M3 S0
G0 X209.5 Y41.5
M3 S255
G1 X209.5 Y41.5
M3 S255
G1 X207.5 Y41.5
M3 S0
G0 X76.0 Y41.5
M3 S255
G1 X76.0 Y41.5
M3 S255
G1 X72.5 Y41.5
M3 S0
M5 S0
G0 X72.5 Y42.0
M3 S255
G1 X72.5 Y42.0
M3 S255
G1 X76.0 Y42.0
M3 S0
G0 X207.5 Y42.0
M3 S255
G1 X207.5 Y42.0
M3 S255
G1 X209.5 Y42.0
M3 S0
G0 X213.0 Y42.0
M3 S255
G1 X213.0 Y42.0
M3 S255
G1 X214.5 Y42.0
M3 S0
G0 X218.0 Y42.0
M3 S255
G1 X218.0 Y42.0
M3 S255
G1 X220.0 Y42.0
M3 S0
G0 X255.5 Y42.0
M3 S255
G1 X255.5 Y42.0
M3 S255
G1 X257.5 Y42.0
M3 S0
G0 X303.5 Y42.0
M3 S255
G1 X303.5 Y42.0
M3 S255
G1 X307.0 Y42.0
M3 S0
M5 S0
G0 X309.0 Y42.5
M3 S255
G1 X309.0 Y42.5
M3 S255
G1 X305.5 Y42.5
M3 S0
G0 X259.0 Y42.5
M3 S255
G1 X259.0 Y42.5
M3 S255
G1 X255.5 Y42.5
M3 S0
G0 X220.0 Y42.5
M3 S255
G1 X220.0 Y42.5
M3 S255
G1 X218.0 Y42.5
M3 S0
G0 X214.5 Y42.5
M3 S255
G1 X214.5 Y42.5
M3 S255
G1 X213.0 Y42.5
M3 S0
G0 X209.5 Y42.5
M3 S255
G1 X209.5 Y42.5
M3 S255
G1 X207.5 Y42.5
M3 S0
G0 X74.0 Y42.5
M3 S255
G1 X74.0 Y42.5
M3 S255
G1 X72.5 Y42.5
M3 S0
M5 S0
G0 X72.5 Y43.0
M3 S255
G1 X72.5 Y43.0
M3 S255
G1 X74.0 Y43.0
M3 S0
G0 X207.5 Y43.0
M3 S255
G1 X207.5 Y43.0
M3 S255
G1 X209.5 Y43.0
M3 S0
G0 X213.0 Y43.0
M3 S255
G1 X213.0 Y43.0
M3 S255
G1 X214.5 Y43.0
M3 S0
G0 X218.0 Y43.0
M3 S255
G1 X218.0 Y43.0
M3 S255
G1 X220.0 Y43.0
M3 S0
G0 X255.5 Y43.0
M3 S255
G1 X255.5 Y43.0
M3 S255
G1 X259.0 Y43.0
M3 S0
G0 X305.5 Y43.0
M3 S255
G1 X305.5 Y43.0
M3 S255
G1 X309.0 Y43.0
M3 S0
M5 S0
G0 X309.0 Y43.5
M3 S255
G1 X309.0 Y43.5
M3 S255
G1 X305.5 Y43.5
M3 S0
G0 X259.0 Y43.5
M3 S255
G1 X259.0 Y43.5
M3 S255
G1 X255.5 Y43.5
M3 S0
G0 X220.0 Y43.5
M3 S255
G1 X220.0 Y43.5
M3 S255
G1 X218.0 Y43.5
M3 S0
G0 X214.5 Y43.5
M3 S255
G1 X214.5 Y43.5
M3 S255
G1 X213.0 Y43.5
M3 S0
G0 X209.5 Y43.5
M3 S255
G1 X209.5 Y43.5
M3 S255
G1 X207.5 Y43.5
M3 S0
G0 X74.0 Y43.5
M3 S255
G1 X74.0 Y43.5
M3 S255
G1 X72.5 Y43.5
M3 S0
M5 S0
G0 X72.5 Y44.0
M3 S255
G1 X72.5 Y44.0
M3 S255
G1 X74.0 Y44.0
M3 S0
G0 X207.5 Y44.0
M3 S255
G1 X207.5 Y44.0
M3 S255
G1 X209.5 Y44.0
M3 S0
G0 X213.0 Y44.0
M3 S255
G1 X213.0 Y44.0
M3 S255
G1 X214.5 Y44.0
M3 S0
G0 X218.0 Y44.0
M3 S255
G1 X218.0 Y44.0
M3 S255
G1 X220.0 Y44.0
M3 S0
G0 X255.5 Y44.0
M3 S255
G1 X255.5 Y44.0
M3 S255
G1 X259.0 Y44.0
M3 S0
G0 X305.5 Y44.0
M3 S255
G1 X305.5 Y44.0
M3 S255
G1 X309.0 Y44.0
M3 S0
M5 S0
G0 X309.0 Y44.5
M3 S255
G1 X309.0 Y44.5
M3 S255
G1 X305.5 Y44.5
M3 S0
G0 X259.0 Y44.5
M3 S255
G1 X259.0 Y44.5
M3 S255
G1 X257.5 Y44.5
M3 S0
G0 X220.0 Y44.5
M3 S255
G1 X220.0 Y44.5
M3 S255
G1 X218.0 Y44.5
M3 S0
G0 X209.5 Y44.5
M3 S255
G1 X209.5 Y44.5
M3 S255
G1 X207.5 Y44.5
M3 S0
G0 X74.0 Y44.5
M3 S255
G1 X74.0 Y44.5
M3 S255
G1 X70.5 Y44.5
M3 S0
M5 S0
G0 X70.5 Y45.0
M3 S255
G1 X70.5 Y45.0
M3 S255
G1 X74.0 Y45.0
M3 S0
G0 X207.5 Y45.0
M3 S255
G1 X207.5 Y45.0
M3 S255
G1 X209.5 Y45.0
M3 S0
G0 X218.0 Y45.0
M3 S255
G1 X218.0 Y45.0
M3 S255
G1 X220.0 Y45.0
M3 S0
G0 X257.5 Y45.0
M3 S255
G1 X257.5 Y45.0
M3 S255
G1 X259.0 Y45.0
M3 S0
G0 X305.5 Y45.0
M3 S255
G1 X305.5 Y45.0
M3 S255
G1 X309.0 Y45.0
M3 S0
M5 S0
G0 X309.0 Y45.5
M3 S255
G1 X309.0 Y45.5
M3 S255
G1 X305.5 Y45.5
M3 S0
G0 X259.0 Y45.5
M3 S255
G1 X259.0 Y45.5
M3 S255
G1 X257.5 Y45.5
M3 S0
G0 X220.0 Y45.5
M3 S255
G1 X220.0 Y45.5
M3 S255
G1 X218.0 Y45.5
M3 S0
G0 X209.5 Y45.5
M3 S255
G1 X209.5 Y45.5
M3 S255
G1 X207.5 Y45.5
M3 S0
G0 X74.0 Y45.5
M3 S255
G1 X74.0 Y45.5
M3 S255
G1 X70.5 Y45.5
M3 S0
M5 S0
G0 X70.5 Y46.0
M3 S255
G1 X70.5 Y46.0
M3 S255
G1 X72.5 Y46.0
M3 S0
G0 X205.5 Y46.0
M3 S255
G1 X205.5 Y46.0
M3 S255
G1 X207.5 Y46.0
M3 S0
G0 X211.0 Y46.0
M3 S255
G1 X211.0 Y46.0
M3 S255
G1 X213.0 Y46.0
M3 S0
G0 X220.0 Y46.0
M3 S255
G1 X220.0 Y46.0
M3 S255
G1 X221.5 Y46.0
M3 S0
G0 X259.0 Y46.0
M3 S255
G1 X259.0 Y46.0
M3 S255
G1 X261.0 Y46.0
M3 S0
G0 X307.0 Y46.0
M3 S255
G1 X307.0 Y46.0
M3 S255
G1 X310.5 Y46.0
M3 S0
M5 S0
G0 X310.5 Y46.5
M3 S255
G1 X310.5 Y46.5
M3 S255
G1 X307.0 Y46.5
M3 S0
G0 X261.0 Y46.5
M3 S255
G1 X261.0 Y46.5
M3 S255
G1 X259.0 Y46.5
M3 S0
G0 X221.5 Y46.5
M3 S255
G1 X221.5 Y46.5
M3 S255
G1 X220.0 Y46.5
M3 S0
G0 X213.0 Y46.5
M3 S255
G1 X213.0 Y46.5
M3 S255
G1 X211.0 Y46.5
M3 S0
G0 X207.5 Y46.5
M3 S255
G1 X207.5 Y46.5
M3 S255
G1 X205.5 Y46.5
M3 S0
G0 X72.5 Y46.5
M3 S255
G1 X72.5 Y46.5
M3 S255
G1 X70.5 Y46.5
M3 S0
M5 S0
G0 X70.5 Y47.0
M3 S255
G1 X70.5 Y47.0
M3 S255
G1 X72.5 Y47.0
M3 S0
G0 X205.5 Y47.0
M3 S255
G1 X205.5 Y47.0
M3 S255
G1 X207.5 Y47.0
M3 S0
G0 X211.0 Y47.0
M3 S255
G1 X211.0 Y47.0
M3 S255
G1 X213.0 Y47.0
M3 S0
G0 X220.0 Y47.0
M3 S255
G1 X220.0 Y47.0
M3 S255
G1 X221.5 Y47.0
M3 S0
G0 X259.0 Y47.0
M3 S255
G1 X259.0 Y47.0
M3 S255
G1 X261.0 Y47.0
M3 S0
G0 X307.0 Y47.0
M3 S255
G1 X307.0 Y47.0
M3 S255
G1 X310.5 Y47.0
M3 S0
M5 S0
G0 X310.5 Y47.5
M3 S255
G1 X310.5 Y47.5
M3 S255
G1 X307.0 Y47.5
M3 S0
G0 X261.0 Y47.5
M3 S255
G1 X261.0 Y47.5
M3 S255
G1 X259.0 Y47.5
M3 S0
G0 X221.5 Y47.5
M3 S255
G1 X221.5 Y47.5
M3 S255
G1 X220.0 Y47.5
M3 S0
G0 X213.0 Y47.5
M3 S255
G1 X213.0 Y47.5
M3 S255
G1 X211.0 Y47.5
M3 S0
G0 X207.5 Y47.5
M3 S255
G1 X207.5 Y47.5
M3 S255
G1 X205.5 Y47.5
M3 S0
G0 X72.5 Y47.5
M3 S255
G1 X72.5 Y47.5
M3 S255
G1 X70.5 Y47.5
M3 S0
M5 S0
G0 X70.5 Y48.0
M3 S255
G1 X70.5 Y48.0
M3 S255
G1 X72.5 Y48.0
M3 S0
G0 X205.5 Y48.0
M3 S255
G1 X205.5 Y48.0
M3 S255
G1 X207.5 Y48.0
M3 S0
G0 X211.0 Y48.0
M3 S255
G1 X211.0 Y48.0
M3 S255
G1 X213.0 Y48.0
M3 S0
G0 X220.0 Y48.0
M3 S255
G1 X220.0 Y48.0
M3 S255
G1 X221.5 Y48.0
M3 S0
G0 X259.0 Y48.0
M3 S255
G1 X259.0 Y48.0
M3 S255
G1 X262.5 Y48.0
M3 S0
G0 X309.0 Y48.0
M3 S255
G1 X309.0 Y48.0
M3 S255
G1 X312.5 Y48.0
M3 S0
M5 S0
G0 X312.5 Y48.5
M3 S255
G1 X312.5 Y48.5
M3 S255
G1 X309.0 Y48.5
M3 S0
G0 X262.5 Y48.5
M3 S255
G1 X262.5 Y48.5
M3 S255
G1 X259.0 Y48.5
M3 S0
G0 X221.5 Y48.5
M3 S255
G1 X221.5 Y48.5
M3 S255
G1 X220.0 Y48.5
M3 S0
G0 X213.0 Y48.5
M3 S255
G1 X213.0 Y48.5
M3 S255
G1 X211.0 Y48.5
M3 S0
G0 X207.5 Y48.5
M3 S255
G1 X207.5 Y48.5
M3 S255
G1 X205.5 Y48.5
M3 S0
G0 X72.5 Y48.5
M3 S255
G1 X72.5 Y48.5
M3 S255
G1 X70.5 Y48.5
M3 S0
M5 S0
G0 X70.5 Y49.0
M3 S255
G1 X70.5 Y49.0
M3 S255
G1 X72.5 Y49.0
M3 S0
G0 X205.5 Y49.0
M3 S255
G1 X205.5 Y49.0
M3 S255
G1 X207.5 Y49.0
M3 S0
G0 X211.0 Y49.0
M3 S255
G1 X211.0 Y49.0
M3 S255
G1 X213.0 Y49.0
M3 S0
G0 X220.0 Y49.0
M3 S255
G1 X220.0 Y49.0
M3 S255
G1 X221.5 Y49.0
M3 S0
G0 X259.0 Y49.0
M3 S255
G1 X259.0 Y49.0
M3 S255
G1 X262.5 Y49.0
M3 S0
G0 X309.0 Y49.0
M3 S255
G1 X309.0 Y49.0
M3 S255
G1 X312.5 Y49.0
M3 S0
M5 S0
G0 X312.5 Y49.5
M3 S255
G1 X312.5 Y49.5
M3 S255
G1 X309.0 Y49.5
M3 S0
G0 X262.5 Y49.5
M3 S255
G1 X262.5 Y49.5
M3 S255
G1 X259.0 Y49.5
M3 S0
G0 X221.5 Y49.5
M3 S255
G1 X221.5 Y49.5
M3 S255
G1 X220.0 Y49.5
M3 S0
G0 X213.0 Y49.5
M3 S255
G1 X213.0 Y49.5
M3 S255
G1 X211.0 Y49.5
M3 S0
G0 X207.5 Y49.5
M3 S255
G1 X207.5 Y49.5
M3 S255
G1 X205.5 Y49.5
M3 S0
G0 X72.5 Y49.5
M3 S255
G1 X72.5 Y49.5
M3 S255
G1 X70.5 Y49.5
M3 S0
M5 S0
G0 X69.0 Y50.0
M3 S255
G1 X69.0 Y50.0
M3 S255
G1 X72.5 Y50.0
M3 S0
G0 X204.0 Y50.0
M3 S255
G1 X204.0 Y50.0
M3 S255
G1 X205.5 Y50.0
M3 S0
G0 X211.0 Y50.0
M3 S255
G1 X211.0 Y50.0
M3 S255
G1 X213.0 Y50.0
M3 S0
G0 X221.5 Y50.0
M3 S255
G1 X221.5 Y50.0
M3 S255
G1 X223.5 Y50.0
M3 S0
G0 X261.0 Y50.0
M3 S255
G1 X261.0 Y50.0
M3 S255
G1 X262.5 Y50.0
M3 S0
G0 X309.0 Y50.0
M3 S255
G1 X309.0 Y50.0
M3 S255
G1 X312.5 Y50.0
M3 S0
M5 S0
G0 X312.5 Y50.5
M3 S255
G1 X312.5 Y50.5
M3 S255
G1 X309.0 Y50.5
M3 S0
G0 X262.5 Y50.5
M3 S255
G1 X262.5 Y50.5
M3 S255
G1 X261.0 Y50.5
M3 S0
G0 X223.5 Y50.5
M3 S255
G1 X223.5 Y50.5
M3 S255
G1 X221.5 Y50.5
M3 S0
G0 X213.0 Y50.5
M3 S255
G1 X213.0 Y50.5
M3 S255
G1 X211.0 Y50.5
M3 S0
G0 X205.5 Y50.5
M3 S255
G1 X205.5 Y50.5
M3 S255
G1 X204.0 Y50.5
M3 S0
G0 X72.5 Y50.5
M3 S255
G1 X72.5 Y50.5
M3 S255
G1 X69.0 Y50.5
M3 S0
M5 S0
G0 X69.0 Y51.0
M3 S255
G1 X69.0 Y51.0
M3 S255
G1 X72.5 Y51.0
M3 S0
G0 X204.0 Y51.0
M3 S255
G1 X204.0 Y51.0
M3 S255
G1 X205.5 Y51.0
M3 S0
G0 X211.0 Y51.0
M3 S255
G1 X211.0 Y51.0
M3 S255
G1 X213.0 Y51.0
M3 S0
G0 X221.5 Y51.0
M3 S255
G1 X221.5 Y51.0
M3 S255
G1 X223.5 Y51.0
M3 S0
G0 X261.0 Y51.0
M3 S255
G1 X261.0 Y51.0
M3 S255
G1 X262.5 Y51.0
M3 S0
G0 X309.0 Y51.0
M3 S255
G1 X309.0 Y51.0
M3 S255
G1 X312.5 Y51.0
M3 S0
M5 S0
G0 X314.0 Y51.5
M3 S255
G1 X314.0 Y51.5
M3 S255
G1 X310.5 Y51.5
M3 S0
G0 X264.5 Y51.5
M3 S255
G1 X264.5 Y51.5
M3 S255
G1 X262.5 Y51.5
M3 S0
G0 X223.5 Y51.5
M3 S255
G1 X223.5 Y51.5
M3 S255
G1 X221.5 Y51.5
M3 S0
G0 X213.0 Y51.5
M3 S255
G1 X213.0 Y51.5
M3 S255
G1 X211.0 Y51.5
M3 S0
G0 X205.5 Y51.5
M3 S255
G1 X205.5 Y51.5
M3 S255
G1 X202.0 Y51.5
M3 S0
G0 X72.5 Y51.5
M3 S255
G1 X72.5 Y51.5
M3 S255
G1 X69.0 Y51.5
M3 S0
M5 S0
G0 X69.0 Y52.0
M3 S255
G1 X69.0 Y52.0
M3 S255
G1 X72.5 Y52.0
M3 S0
G0 X202.0 Y52.0
M3 S255
G1 X202.0 Y52.0
M3 S255
G1 X205.5 Y52.0
M3 S0
G0 X211.0 Y52.0
M3 S255
G1 X211.0 Y52.0
M3 S255
G1 X213.0 Y52.0
M3 S0
G0 X221.5 Y52.0
M3 S255
G1 X221.5 Y52.0
M3 S255
G1 X223.5 Y52.0
M3 S0
G0 X262.5 Y52.0
M3 S255
G1 X262.5 Y52.0
M3 S255
G1 X264.5 Y52.0
M3 S0
G0 X310.5 Y52.0
M3 S255
G1 X310.5 Y52.0
M3 S255
G1 X314.0 Y52.0
M3 S0
M5 S0
G0 X314.0 Y52.5
M3 S255
G1 X314.0 Y52.5
M3 S255
G1 X310.5 Y52.5
M3 S0
G0 X264.5 Y52.5
M3 S255
G1 X264.5 Y52.5
M3 S255
G1 X262.5 Y52.5
M3 S0
G0 X223.5 Y52.5
M3 S255
G1 X223.5 Y52.5
M3 S255
G1 X221.5 Y52.5
M3 S0
G0 X213.0 Y52.5
M3 S255
G1 X213.0 Y52.5
M3 S255
G1 X211.0 Y52.5
M3 S0
G0 X205.5 Y52.5
M3 S255
G1 X205.5 Y52.5
M3 S255
G1 X202.0 Y52.5
M3 S0
G0 X72.5 Y52.5
M3 S255
G1 X72.5 Y52.5
M3 S255
G1 X69.0 Y52.5
M3 S0
M5 S0
G0 X69.0 Y53.0
M3 S255
G1 X69.0 Y53.0
M3 S255
G1 X72.5 Y53.0
M3 S0
G0 X202.0 Y53.0
M3 S255
G1 X202.0 Y53.0
M3 S255
G1 X205.5 Y53.0
M3 S0
G0 X211.0 Y53.0
M3 S255
G1 X211.0 Y53.0
M3 S255
G1 X213.0 Y53.0
M3 S0
G0 X221.5 Y53.0
M3 S255
G1 X221.5 Y53.0
M3 S255
G1 X223.5 Y53.0
M3 S0
G0 X262.5 Y53.0
M3 S255
G1 X262.5 Y53.0
M3 S255
G1 X264.5 Y53.0
M3 S0
G0 X310.5 Y53.0
M3 S255
G1 X310.5 Y53.0
M3 S255
G1 X314.0 Y53.0
M3 S0
M5 S0
G0 X314.0 Y53.5
M3 S255
G1 X314.0 Y53.5
M3 S255
G1 X310.5 Y53.5
M3 S0
G0 X266.0 Y53.5
M3 S255
G1 X266.0 Y53.5
M3 S255
G1 X262.5 Y53.5
M3 S0
G0 X225.5 Y53.5
M3 S255
G1 X225.5 Y53.5
M3 S255
G1 X223.5 Y53.5
M3 S0
G0 X213.0 Y53.5
M3 S255
G1 X213.0 Y53.5
M3 S255
G1 X211.0 Y53.5
M3 S0
G0 X204.0 Y53.5
M3 S255
G1 X204.0 Y53.5
M3 S255
G1 X202.0 Y53.5
M3 S0
G0 X184.5 Y53.5
M3 S255
G1 X184.5 Y53.5
M3 S255
G1 X166.5 Y53.5
M3 S0
G0 X159.5 Y53.5
M3 S255
G1 X159.5 Y53.5
M3 S255
G1 X157.5 Y53.5
M3 S0
G0 X72.5 Y53.5
M3 S255
G1 X72.5 Y53.5
M3 S255
G1 X69.0 Y53.5
M3 S0
M5 S0
G0 X69.0 Y54.0
M3 S255
G1 X69.0 Y54.0
M3 S255
G1 X72.5 Y54.0
M3 S0
G0 X157.5 Y54.0
M3 S255
G1 X157.5 Y54.0
M3 S255
G1 X159.5 Y54.0
M3 S0
G0 X166.5 Y54.0
M3 S255
G1 X166.5 Y54.0
M3 S255
G1 X184.5 Y54.0
M3 S0
G0 X202.0 Y54.0
M3 S255
G1 X202.0 Y54.0
M3 S255
G1 X204.0 Y54.0
M3 S0
G0 X211.0 Y54.0
M3 S255
G1 X211.0 Y54.0
M3 S255
G1 X213.0 Y54.0
M3 S0
G0 X223.5 Y54.0
M3 S255
G1 X223.5 Y54.0
M3 S255
G1 X225.5 Y54.0
M3 S0
G0 X262.5 Y54.0
M3 S255
G1 X262.5 Y54.0
M3 S255
G1 X266.0 Y54.0
M3 S0
G0 X310.5 Y54.0
M3 S255
G1 X310.5 Y54.0
M3 S255
G1 X314.0 Y54.0
M3 S0
M5 S0
G0 X314.0 Y54.5
M3 S255
G1 X314.0 Y54.5
M3 S255
G1 X310.5 Y54.5
M3 S0
G0 X266.0 Y54.5
M3 S255
G1 X266.0 Y54.5
M3 S255
G1 X262.5 Y54.5
M3 S0
G0 X225.5 Y54.5
M3 S255
G1 X225.5 Y54.5
M3 S255
G1 X223.5 Y54.5
M3 S0
G0 X213.0 Y54.5
M3 S255
G1 X213.0 Y54.5
M3 S255
G1 X211.0 Y54.5
M3 S0
G0 X204.0 Y54.5
M3 S255
G1 X204.0 Y54.5
M3 S255
G1 X202.0 Y54.5
M3 S0
G0 X184.5 Y54.5
M3 S255
G1 X184.5 Y54.5
M3 S255
G1 X166.5 Y54.5
M3 S0
G0 X159.5 Y54.5
M3 S255
G1 X159.5 Y54.5
M3 S255
G1 X157.5 Y54.5
M3 S0
G0 X72.5 Y54.5
M3 S255
G1 X72.5 Y54.5
M3 S255
G1 X69.0 Y54.5
M3 S0
M5 S0
G0 X69.0 Y55.0
M3 S255
G1 X69.0 Y55.0
M3 S255
G1 X72.5 Y55.0
M3 S0
G0 X156.0 Y55.0
M3 S255
G1 X156.0 Y55.0
M3 S255
G1 X157.5 Y55.0
M3 S0
G0 X161.5 Y55.0
M3 S255
G1 X161.5 Y55.0
M3 S255
G1 X166.5 Y55.0
M3 S0
G0 X186.0 Y55.0
M3 S255
G1 X186.0 Y55.0
M3 S255
G1 X189.5 Y55.0
M3 S0
G0 X200.5 Y55.0
M3 S255
G1 X200.5 Y55.0
M3 S255
G1 X204.0 Y55.0
M3 S0
G0 X209.5 Y55.0
M3 S255
G1 X209.5 Y55.0
M3 S255
G1 X214.5 Y55.0
M3 S0
G0 X223.5 Y55.0
M3 S255
G1 X223.5 Y55.0
M3 S255
G1 X227.0 Y55.0
M3 S0
G0 X264.5 Y55.0
M3 S255
G1 X264.5 Y55.0
M3 S255
G1 X266.0 Y55.0
M3 S0
G0 X312.5 Y55.0
M3 S255
G1 X312.5 Y55.0
M3 S255
G1 X316.0 Y55.0
M3 S0
M5 S0
G0 X316.0 Y55.5
M3 S255
G1 X316.0 Y55.5
M3 S255
G1 X312.5 Y55.5
M3 S0
G0 X266.0 Y55.5
M3 S255
G1 X266.0 Y55.5
M3 S255
G1 X264.5 Y55.5
M3 S0
G0 X227.0 Y55.5
M3 S255
G1 X227.0 Y55.5
M3 S255
G1 X223.5 Y55.5
M3 S0
G0 X214.5 Y55.5
M3 S255
G1 X214.5 Y55.5
M3 S255
G1 X209.5 Y55.5
M3 S0
G0 X204.0 Y55.5
M3 S255
G1 X204.0 Y55.5
M3 S255
G1 X200.5 Y55.5
M3 S0
G0 X189.5 Y55.5
M3 S255
G1 X189.5 Y55.5
M3 S255
G1 X186.0 Y55.5
M3 S0
G0 X166.5 Y55.5
M3 S255
G1 X166.5 Y55.5
M3 S255
G1 X161.5 Y55.5
M3 S0
G0 X157.5 Y55.5
M3 S255
G1 X157.5 Y55.5
M3 S255
G1 X156.0 Y55.5
M3 S0
G0 X72.5 Y55.5
M3 S255
G1 X72.5 Y55.5
M3 S255
G1 X69.0 Y55.5
M3 S0
M5 S0
G0 X69.0 Y56.0
M3 S255
G1 X69.0 Y56.0
M3 S255
G1 X72.5 Y56.0
M3 S0
G0 X156.0 Y56.0
M3 S255
G1 X156.0 Y56.0
M3 S255
G1 X157.5 Y56.0
M3 S0
G0 X161.5 Y56.0
M3 S255
G1 X161.5 Y56.0
M3 S255
G1 X166.5 Y56.0
M3 S0
G0 X186.0 Y56.0
M3 S255
G1 X186.0 Y56.0
M3 S255
G1 X189.5 Y56.0
M3 S0
G0 X200.5 Y56.0
M3 S255
G1 X200.5 Y56.0
M3 S255
G1 X204.0 Y56.0
M3 S0
G0 X209.5 Y56.0
M3 S255
G1 X209.5 Y56.0
M3 S255
G1 X214.5 Y56.0
M3 S0
G0 X223.5 Y56.0
M3 S255
G1 X223.5 Y56.0
M3 S255
G1 X227.0 Y56.0
M3 S0
G0 X264.5 Y56.0
M3 S255
G1 X264.5 Y56.0
M3 S255
G1 X266.0 Y56.0
M3 S0
G0 X312.5 Y56.0
M3 S255
G1 X312.5 Y56.0
M3 S255
G1 X316.0 Y56.0
M3 S0
M5 S0
G0 X316.0 Y56.5
M3 S255
G1 X316.0 Y56.5
M3 S255
G1 X312.5 Y56.5
M3 S0
G0 X266.0 Y56.5
M3 S255
G1 X266.0 Y56.5
M3 S255
G1 X264.5 Y56.5
M3 S0
G0 X227.0 Y56.5
M3 S255
G1 X227.0 Y56.5
M3 S255
G1 X223.5 Y56.5
M3 S0
G0 X214.5 Y56.5
M3 S255
G1 X214.5 Y56.5
M3 S255
G1 X209.5 Y56.5
M3 S0
G0 X204.0 Y56.5
M3 S255
G1 X204.0 Y56.5
M3 S255
G1 X200.5 Y56.5
M3 S0
G0 X189.5 Y56.5
M3 S255
G1 X189.5 Y56.5
M3 S255
G1 X186.0 Y56.5
M3 S0
G0 X166.5 Y56.5
M3 S255
G1 X166.5 Y56.5
M3 S255
G1 X161.5 Y56.5
M3 S0
G0 X157.5 Y56.5
M3 S255
G1 X157.5 Y56.5
M3 S255
G1 X156.0 Y56.5
M3 S0
G0 X72.5 Y56.5
M3 S255
G1 X72.5 Y56.5
M3 S255
G1 X69.0 Y56.5
M3 S0
M5 S0
G0 X69.0 Y57.0
M3 S255
G1 X69.0 Y57.0
M3 S255
G1 X72.5 Y57.0
M3 S0
G0 X154.0 Y57.0
M3 S255
G1 X154.0 Y57.0
M3 S255
G1 X161.5 Y57.0
M3 S0
G0 X189.5 Y57.0
M3 S255
G1 X189.5 Y57.0
M3 S255
G1 X191.5 Y57.0
M3 S0
G0 X198.5 Y57.0
M3 S255
G1 X198.5 Y57.0
M3 S255
G1 X202.0 Y57.0
M3 S0
G0 X207.5 Y57.0
M3 S255
G1 X207.5 Y57.0
M3 S255
G1 X214.5 Y57.0
M3 S0
G0 X225.5 Y57.0
M3 S255
G1 X225.5 Y57.0
M3 S255
G1 X227.0 Y57.0
M3 S0
G0 X230.5 Y57.0
M3 S255
G1 X230.5 Y57.0
M3 S255
G1 X232.5 Y57.0
M3 S0
G0 X266.0 Y57.0
M3 S255
G1 X266.0 Y57.0
M3 S255
G1 X268.0 Y57.0
M3 S0
G0 X312.5 Y57.0
M3 S255
G1 X312.5 Y57.0
M3 S255
G1 X316.0 Y57.0
M3 S0
M5 S0
G0 X316.0 Y57.5
M3 S255
G1 X316.0 Y57.5
M3 S255
G1 X312.5 Y57.5
M3 S0
G0 X268.0 Y57.5
M3 S255
G1 X268.0 Y57.5
M3 S255
G1 X266.0 Y57.5
M3 S0
G0 X232.5 Y57.5
M3 S255
G1 X232.5 Y57.5
M3 S255
G1 X230.5 Y57.5
M3 S0
G0 X227.0 Y57.5
M3 S255
G1 X227.0 Y57.5
M3 S255
G1 X225.5 Y57.5
M3 S0
G0 X214.5 Y57.5
M3 S255
G1 X214.5 Y57.5
M3 S255
G1 X207.5 Y57.5
M3 S0
G0 X202.0 Y57.5
M3 S255
G1 X202.0 Y57.5
M3 S255
G1 X198.5 Y57.5
M3 S0
G0 X191.5 Y57.5
M3 S255
G1 X191.5 Y57.5
M3 S255
G1 X189.5 Y57.5
M3 S0
G0 X161.5 Y57.5
M3 S255
G1 X161.5 Y57.5
M3 S255
G1 X154.0 Y57.5
M3 S0
G0 X72.5 Y57.5
M3 S255
G1 X72.5 Y57.5
M3 S255
G1 X69.0 Y57.5
M3 S0
M5 S0
G0 X69.0 Y58.0
M3 S255
G1 X69.0 Y58.0
M3 S255
G1 X72.5 Y58.0
M3 S0
G0 X154.0 Y58.0
M3 S255
G1 X154.0 Y58.0
M3 S255
G1 X161.5 Y58.0
M3 S0
G0 X189.5 Y58.0
M3 S255
G1 X189.5 Y58.0
M3 S255
G1 X191.5 Y58.0
M3 S0
G0 X198.5 Y58.0
M3 S255
G1 X198.5 Y58.0
M3 S255
G1 X202.0 Y58.0
M3 S0
G0 X207.5 Y58.0
M3 S255
G1 X207.5 Y58.0
M3 S255
G1 X214.5 Y58.0
M3 S0
G0 X225.5 Y58.0
M3 S255
G1 X225.5 Y58.0
M3 S255
G1 X227.0 Y58.0
M3 S0
G0 X230.5 Y58.0
M3 S255
G1 X230.5 Y58.0
M3 S255
G1 X232.5 Y58.0
M3 S0
G0 X266.0 Y58.0
M3 S255
G1 X266.0 Y58.0
M3 S255
G1 X268.0 Y58.0
M3 S0
G0 X312.5 Y58.0
M3 S255
G1 X312.5 Y58.0
M3 S255
G1 X316.0 Y58.0
M3 S0
M5 S0
G0 X316.0 Y58.5
M3 S255
G1 X316.0 Y58.5
M3 S255
G1 X314.0 Y58.5
M3 S0
G0 X269.5 Y58.5
M3 S255
G1 X269.5 Y58.5
M3 S255
G1 X266.0 Y58.5
M3 S0
G0 X232.5 Y58.5
M3 S255
G1 X232.5 Y58.5
M3 S255
G1 X230.5 Y58.5
M3 S0
G0 X229.0 Y58.5
M3 S255
G1 X229.0 Y58.5
M3 S255
G1 X227.0 Y58.5
M3 S0
G0 X216.5 Y58.5
M3 S255
G1 X216.5 Y58.5
M3 S255
G1 X205.5 Y58.5
M3 S0
G0 X198.5 Y58.5
M3 S255
G1 X198.5 Y58.5
M3 S255
G1 X195.0 Y58.5
M3 S0
G0 X193.5 Y58.5
M3 S255
G1 X193.5 Y58.5
M3 S255
G1 X191.5 Y58.5
M3 S0
G0 X157.5 Y58.5
M3 S255
G1 X157.5 Y58.5
M3 S255
G1 X150.5 Y58.5
M3 S0
G0 X72.5 Y58.5
M3 S255
G1 X72.5 Y58.5
M3 S255
G1 X69.0 Y58.5
M3 S0
M5 S0
G0 X69.0 Y59.0
M3 S255
G1 X69.0 Y59.0
M3 S255
G1 X72.5 Y59.0
M3 S0
G0 X150.5 Y59.0
M3 S255
G1 X150.5 Y59.0
M3 S255
G1 X157.5 Y59.0
M3 S0
G0 X191.5 Y59.0
M3 S255
G1 X191.5 Y59.0
M3 S255
G1 X193.5 Y59.0
M3 S0
G0 X195.0 Y59.0
M3 S255
G1 X195.0 Y59.0
M3 S255
G1 X198.5 Y59.0
M3 S0
G0 X205.5 Y59.0
M3 S255
G1 X205.5 Y59.0
M3 S255
G1 X216.5 Y59.0
M3 S0
G0 X227.0 Y59.0
M3 S255
G1 X227.0 Y59.0
M3 S255
G1 X229.0 Y59.0
M3 S0
G0 X230.5 Y59.0
M3 S255
G1 X230.5 Y59.0
M3 S255
G1 X232.5 Y59.0
M3 S0
G0 X266.0 Y59.0
M3 S255
G1 X266.0 Y59.0
M3 S255
G1 X269.5 Y59.0
M3 S0
G0 X314.0 Y59.0
M3 S255
G1 X314.0 Y59.0
M3 S255
G1 X316.0 Y59.0
M3 S0
M5 S0
G0 X316.0 Y59.5
M3 S255
G1 X316.0 Y59.5
M3 S255
G1 X314.0 Y59.5
M3 S0
G0 X269.5 Y59.5
M3 S255
G1 X269.5 Y59.5
M3 S255
G1 X266.0 Y59.5
M3 S0
G0 X232.5 Y59.5
M3 S255
G1 X232.5 Y59.5
M3 S255
G1 X230.5 Y59.5
M3 S0
G0 X229.0 Y59.5
M3 S255
G1 X229.0 Y59.5
M3 S255
G1 X227.0 Y59.5
M3 S0
G0 X216.5 Y59.5
M3 S255
G1 X216.5 Y59.5
M3 S255
G1 X205.5 Y59.5
M3 S0
G0 X198.5 Y59.5
M3 S255
G1 X198.5 Y59.5
M3 S255
G1 X195.0 Y59.5
M3 S0
G0 X193.5 Y59.5
M3 S255
G1 X193.5 Y59.5
M3 S255
G1 X191.5 Y59.5
M3 S0
G0 X157.5 Y59.5
M3 S255
G1 X157.5 Y59.5
M3 S255
G1 X150.5 Y59.5
M3 S0
G0 X72.5 Y59.5
M3 S255
G1 X72.5 Y59.5
M3 S255
G1 X69.0 Y59.5
M3 S0
M5 S0
G0 X69.0 Y60.0
M3 S255
G1 X69.0 Y60.0
M3 S255
G1 X72.5 Y60.0
M3 S0
G0 X150.5 Y60.0
M3 S255
G1 X150.5 Y60.0
M3 S255
G1 X157.5 Y60.0
M3 S0
G0 X191.5 Y60.0
M3 S255
G1 X191.5 Y60.0
M3 S255
G1 X193.5 Y60.0
M3 S0
G0 X195.0 Y60.0
M3 S255
G1 X195.0 Y60.0
M3 S255
G1 X198.5 Y60.0
M3 S0
G0 X205.5 Y60.0
M3 S255
G1 X205.5 Y60.0
M3 S255
G1 X216.5 Y60.0
M3 S0
G0 X227.0 Y60.0
M3 S255
G1 X227.0 Y60.0
M3 S255
G1 X229.0 Y60.0
M3 S0
G0 X230.5 Y60.0
M3 S255
G1 X230.5 Y60.0
M3 S255
G1 X232.5 Y60.0
M3 S0
G0 X266.0 Y60.0
M3 S255
G1 X266.0 Y60.0
M3 S255
G1 X269.5 Y60.0
M3 S0
G0 X314.0 Y60.0
M3 S255
G1 X314.0 Y60.0
M3 S255
G1 X316.0 Y60.0
M3 S0
M5 S0
G0 X317.5 Y60.5
M3 S255
G1 X317.5 Y60.5
M3 S255
G1 X314.0 Y60.5
M3 S0
G0 X269.5 Y60.5
M3 S255
G1 X269.5 Y60.5
M3 S255
G1 X268.0 Y60.5
M3 S0
G0 X232.5 Y60.5
M3 S255
G1 X232.5 Y60.5
M3 S255
G1 X229.0 Y60.5
M3 S0
G0 X216.5 Y60.5
M3 S255
G1 X216.5 Y60.5
M3 S255
G1 X205.5 Y60.5
M3 S0
G0 X197.0 Y60.5
M3 S255
G1 X197.0 Y60.5
M3 S255
G1 X191.5 Y60.5
M3 S0
G0 X154.0 Y60.5
M3 S255
G1 X154.0 Y60.5
M3 S255
G1 X149.0 Y60.5
M3 S0
G0 X72.5 Y60.5
M3 S255
G1 X72.5 Y60.5
M3 S255
G1 X69.0 Y60.5
M3 S0
M5 S0
G0 X69.0 Y61.0
M3 S255
G1 X69.0 Y61.0
M3 S255
G1 X72.5 Y61.0
M3 S0
G0 X149.0 Y61.0
M3 S255
G1 X149.0 Y61.0
M3 S255
G1 X154.0 Y61.0
M3 S0
G0 X191.5 Y61.0
M3 S255
G1 X191.5 Y61.0
M3 S255
G1 X197.0 Y61.0
M3 S0
G0 X205.5 Y61.0
M3 S255
G1 X205.5 Y61.0
M3 S255
G1 X216.5 Y61.0
M3 S0
G0 X229.0 Y61.0
M3 S255
G1 X229.0 Y61.0
M3 S255
G1 X232.5 Y61.0
M3 S0
G0 X268.0 Y61.0
M3 S255
G1 X268.0 Y61.0
M3 S255
G1 X269.5 Y61.0
M3 S0
G0 X314.0 Y61.0
M3 S255
G1 X314.0 Y61.0
M3 S255
G1 X317.5 Y61.0
M3 S0
M5 S0
G0 X317.5 Y61.5
M3 S255
G1 X317.5 Y61.5
M3 S255
G1 X314.0 Y61.5
M3 S0
G0 X269.5 Y61.5
M3 S255
G1 X269.5 Y61.5
M3 S255
G1 X268.0 Y61.5
M3 S0
G0 X232.5 Y61.5
M3 S255
G1 X232.5 Y61.5
M3 S255
G1 X229.0 Y61.5
M3 S0
G0 X216.5 Y61.5
M3 S255
G1 X216.5 Y61.5
M3 S255
G1 X205.5 Y61.5
M3 S0
G0 X197.0 Y61.5
M3 S255
G1 X197.0 Y61.5
M3 S255
G1 X191.5 Y61.5
M3 S0
G0 X154.0 Y61.5
M3 S255
G1 X154.0 Y61.5
M3 S255
G1 X149.0 Y61.5
M3 S0
G0 X72.5 Y61.5
M3 S255
G1 X72.5 Y61.5
M3 S255
G1 X69.0 Y61.5
M3 S0
M5 S0
G0 X70.5 Y62.0
M3 S255
G1 X70.5 Y62.0
M3 S255
G1 X72.5 Y62.0
M3 S0
G0 X145.5 Y62.0
M3 S255
G1 X145.5 Y62.0
M3 S255
G1 X150.5 Y62.0
M3 S0
G0 X193.5 Y62.0
M3 S255
G1 X193.5 Y62.0
M3 S255
G1 X195.0 Y62.0
M3 S0
G0 X204.0 Y62.0
M3 S255
G1 X204.0 Y62.0
M3 S255
G1 X218.0 Y62.0
M3 S0
G0 X230.5 Y62.0
M3 S255
G1 X230.5 Y62.0
M3 S255
G1 X232.5 Y62.0
M3 S0
G0 X269.5 Y62.0
M3 S255
G1 X269.5 Y62.0
M3 S255
G1 X271.5 Y62.0
M3 S0
G0 X314.0 Y62.0
M3 S255
G1 X314.0 Y62.0
M3 S255
G1 X317.5 Y62.0
M3 S0
M5 S0
G0 X317.5 Y62.5
M3 S255
G1 X317.5 Y62.5
M3 S255
G1 X314.0 Y62.5
M3 S0
G0 X271.5 Y62.5
M3 S255
G1 X271.5 Y62.5
M3 S255
G1 X269.5 Y62.5
M3 S0
G0 X232.5 Y62.5
M3 S255
G1 X232.5 Y62.5
M3 S255
G1 X230.5 Y62.5
M3 S0
G0 X218.0 Y62.5
M3 S255
G1 X218.0 Y62.5
M3 S255
G1 X204.0 Y62.5
M3 S0
G0 X195.0 Y62.5
M3 S255
G1 X195.0 Y62.5
M3 S255
G1 X193.5 Y62.5
M3 S0
G0 X150.5 Y62.5
M3 S255
G1 X150.5 Y62.5
M3 S255
G1 X145.5 Y62.5
M3 S0
G0 X72.5 Y62.5
M3 S255
G1 X72.5 Y62.5
M3 S255
G1 X70.5 Y62.5
M3 S0
M5 S0
G0 X70.5 Y63.0
M3 S255
G1 X70.5 Y63.0
M3 S255
G1 X72.5 Y63.0
M3 S0
G0 X145.5 Y63.0
M3 S255
G1 X145.5 Y63.0
M3 S255
G1 X150.5 Y63.0
M3 S0
G0 X193.5 Y63.0
M3 S255
G1 X193.5 Y63.0
M3 S255
G1 X195.0 Y63.0
M3 S0
G0 X204.0 Y63.0
M3 S255
G1 X204.0 Y63.0
M3 S255
G1 X218.0 Y63.0
M3 S0
G0 X230.5 Y63.0
M3 S255
G1 X230.5 Y63.0
M3 S255
G1 X232.5 Y63.0
M3 S0
G0 X269.5 Y63.0
M3 S255
G1 X269.5 Y63.0
M3 S255
G1 X271.5 Y63.0
M3 S0
G0 X314.0 Y63.0
M3 S255
G1 X314.0 Y63.0
M3 S255
G1 X317.5 Y63.0
M3 S0
M5 S0
G0 X317.5 Y63.5
M3 S255
G1 X317.5 Y63.5
M3 S255
G1 X314.0 Y63.5
M3 S0
G0 X271.5 Y63.5
M3 S255
G1 X271.5 Y63.5
M3 S255
G1 X269.5 Y63.5
M3 S0
G0 X232.5 Y63.5
M3 S255
G1 X232.5 Y63.5
M3 S255
G1 X230.5 Y63.5
M3 S0
G0 X218.0 Y63.5
M3 S255
G1 X218.0 Y63.5
M3 S255
G1 X204.0 Y63.5
M3 S0
G0 X195.0 Y63.5
M3 S255
G1 X195.0 Y63.5
M3 S255
G1 X193.5 Y63.5
M3 S0
G0 X150.5 Y63.5
M3 S255
G1 X150.5 Y63.5
M3 S255
G1 X145.5 Y63.5
M3 S0
G0 X72.5 Y63.5
M3 S255
G1 X72.5 Y63.5
M3 S255
G1 X70.5 Y63.5
M3 S0
M5 S0
G0 X70.5 Y64.0
M3 S255
G1 X70.5 Y64.0
M3 S255
G1 X74.0 Y64.0
M3 S0
G0 X141.5 Y64.0
M3 S255
G1 X141.5 Y64.0
M3 S255
G1 X149.0 Y64.0
M3 S0
G0 X193.5 Y64.0
M3 S255
G1 X193.5 Y64.0
M3 S255
G1 X195.0 Y64.0
M3 S0
G0 X202.0 Y64.0
M3 S255
G1 X202.0 Y64.0
M3 S255
G1 X218.0 Y64.0
M3 S0
G0 X232.5 Y64.0
M3 S255
G1 X232.5 Y64.0
M3 S255
G1 X234.0 Y64.0
M3 S0
G0 X269.5 Y64.0
M3 S255
G1 X269.5 Y64.0
M3 S255
G1 X273.5 Y64.0
M3 S0
G0 X316.0 Y64.0
M3 S255
G1 X316.0 Y64.0
M3 S255
G1 X317.5 Y64.0
M3 S0
M5 S0
G0 X317.5 Y64.5
M3 S255
G1 X317.5 Y64.5
M3 S255
G1 X316.0 Y64.5
M3 S0
G0 X273.5 Y64.5
M3 S255
G1 X273.5 Y64.5
M3 S255
G1 X269.5 Y64.5
M3 S0
G0 X234.0 Y64.5
M3 S255
G1 X234.0 Y64.5
M3 S255
G1 X232.5 Y64.5
M3 S0
G0 X218.0 Y64.5
M3 S255
G1 X218.0 Y64.5
M3 S255
G1 X202.0 Y64.5
M3 S0
G0 X195.0 Y64.5
M3 S255
G1 X195.0 Y64.5
M3 S255
G1 X193.5 Y64.5
M3 S0
G0 X149.0 Y64.5
M3 S255
G1 X149.0 Y64.5
M3 S255
G1 X141.5 Y64.5
M3 S0
G0 X74.0 Y64.5
M3 S255
G1 X74.0 Y64.5
M3 S255
G1 X70.5 Y64.5
M3 S0
M5 S0
G0 X70.5 Y65.0
M3 S255
G1 X70.5 Y65.0
M3 S255
G1 X74.0 Y65.0
M3 S0
G0 X141.5 Y65.0
M3 S255
G1 X141.5 Y65.0
M3 S255
G1 X149.0 Y65.0
M3 S0
G0 X193.5 Y65.0
M3 S255
G1 X193.5 Y65.0
M3 S255
G1 X195.0 Y65.0
M3 S0
G0 X202.0 Y65.0
M3 S255
G1 X202.0 Y65.0
M3 S255
G1 X218.0 Y65.0
M3 S0
G0 X232.5 Y65.0
M3 S255
G1 X232.5 Y65.0
M3 S255
G1 X234.0 Y65.0
M3 S0
G0 X269.5 Y65.0
M3 S255
G1 X269.5 Y65.0
M3 S255
G1 X273.5 Y65.0
M3 S0
G0 X316.0 Y65.0
M3 S255
G1 X316.0 Y65.0
M3 S255
G1 X317.5 Y65.0
M3 S0
M5 S0
G0 X317.5 Y65.5
M3 S255
G1 X317.5 Y65.5
M3 S255
G1 X316.0 Y65.5
M3 S0
G0 X273.5 Y65.5
M3 S255
G1 X273.5 Y65.5
M3 S255
G1 X269.5 Y65.5
M3 S0
G0 X234.0 Y65.5
M3 S255
G1 X234.0 Y65.5
M3 S255
G1 X232.5 Y65.5
M3 S0
G0 X218.0 Y65.5
M3 S255
G1 X218.0 Y65.5
M3 S255
G1 X202.0 Y65.5
M3 S0
G0 X195.0 Y65.5
M3 S255
G1 X195.0 Y65.5
M3 S255
G1 X193.5 Y65.5
M3 S0
G0 X149.0 Y65.5
M3 S255
G1 X149.0 Y65.5
M3 S255
G1 X141.5 Y65.5
M3 S0
G0 X74.0 Y65.5
M3 S255
G1 X74.0 Y65.5
M3 S255
G1 X70.5 Y65.5
M3 S0
M5 S0
G0 X72.5 Y66.0
M3 S255
G1 X72.5 Y66.0
M3 S255
G1 X74.0 Y66.0
M3 S0
G0 X140.0 Y66.0
M3 S255
G1 X140.0 Y66.0
M3 S255
G1 X141.5 Y66.0
M3 S0
G0 X143.5 Y66.0
M3 S255
G1 X143.5 Y66.0
M3 S255
G1 X147.0 Y66.0
M3 S0
G0 X200.5 Y66.0
M3 S255
G1 X200.5 Y66.0
M3 S255
G1 X220.0 Y66.0
M3 S0
G0 X234.0 Y66.0
M3 S255
G1 X234.0 Y66.0
M3 S255
G1 X236.0 Y66.0
M3 S0
G0 X271.5 Y66.0
M3 S255
G1 X271.5 Y66.0
M3 S255
G1 X275.0 Y66.0
M3 S0
G0 X316.0 Y66.0
M3 S255
G1 X316.0 Y66.0
M3 S255
G1 X319.5 Y66.0
M3 S0
M5 S0
G0 X319.5 Y66.5
M3 S255
G1 X319.5 Y66.5
M3 S255
G1 X316.0 Y66.5
M3 S0
G0 X275.0 Y66.5
M3 S255
G1 X275.0 Y66.5
M3 S255
G1 X271.5 Y66.5
M3 S0
G0 X236.0 Y66.5
M3 S255
G1 X236.0 Y66.5
M3 S255
G1 X234.0 Y66.5
M3 S0
G0 X220.0 Y66.5
M3 S255
G1 X220.0 Y66.5
M3 S255
G1 X200.5 Y66.5
M3 S0
G0 X147.0 Y66.5
M3 S255
G1 X147.0 Y66.5
M3 S255
G1 X143.5 Y66.5
M3 S0
G0 X141.5 Y66.5
M3 S255
G1 X141.5 Y66.5
M3 S255
G1 X140.0 Y66.5
M3 S0
G0 X74.0 Y66.5
M3 S255
G1 X74.0 Y66.5
M3 S255
G1 X72.5 Y66.5
M3 S0
M5 S0
G0 X72.5 Y67.0
M3 S255
G1 X72.5 Y67.0
M3 S255
G1 X74.0 Y67.0
M3 S0
G0 X140.0 Y67.0
M3 S255
G1 X140.0 Y67.0
M3 S255
G1 X141.5 Y67.0
M3 S0
G0 X143.5 Y67.0
M3 S255
G1 X143.5 Y67.0
M3 S255
G1 X147.0 Y67.0
M3 S0
G0 X200.5 Y67.0
M3 S255
G1 X200.5 Y67.0
M3 S255
G1 X220.0 Y67.0
M3 S0
G0 X234.0 Y67.0
M3 S255
G1 X234.0 Y67.0
M3 S255
G1 X236.0 Y67.0
M3 S0
G0 X271.5 Y67.0
M3 S255
G1 X271.5 Y67.0
M3 S255
G1 X275.0 Y67.0
M3 S0
G0 X316.0 Y67.0
M3 S255
G1 X316.0 Y67.0
M3 S255
G1 X319.5 Y67.0
M3 S0
M5 S0
G0 X319.5 Y67.5
M3 S255
G1 X319.5 Y67.5
M3 S255
G1 X316.0 Y67.5
M3 S0
G0 X275.0 Y67.5
M3 S255
G1 X275.0 Y67.5
M3 S255
G1 X273.5 Y67.5
M3 S0
G0 X236.0 Y67.5
M3 S255
G1 X236.0 Y67.5
M3 S255
G1 X234.0 Y67.5
M3 S0
G0 X221.5 Y67.5
M3 S255
G1 X221.5 Y67.5
M3 S255
G1 X198.5 Y67.5
M3 S0
G0 X193.5 Y67.5
M3 S255
G1 X193.5 Y67.5
M3 S255
G1 X191.5 Y67.5
M3 S0
G0 X175.5 Y67.5
M3 S255
G1 X175.5 Y67.5
M3 S255
G1 X165.0 Y67.5
M3 S0
G0 X145.5 Y67.5
M3 S255
G1 X145.5 Y67.5
M3 S255
G1 X143.5 Y67.5
M3 S0
G0 X140.0 Y67.5
M3 S255
G1 X140.0 Y67.5
M3 S255
G1 X136.5 Y67.5
M3 S0
G0 X76.0 Y67.5
M3 S255
G1 X76.0 Y67.5
M3 S255
G1 X72.5 Y67.5
M3 S0
M5 S0
G0 X72.5 Y68.0
M3 S255
G1 X72.5 Y68.0
M3 S255
G1 X76.0 Y68.0
M3 S0
G0 X136.5 Y68.0
M3 S255
G1 X136.5 Y68.0
M3 S255
G1 X140.0 Y68.0
M3 S0
G0 X143.5 Y68.0
M3 S255
G1 X143.5 Y68.0
M3 S255
G1 X145.5 Y68.0
M3 S0
G0 X165.0 Y68.0
M3 S255
G1 X165.0 Y68.0
M3 S255
G1 X175.5 Y68.0
M3 S0
G0 X191.5 Y68.0
M3 S255
G1 X191.5 Y68.0
M3 S255
G1 X193.5 Y68.0
M3 S0
G0 X198.5 Y68.0
M3 S255
G1 X198.5 Y68.0
M3 S255
G1 X221.5 Y68.0
M3 S0
G0 X234.0 Y68.0
M3 S255
G1 X234.0 Y68.0
M3 S255
G1 X236.0 Y68.0
M3 S0
G0 X273.5 Y68.0
M3 S255
G1 X273.5 Y68.0
M3 S255
G1 X275.0 Y68.0
M3 S0
G0 X316.0 Y68.0
M3 S255
G1 X316.0 Y68.0
M3 S255
G1 X319.5 Y68.0
M3 S0
M5 S0
G0 X319.5 Y68.5
M3 S255
G1 X319.5 Y68.5
M3 S255
G1 X316.0 Y68.5
M3 S0
G0 X275.0 Y68.5
M3 S255
G1 X275.0 Y68.5
M3 S255
G1 X273.5 Y68.5
M3 S0
G0 X236.0 Y68.5
M3 S255
G1 X236.0 Y68.5
M3 S255
G1 X234.0 Y68.5
M3 S0
G0 X221.5 Y68.5
M3 S255
G1 X221.5 Y68.5
M3 S255
G1 X198.5 Y68.5
M3 S0
G0 X193.5 Y68.5
M3 S255
G1 X193.5 Y68.5
M3 S255
G1 X191.5 Y68.5
M3 S0
G0 X175.5 Y68.5
M3 S255
G1 X175.5 Y68.5
M3 S255
G1 X165.0 Y68.5
M3 S0
G0 X145.5 Y68.5
M3 S255
G1 X145.5 Y68.5
M3 S255
G1 X143.5 Y68.5
M3 S0
G0 X140.0 Y68.5
M3 S255
G1 X140.0 Y68.5
M3 S255
G1 X136.5 Y68.5
M3 S0
G0 X76.0 Y68.5
M3 S255
G1 X76.0 Y68.5
M3 S255
G1 X72.5 Y68.5
M3 S0
M5 S0
G0 X72.5 Y69.0
M3 S255
G1 X72.5 Y69.0
M3 S255
G1 X76.0 Y69.0
M3 S0
G0 X136.5 Y69.0
M3 S255
G1 X136.5 Y69.0
M3 S255
G1 X140.0 Y69.0
M3 S0
G0 X143.5 Y69.0
M3 S255
G1 X143.5 Y69.0
M3 S255
G1 X145.5 Y69.0
M3 S0
G0 X165.0 Y69.0
M3 S255
G1 X165.0 Y69.0
M3 S255
G1 X175.5 Y69.0
M3 S0
G0 X191.5 Y69.0
M3 S255
G1 X191.5 Y69.0
M3 S255
G1 X193.5 Y69.0
M3 S0
G0 X198.5 Y69.0
M3 S255
G1 X198.5 Y69.0
M3 S255
G1 X221.5 Y69.0
M3 S0
G0 X234.0 Y69.0
M3 S255
G1 X234.0 Y69.0
M3 S255
G1 X236.0 Y69.0
M3 S0
G0 X273.5 Y69.0
M3 S255
G1 X273.5 Y69.0
M3 S255
G1 X275.0 Y69.0
M3 S0
G0 X316.0 Y69.0
M3 S255
G1 X316.0 Y69.0
M3 S255
G1 X319.5 Y69.0
M3 S0
M5 S0
G0 X319.5 Y69.5
M3 S255
G1 X319.5 Y69.5
M3 S255
G1 X316.0 Y69.5
M3 S0
G0 X277.0 Y69.5
M3 S255
G1 X277.0 Y69.5
M3 S255
G1 X275.0 Y69.5
M3 S0
G0 X237.5 Y69.5
M3 S255
G1 X237.5 Y69.5
M3 S255
G1 X236.0 Y69.5
M3 S0
G0 X221.5 Y69.5
M3 S255
G1 X221.5 Y69.5
M3 S255
G1 X197.0 Y69.5
M3 S0
G0 X193.5 Y69.5
M3 S255
G1 X193.5 Y69.5
M3 S255
G1 X189.5 Y69.5
M3 S0
G0 X181.0 Y69.5
M3 S255
G1 X181.0 Y69.5
M3 S255
G1 X159.5 Y69.5
M3 S0
G0 X143.5 Y69.5
M3 S255
G1 X143.5 Y69.5
M3 S255
G1 X141.5 Y69.5
M3 S0
G0 X134.5 Y69.5
M3 S255
G1 X134.5 Y69.5
M3 S255
G1 X133.0 Y69.5
M3 S0
G0 X77.5 Y69.5
M3 S255
G1 X77.5 Y69.5
M3 S255
G1 X74.0 Y69.5
M3 S0
M5 S0
G0 X74.0 Y70.0
M3 S255
G1 X74.0 Y70.0
M3 S255
G1 X77.5 Y70.0
M3 S0
G0 X133.0 Y70.0
M3 S255
G1 X133.0 Y70.0
M3 S255
G1 X134.5 Y70.0
M3 S0
G0 X141.5 Y70.0
M3 S255
G1 X141.5 Y70.0
M3 S255
G1 X143.5 Y70.0
M3 S0
G0 X159.5 Y70.0
M3 S255
G1 X159.5 Y70.0
M3 S255
G1 X181.0 Y70.0
M3 S0
G0 X189.5 Y70.0
M3 S255
G1 X189.5 Y70.0
M3 S255
G1 X193.5 Y70.0
M3 S0
G0 X197.0 Y70.0
M3 S255
G1 X197.0 Y70.0
M3 S255
G1 X221.5 Y70.0
M3 S0
G0 X236.0 Y70.0
M3 S255
G1 X236.0 Y70.0
M3 S255
G1 X237.5 Y70.0
M3 S0
G0 X275.0 Y70.0
M3 S255
G1 X275.0 Y70.0
M3 S255
G1 X277.0 Y70.0
M3 S0
G0 X316.0 Y70.0
M3 S255
G1 X316.0 Y70.0
M3 S255
G1 X319.5 Y70.0
M3 S0
M5 S0
G0 X319.5 Y70.5
M3 S255
G1 X319.5 Y70.5
M3 S255
G1 X316.0 Y70.5
M3 S0
G0 X277.0 Y70.5
M3 S255
G1 X277.0 Y70.5
M3 S255
G1 X275.0 Y70.5
M3 S0
G0 X237.5 Y70.5
M3 S255
G1 X237.5 Y70.5
M3 S255
G1 X236.0 Y70.5
M3 S0
G0 X221.5 Y70.5
M3 S255
G1 X221.5 Y70.5
M3 S255
G1 X197.0 Y70.5
M3 S0
G0 X193.5 Y70.5
M3 S255
G1 X193.5 Y70.5
M3 S255
G1 X189.5 Y70.5
M3 S0
G0 X181.0 Y70.5
M3 S255
G1 X181.0 Y70.5
M3 S255
G1 X159.5 Y70.5
M3 S0
G0 X143.5 Y70.5
M3 S255
G1 X143.5 Y70.5
M3 S255
G1 X141.5 Y70.5
M3 S0
G0 X134.5 Y70.5
M3 S255
G1 X134.5 Y70.5
M3 S255
G1 X133.0 Y70.5
M3 S0
G0 X77.5 Y70.5
M3 S255
G1 X77.5 Y70.5
M3 S255
G1 X74.0 Y70.5
M3 S0
M5 S0
G0 X76.0 Y71.0
M3 S255
G1 X76.0 Y71.0
M3 S255
G1 X79.5 Y71.0
M3 S0
G0 X140.0 Y71.0
M3 S255
G1 X140.0 Y71.0
M3 S255
G1 X143.5 Y71.0
M3 S0
G0 X157.5 Y71.0
M3 S255
G1 X157.5 Y71.0
M3 S255
G1 X181.0 Y71.0
M3 S0
G0 X188.0 Y71.0
M3 S255
G1 X188.0 Y71.0
M3 S255
G1 X191.5 Y71.0
M3 S0
G0 X197.0 Y71.0
M3 S255
G1 X197.0 Y71.0
M3 S255
G1 X223.5 Y71.0
M3 S0
G0 X236.0 Y71.0
M3 S255
G1 X236.0 Y71.0
M3 S255
G1 X237.5 Y71.0
M3 S0
G0 X277.0 Y71.0
M3 S255
G1 X277.0 Y71.0
M3 S255
G1 X278.5 Y71.0
M3 S0
G0 X317.5 Y71.0
M3 S255
G1 X317.5 Y71.0
M3 S255
G1 X319.5 Y71.0
M3 S0
M5 S0
G0 X319.5 Y71.5
M3 S255
G1 X319.5 Y71.5
M3 S255
G1 X317.5 Y71.5
M3 S0
G0 X278.5 Y71.5
M3 S255
G1 X278.5 Y71.5
M3 S255
G1 X277.0 Y71.5
M3 S0
G0 X237.5 Y71.5
M3 S255
G1 X237.5 Y71.5
M3 S255
G1 X236.0 Y71.5
M3 S0
G0 X223.5 Y71.5
M3 S255
G1 X223.5 Y71.5
M3 S255
G1 X197.0 Y71.5
M3 S0
G0 X191.5 Y71.5
M3 S255
G1 X191.5 Y71.5
M3 S255
G1 X188.0 Y71.5
M3 S0
G0 X181.0 Y71.5
M3 S255
G1 X181.0 Y71.5
M3 S255
G1 X157.5 Y71.5
M3 S0
G0 X143.5 Y71.5
M3 S255
G1 X143.5 Y71.5
M3 S255
G1 X140.0 Y71.5
M3 S0
G0 X79.5 Y71.5
M3 S255
G1 X79.5 Y71.5
M3 S255
G1 X76.0 Y71.5
M3 S0
M5 S0
G0 X76.0 Y72.0
M3 S255
G1 X76.0 Y72.0
M3 S255
G1 X79.5 Y72.0
M3 S0
G0 X140.0 Y72.0
M3 S255
G1 X140.0 Y72.0
M3 S255
G1 X143.5 Y72.0
M3 S0
G0 X157.5 Y72.0
M3 S255
G1 X157.5 Y72.0
M3 S255
G1 X181.0 Y72.0
M3 S0
G0 X188.0 Y72.0
M3 S255
G1 X188.0 Y72.0
M3 S255
G1 X191.5 Y72.0
M3 S0
G0 X197.0 Y72.0
M3 S255
G1 X197.0 Y72.0
M3 S255
G1 X223.5 Y72.0
M3 S0
G0 X236.0 Y72.0
M3 S255
G1 X236.0 Y72.0
M3 S255
G1 X237.5 Y72.0
M3 S0
G0 X277.0 Y72.0
M3 S255
G1 X277.0 Y72.0
M3 S255
G1 X278.5 Y72.0
M3 S0
G0 X317.5 Y72.0
M3 S255
G1 X317.5 Y72.0
M3 S255
G1 X319.5 Y72.0
M3 S0
M5 S0
G0 X319.5 Y72.5
M3 S255
G1 X319.5 Y72.5
M3 S255
G1 X317.5 Y72.5
M3 S0
G0 X278.5 Y72.5
M3 S255
G1 X278.5 Y72.5
M3 S255
G1 X277.0 Y72.5
M3 S0
G0 X237.5 Y72.5
M3 S255
G1 X237.5 Y72.5
M3 S255
G1 X236.0 Y72.5
M3 S0
G0 X223.5 Y72.5
M3 S255
G1 X223.5 Y72.5
M3 S255
G1 X197.0 Y72.5
M3 S0
G0 X191.5 Y72.5
M3 S255
G1 X191.5 Y72.5
M3 S255
G1 X188.0 Y72.5
M3 S0
G0 X181.0 Y72.5
M3 S255
G1 X181.0 Y72.5
M3 S255
G1 X157.5 Y72.5
M3 S0
G0 X143.5 Y72.5
M3 S255
G1 X143.5 Y72.5
M3 S255
G1 X140.0 Y72.5
M3 S0
G0 X79.5 Y72.5
M3 S255
G1 X79.5 Y72.5
M3 S255
G1 X76.0 Y72.5
M3 S0
M5 S0
G0 X77.5 Y73.0
M3 S255
G1 X77.5 Y73.0
M3 S255
G1 X83.0 Y73.0
M3 S0
G0 X133.0 Y73.0
M3 S255
G1 X133.0 Y73.0
M3 S255
G1 X145.5 Y73.0
M3 S0
G0 X154.0 Y73.0
M3 S255
G1 X154.0 Y73.0
M3 S255
G1 X179.0 Y73.0
M3 S0
G0 X186.0 Y73.0
M3 S255
G1 X186.0 Y73.0
M3 S255
G1 X189.5 Y73.0
M3 S0
G0 X195.0 Y73.0
M3 S255
G1 X195.0 Y73.0
M3 S255
G1 X225.5 Y73.0
M3 S0
G0 X236.0 Y73.0
M3 S255
G1 X236.0 Y73.0
M3 S255
G1 X237.5 Y73.0
M3 S0
G0 X277.0 Y73.0
M3 S255
G1 X277.0 Y73.0
M3 S255
G1 X280.5 Y73.0
M3 S0
G0 X317.5 Y73.0
M3 S255
G1 X317.5 Y73.0
M3 S255
G1 X319.5 Y73.0
M3 S0
M5 S0
G0 X319.5 Y73.5
M3 S255
G1 X319.5 Y73.5
M3 S255
G1 X317.5 Y73.5
M3 S0
G0 X280.5 Y73.5
M3 S255
G1 X280.5 Y73.5
M3 S255
G1 X277.0 Y73.5
M3 S0
G0 X237.5 Y73.5
M3 S255
G1 X237.5 Y73.5
M3 S255
G1 X236.0 Y73.5
M3 S0
G0 X225.5 Y73.5
M3 S255
G1 X225.5 Y73.5
M3 S255
G1 X195.0 Y73.5
M3 S0
G0 X189.5 Y73.5
M3 S255
G1 X189.5 Y73.5
M3 S255
G1 X186.0 Y73.5
M3 S0
G0 X179.0 Y73.5
M3 S255
G1 X179.0 Y73.5
M3 S255
G1 X154.0 Y73.5
M3 S0
G0 X145.5 Y73.5
M3 S255
G1 X145.5 Y73.5
M3 S255
G1 X133.0 Y73.5
M3 S0
G0 X83.0 Y73.5
M3 S255
G1 X83.0 Y73.5
M3 S255
G1 X77.5 Y73.5
M3 S0
M5 S0
G0 X77.5 Y74.0
M3 S255
G1 X77.5 Y74.0
M3 S255
G1 X83.0 Y74.0
M3 S0
G0 X133.0 Y74.0
M3 S255
G1 X133.0 Y74.0
M3 S255
G1 X145.5 Y74.0
M3 S0
G0 X154.0 Y74.0
M3 S255
G1 X154.0 Y74.0
M3 S255
G1 X179.0 Y74.0
M3 S0
G0 X186.0 Y74.0
M3 S255
G1 X186.0 Y74.0
M3 S255
G1 X189.5 Y74.0
M3 S0
G0 X195.0 Y74.0
M3 S255
G1 X195.0 Y74.0
M3 S255
G1 X225.5 Y74.0
M3 S0
G0 X236.0 Y74.0
M3 S255
G1 X236.0 Y74.0
M3 S255
G1 X237.5 Y74.0
M3 S0
G0 X277.0 Y74.0
M3 S255
G1 X277.0 Y74.0
M3 S255
G1 X280.5 Y74.0
M3 S0
G0 X317.5 Y74.0
M3 S255
G1 X317.5 Y74.0
M3 S255
G1 X319.5 Y74.0
M3 S0
M5 S0
G0 X319.5 Y74.5
M3 S255
G1 X319.5 Y74.5
M3 S255
G1 X317.5 Y74.5
M3 S0
G0 X282.0 Y74.5
M3 S255
G1 X282.0 Y74.5
M3 S255
G1 X278.5 Y74.5
M3 S0
G0 X237.5 Y74.5
M3 S255
G1 X237.5 Y74.5
M3 S255
G1 X236.0 Y74.5
M3 S0
G0 X229.0 Y74.5
M3 S255
G1 X229.0 Y74.5
M3 S255
G1 X193.5 Y74.5
M3 S0
G0 X186.0 Y74.5
M3 S255
G1 X186.0 Y74.5
M3 S255
G1 X182.5 Y74.5
M3 S0
G0 X179.0 Y74.5
M3 S255
G1 X179.0 Y74.5
M3 S255
G1 X152.5 Y74.5
M3 S0
G0 X147.0 Y74.5
M3 S255
G1 X147.0 Y74.5
M3 S255
G1 X143.5 Y74.5
M3 S0
G0 X133.0 Y74.5
M3 S255
G1 X133.0 Y74.5
M3 S255
G1 X125.5 Y74.5
M3 S0
G0 X88.5 Y74.5
M3 S255
G1 X88.5 Y74.5
M3 S255
G1 X81.5 Y74.5
M3 S0
M5 S0
G0 X81.5 Y75.0
M3 S255
G1 X81.5 Y75.0
M3 S255
G1 X88.5 Y75.0
M3 S0
G0 X125.5 Y75.0
M3 S255
G1 X125.5 Y75.0
M3 S255
G1 X133.0 Y75.0
M3 S0
G0 X143.5 Y75.0
M3 S255
G1 X143.5 Y75.0
M3 S255
G1 X147.0 Y75.0
M3 S0
G0 X152.5 Y75.0
M3 S255
G1 X152.5 Y75.0
M3 S255
G1 X179.0 Y75.0
M3 S0
G0 X182.5 Y75.0
M3 S255
G1 X182.5 Y75.0
M3 S255
G1 X186.0 Y75.0
M3 S0
G0 X193.5 Y75.0
M3 S255
G1 X193.5 Y75.0
M3 S255
G1 X229.0 Y75.0
M3 S0
G0 X236.0 Y75.0
M3 S255
G1 X236.0 Y75.0
M3 S255
G1 X237.5 Y75.0
M3 S0
G0 X278.5 Y75.0
M3 S255
G1 X278.5 Y75.0
M3 S255
G1 X282.0 Y75.0
M3 S0
G0 X317.5 Y75.0
M3 S255
G1 X317.5 Y75.0
M3 S255
G1 X319.5 Y75.0
M3 S0
M5 S0
G0 X319.5 Y75.5
M3 S255
G1 X319.5 Y75.5
M3 S255
G1 X317.5 Y75.5
M3 S0
G0 X282.0 Y75.5
M3 S255
G1 X282.0 Y75.5
M3 S255
G1 X278.5 Y75.5
M3 S0
G0 X237.5 Y75.5
M3 S255
G1 X237.5 Y75.5
M3 S255
G1 X236.0 Y75.5
M3 S0
G0 X229.0 Y75.5
M3 S255
G1 X229.0 Y75.5
M3 S255
G1 X193.5 Y75.5
M3 S0
G0 X186.0 Y75.5
M3 S255
G1 X186.0 Y75.5
M3 S255
G1 X182.5 Y75.5
M3 S0
G0 X179.0 Y75.5
M3 S255
G1 X179.0 Y75.5
M3 S255
G1 X152.5 Y75.5
M3 S0
G0 X147.0 Y75.5
M3 S255
G1 X147.0 Y75.5
M3 S255
G1 X143.5 Y75.5
M3 S0
G0 X133.0 Y75.5
M3 S255
G1 X133.0 Y75.5
M3 S255
G1 X125.5 Y75.5
M3 S0
G0 X88.5 Y75.5
M3 S255
G1 X88.5 Y75.5
M3 S255
G1 X81.5 Y75.5
M3 S0
M5 S0
G0 X81.5 Y76.0
M3 S255
G1 X81.5 Y76.0
M3 S255
G1 X88.5 Y76.0
M3 S0
G0 X125.5 Y76.0
M3 S255
G1 X125.5 Y76.0
M3 S255
G1 X133.0 Y76.0
M3 S0
G0 X143.5 Y76.0
M3 S255
G1 X143.5 Y76.0
M3 S255
G1 X147.0 Y76.0
M3 S0
G0 X152.5 Y76.0
M3 S255
G1 X152.5 Y76.0
M3 S255
G1 X179.0 Y76.0
M3 S0
G0 X182.5 Y76.0
M3 S255
G1 X182.5 Y76.0
M3 S255
G1 X186.0 Y76.0
M3 S0
G0 X193.5 Y76.0
M3 S255
G1 X193.5 Y76.0
M3 S255
G1 X229.0 Y76.0
M3 S0
G0 X236.0 Y76.0
M3 S255
G1 X236.0 Y76.0
M3 S255
G1 X237.5 Y76.0
M3 S0
G0 X278.5 Y76.0
M3 S255
G1 X278.5 Y76.0
M3 S255
G1 X282.0 Y76.0
M3 S0
G0 X317.5 Y76.0
M3 S255
G1 X317.5 Y76.0
M3 S255
G1 X319.5 Y76.0
M3 S0
M5 S0
G0 X319.5 Y76.5
M3 S255
G1 X319.5 Y76.5
M3 S255
G1 X317.5 Y76.5
M3 S0
G0 X284.0 Y76.5
M3 S255
G1 X284.0 Y76.5
M3 S255
G1 X280.5 Y76.5
M3 S0
G0 X237.5 Y76.5
M3 S255
G1 X237.5 Y76.5
M3 S255
G1 X230.5 Y76.5
M3 S0
G0 X225.5 Y76.5
M3 S255
G1 X225.5 Y76.5
M3 S255
G1 X193.5 Y76.5
M3 S0
G0 X182.5 Y76.5
M3 S255
G1 X182.5 Y76.5
M3 S255
G1 X150.5 Y76.5
M3 S0
G0 X149.0 Y76.5
M3 S255
G1 X149.0 Y76.5
M3 S255
G1 X145.5 Y76.5
M3 S0
G0 X125.5 Y76.5
M3 S255
G1 X125.5 Y76.5
M3 S255
G1 X117.0 Y76.5
M3 S0
G0 X95.5 Y76.5
M3 S255
G1 X95.5 Y76.5
M3 S255
G1 X86.5 Y76.5
M3 S0
M5 S0
G0 X86.5 Y77.0
M3 S255
G1 X86.5 Y77.0
M3 S255
G1 X95.5 Y77.0
M3 S0
G0 X117.0 Y77.0
M3 S255
G1 X117.0 Y77.0
M3 S255
G1 X125.5 Y77.0
M3 S0
G0 X145.5 Y77.0
M3 S255
G1 X145.5 Y77.0
M3 S255
G1 X149.0 Y77.0
M3 S0
G0 X150.5 Y77.0
M3 S255
G1 X150.5 Y77.0
M3 S255
G1 X182.5 Y77.0
M3 S0
G0 X193.5 Y77.0
M3 S255
G1 X193.5 Y77.0
M3 S255
G1 X225.5 Y77.0
M3 S0
G0 X230.5 Y77.0
M3 S255
G1 X230.5 Y77.0
M3 S255
G1 X237.5 Y77.0
M3 S0
G0 X280.5 Y77.0
M3 S255
G1 X280.5 Y77.0
M3 S255
G1 X284.0 Y77.0
M3 S0
G0 X317.5 Y77.0
M3 S255
G1 X317.5 Y77.0
M3 S255
G1 X319.5 Y77.0
M3 S0
M5 S0
G0 X319.5 Y77.5
M3 S255
G1 X319.5 Y77.5
M3 S255
G1 X317.5 Y77.5
M3 S0
G0 X284.0 Y77.5
M3 S255
G1 X284.0 Y77.5
M3 S255
G1 X280.5 Y77.5
M3 S0
G0 X237.5 Y77.5
M3 S255
G1 X237.5 Y77.5
M3 S255
G1 X230.5 Y77.5
M3 S0
G0 X225.5 Y77.5
M3 S255
G1 X225.5 Y77.5
M3 S255
G1 X193.5 Y77.5
M3 S0
G0 X182.5 Y77.5
M3 S255
G1 X182.5 Y77.5
M3 S255
G1 X150.5 Y77.5
M3 S0
G0 X149.0 Y77.5
M3 S255
G1 X149.0 Y77.5
M3 S255
G1 X145.5 Y77.5
M3 S0
G0 X125.5 Y77.5
M3 S255
G1 X125.5 Y77.5
M3 S255
G1 X117.0 Y77.5
M3 S0
G0 X95.5 Y77.5
M3 S255
G1 X95.5 Y77.5
M3 S255
G1 X86.5 Y77.5
M3 S0
M5 S0
G0 X90.0 Y78.0
M3 S255
G1 X90.0 Y78.0
M3 S255
G1 X117.0 Y78.0
M3 S0
G0 X147.0 Y78.0
M3 S255
G1 X147.0 Y78.0
M3 S255
G1 X177.5 Y78.0
M3 S0
G0 X191.5 Y78.0
M3 S255
G1 X191.5 Y78.0
M3 S255
G1 X223.5 Y78.0
M3 S0
G0 X234.0 Y78.0
M3 S255
G1 X234.0 Y78.0
M3 S255
G1 X237.5 Y78.0
M3 S0
G0 X282.0 Y78.0
M3 S255
G1 X282.0 Y78.0
M3 S255
G1 X285.5 Y78.0
M3 S0
G0 X317.5 Y78.0
M3 S255
G1 X317.5 Y78.0
M3 S255
G1 X321.5 Y78.0
M3 S0
M5 S0
G0 X321.5 Y78.5
M3 S255
G1 X321.5 Y78.5
M3 S255
G1 X317.5 Y78.5
M3 S0
G0 X285.5 Y78.5
M3 S255
G1 X285.5 Y78.5
M3 S255
G1 X282.0 Y78.5
M3 S0
G0 X237.5 Y78.5
M3 S255
G1 X237.5 Y78.5
M3 S255
G1 X234.0 Y78.5
M3 S0
G0 X223.5 Y78.5
M3 S255
G1 X223.5 Y78.5
M3 S255
G1 X191.5 Y78.5
M3 S0
G0 X177.5 Y78.5
M3 S255
G1 X177.5 Y78.5
M3 S255
G1 X147.0 Y78.5
M3 S0
G0 X117.0 Y78.5
M3 S255
G1 X117.0 Y78.5
M3 S255
G1 X90.0 Y78.5
M3 S0
M5 S0
G0 X90.0 Y79.0
M3 S255
G1 X90.0 Y79.0
M3 S255
G1 X117.0 Y79.0
M3 S0
G0 X147.0 Y79.0
M3 S255
G1 X147.0 Y79.0
M3 S255
G1 X177.5 Y79.0
M3 S0
G0 X191.5 Y79.0
M3 S255
G1 X191.5 Y79.0
M3 S255
G1 X223.5 Y79.0
M3 S0
G0 X234.0 Y79.0
M3 S255
G1 X234.0 Y79.0
M3 S255
G1 X237.5 Y79.0
M3 S0
G0 X282.0 Y79.0
M3 S255
G1 X282.0 Y79.0
M3 S255
G1 X285.5 Y79.0
M3 S0
G0 X317.5 Y79.0
M3 S255
G1 X317.5 Y79.0
M3 S255
G1 X321.5 Y79.0
M3 S0
M5 S0
G0 X321.5 Y79.5
M3 S255
G1 X321.5 Y79.5
M3 S255
G1 X317.5 Y79.5
M3 S0
G0 X285.5 Y79.5
M3 S255
G1 X285.5 Y79.5
M3 S255
G1 X282.0 Y79.5
M3 S0
G0 X237.5 Y79.5
M3 S255
G1 X237.5 Y79.5
M3 S255
G1 X234.0 Y79.5
M3 S0
G0 X223.5 Y79.5
M3 S255
G1 X223.5 Y79.5
M3 S255
G1 X191.5 Y79.5
M3 S0
G0 X177.5 Y79.5
M3 S255
G1 X177.5 Y79.5
M3 S255
G1 X147.0 Y79.5
M3 S0
G0 X117.0 Y79.5
M3 S255
G1 X117.0 Y79.5
M3 S255
G1 X90.0 Y79.5
M3 S0
M5 S0
G0 X149.0 Y80.0
M3 S255
G1 X149.0 Y80.0
M3 S255
G1 X175.5 Y80.0
M3 S0
G0 X189.5 Y80.0
M3 S255
G1 X189.5 Y80.0
M3 S255
G1 X221.5 Y80.0
M3 S0
G0 X236.0 Y80.0
M3 S255
G1 X236.0 Y80.0
M3 S255
G1 X239.5 Y80.0
M3 S0
G0 X284.0 Y80.0
M3 S255
G1 X284.0 Y80.0
M3 S255
G1 X287.5 Y80.0
M3 S0
G0 X317.5 Y80.0
M3 S255
G1 X317.5 Y80.0
M3 S255
G1 X321.5 Y80.0
M3 S0
M5 S0
G0 X321.5 Y80.5
M3 S255
G1 X321.5 Y80.5
M3 S255
G1 X317.5 Y80.5
M3 S0
G0 X287.5 Y80.5
M3 S255
G1 X287.5 Y80.5
M3 S255
G1 X284.0 Y80.5
M3 S0
G0 X239.5 Y80.5
M3 S255
G1 X239.5 Y80.5
M3 S255
G1 X236.0 Y80.5
M3 S0
G0 X221.5 Y80.5
M3 S255
G1 X221.5 Y80.5
M3 S255
G1 X189.5 Y80.5
M3 S0
G0 X175.5 Y80.5
M3 S255
G1 X175.5 Y80.5
M3 S255
G1 X149.0 Y80.5
M3 S0
M5 S0
G0 X149.0 Y81.0
M3 S255
G1 X149.0 Y81.0
M3 S255
G1 X175.5 Y81.0
M3 S0
G0 X189.5 Y81.0
M3 S255
G1 X189.5 Y81.0
M3 S255
G1 X221.5 Y81.0
M3 S0
G0 X236.0 Y81.0
M3 S255
G1 X236.0 Y81.0
M3 S255
G1 X239.5 Y81.0
M3 S0
G0 X284.0 Y81.0
M3 S255
G1 X284.0 Y81.0
M3 S255
G1 X287.5 Y81.0
M3 S0
G0 X317.5 Y81.0
M3 S255
G1 X317.5 Y81.0
M3 S255
G1 X321.5 Y81.0
M3 S0
M5 S0
G0 X321.5 Y81.5
M3 S255
G1 X321.5 Y81.5
M3 S255
G1 X317.5 Y81.5
M3 S0
G0 X287.5 Y81.5
M3 S255
G1 X287.5 Y81.5
M3 S255
G1 X284.0 Y81.5
M3 S0
G0 X239.5 Y81.5
M3 S255
G1 X239.5 Y81.5
M3 S255
G1 X236.0 Y81.5
M3 S0
G0 X221.5 Y81.5
M3 S255
G1 X221.5 Y81.5
M3 S255
G1 X189.5 Y81.5
M3 S0
G0 X175.5 Y81.5
M3 S255
G1 X175.5 Y81.5
M3 S255
G1 X149.0 Y81.5
M3 S0
M5 S0
G0 X149.0 Y82.0
M3 S255
G1 X149.0 Y82.0
M3 S255
G1 X175.5 Y82.0
M3 S0
G0 X189.5 Y82.0
M3 S255
G1 X189.5 Y82.0
M3 S255
G1 X220.0 Y82.0
M3 S0
G0 X237.5 Y82.0
M3 S255
G1 X237.5 Y82.0
M3 S255
G1 X239.5 Y82.0
M3 S0
G0 X285.5 Y82.0
M3 S255
G1 X285.5 Y82.0
M3 S255
G1 X289.5 Y82.0
M3 S0
G0 X317.5 Y82.0
M3 S255
G1 X317.5 Y82.0
M3 S255
G1 X321.5 Y82.0
M3 S0
M5 S0
G0 X321.5 Y82.5
M3 S255
G1 X321.5 Y82.5
M3 S255
G1 X317.5 Y82.5
M3 S0
G0 X289.5 Y82.5
M3 S255
G1 X289.5 Y82.5
M3 S255
G1 X285.5 Y82.5
M3 S0
G0 X239.5 Y82.5
M3 S255
G1 X239.5 Y82.5
M3 S255
G1 X237.5 Y82.5
M3 S0
G0 X220.0 Y82.5
M3 S255
G1 X220.0 Y82.5
M3 S255
G1 X189.5 Y82.5
M3 S0
G0 X175.5 Y82.5
M3 S255
G1 X175.5 Y82.5
M3 S255
G1 X149.0 Y82.5
M3 S0
M5 S0
G0 X149.0 Y83.0
M3 S255
G1 X149.0 Y83.0
M3 S255
G1 X175.5 Y83.0
M3 S0
G0 X189.5 Y83.0
M3 S255
G1 X189.5 Y83.0
M3 S255
G1 X220.0 Y83.0
M3 S0
G0 X237.5 Y83.0
M3 S255
G1 X237.5 Y83.0
M3 S255
G1 X239.5 Y83.0
M3 S0
G0 X285.5 Y83.0
M3 S255
G1 X285.5 Y83.0
M3 S255
G1 X289.5 Y83.0
M3 S0
G0 X317.5 Y83.0
M3 S255
G1 X317.5 Y83.0
M3 S255
G1 X321.5 Y83.0
M3 S0
M5 S0
G0 X321.5 Y83.5
M3 S255
G1 X321.5 Y83.5
M3 S255
G1 X317.5 Y83.5
M3 S0
G0 X291.0 Y83.5
M3 S255
G1 X291.0 Y83.5
M3 S255
G1 X287.5 Y83.5
M3 S0
G0 X239.5 Y83.5
M3 S255
G1 X239.5 Y83.5
M3 S255
G1 X237.5 Y83.5
M3 S0
G0 X218.0 Y83.5
M3 S255
G1 X218.0 Y83.5
M3 S255
G1 X188.0 Y83.5
M3 S0
G0 X173.5 Y83.5
M3 S255
G1 X173.5 Y83.5
M3 S255
G1 X149.0 Y83.5
M3 S0
M5 S0
G0 X149.0 Y84.0
M3 S255
G1 X149.0 Y84.0
M3 S255
G1 X173.5 Y84.0
M3 S0
G0 X188.0 Y84.0
M3 S255
G1 X188.0 Y84.0
M3 S255
G1 X218.0 Y84.0
M3 S0
G0 X237.5 Y84.0
M3 S255
G1 X237.5 Y84.0
M3 S255
G1 X239.5 Y84.0
M3 S0
G0 X287.5 Y84.0
M3 S255
G1 X287.5 Y84.0
M3 S255
G1 X291.0 Y84.0
M3 S0
G0 X317.5 Y84.0
M3 S255
G1 X317.5 Y84.0
M3 S255
G1 X321.5 Y84.0
M3 S0
M5 S0
G0 X321.5 Y84.5
M3 S255
G1 X321.5 Y84.5
M3 S255
G1 X317.5 Y84.5
M3 S0
G0 X291.0 Y84.5
M3 S255
G1 X291.0 Y84.5
M3 S255
G1 X287.5 Y84.5
M3 S0
G0 X239.5 Y84.5
M3 S255
G1 X239.5 Y84.5
M3 S255
G1 X237.5 Y84.5
M3 S0
G0 X218.0 Y84.5
M3 S255
G1 X218.0 Y84.5
M3 S255
G1 X188.0 Y84.5
M3 S0
G0 X173.5 Y84.5
M3 S255
G1 X173.5 Y84.5
M3 S255
G1 X149.0 Y84.5
M3 S0
M5 S0
G0 X149.0 Y85.0
M3 S255
G1 X149.0 Y85.0
M3 S255
G1 X173.5 Y85.0
M3 S0
G0 X188.0 Y85.0
M3 S255
G1 X188.0 Y85.0
M3 S255
G1 X218.0 Y85.0
M3 S0
G0 X237.5 Y85.0
M3 S255
G1 X237.5 Y85.0
M3 S255
G1 X239.5 Y85.0
M3 S0
G0 X287.5 Y85.0
M3 S255
G1 X287.5 Y85.0
M3 S255
G1 X291.0 Y85.0
M3 S0
G0 X317.5 Y85.0
M3 S255
G1 X317.5 Y85.0
M3 S255
G1 X321.5 Y85.0
M3 S0
M5 S0
G0 X319.5 Y85.5
M3 S255
G1 X319.5 Y85.5
M3 S255
G1 X317.5 Y85.5
M3 S0
G0 X293.0 Y85.5
M3 S255
G1 X293.0 Y85.5
M3 S255
G1 X291.0 Y85.5
M3 S0
G0 X239.5 Y85.5
M3 S255
G1 X239.5 Y85.5
M3 S255
G1 X237.5 Y85.5
M3 S0
G0 X216.5 Y85.5
M3 S255
G1 X216.5 Y85.5
M3 S255
G1 X186.0 Y85.5
M3 S0
G0 X173.5 Y85.5
M3 S255
G1 X173.5 Y85.5
M3 S255
G1 X147.0 Y85.5
M3 S0
M5 S0
G0 X147.0 Y86.0
M3 S255
G1 X147.0 Y86.0
M3 S255
G1 X173.5 Y86.0
M3 S0
G0 X186.0 Y86.0
M3 S255
G1 X186.0 Y86.0
M3 S255
G1 X216.5 Y86.0
M3 S0
G0 X237.5 Y86.0
M3 S255
G1 X237.5 Y86.0
M3 S255
G1 X239.5 Y86.0
M3 S0
G0 X291.0 Y86.0
M3 S255
G1 X291.0 Y86.0
M3 S255
G1 X293.0 Y86.0
M3 S0
G0 X317.5 Y86.0
M3 S255
G1 X317.5 Y86.0
M3 S255
G1 X319.5 Y86.0
M3 S0
M5 S0
G0 X319.5 Y86.5
M3 S255
G1 X319.5 Y86.5
M3 S255
G1 X317.5 Y86.5
M3 S0
G0 X293.0 Y86.5
M3 S255
G1 X293.0 Y86.5
M3 S255
G1 X291.0 Y86.5
M3 S0
G0 X239.5 Y86.5
M3 S255
G1 X239.5 Y86.5
M3 S255
G1 X237.5 Y86.5
M3 S0
G0 X216.5 Y86.5
M3 S255
G1 X216.5 Y86.5
M3 S255
G1 X186.0 Y86.5
M3 S0
G0 X173.5 Y86.5
M3 S255
G1 X173.5 Y86.5
M3 S255
G1 X147.0 Y86.5
M3 S0
M5 S0
G0 X147.0 Y87.0
M3 S255
G1 X147.0 Y87.0
M3 S255
G1 X172.0 Y87.0
M3 S0
G0 X186.0 Y87.0
M3 S255
G1 X186.0 Y87.0
M3 S255
G1 X214.5 Y87.0
M3 S0
G0 X221.5 Y87.0
M3 S255
G1 X221.5 Y87.0
M3 S255
G1 X241.5 Y87.0
M3 S0
G0 X293.0 Y87.0
M3 S255
G1 X293.0 Y87.0
M3 S255
G1 X294.5 Y87.0
M3 S0
G0 X317.5 Y87.0
M3 S255
G1 X317.5 Y87.0
M3 S255
G1 X319.5 Y87.0
M3 S0
M5 S0
G0 X319.5 Y87.5
M3 S255
G1 X319.5 Y87.5
M3 S255
G1 X317.5 Y87.5
M3 S0
G0 X294.5 Y87.5
M3 S255
G1 X294.5 Y87.5
M3 S255
G1 X293.0 Y87.5
M3 S0
G0 X241.5 Y87.5
M3 S255
G1 X241.5 Y87.5
M3 S255
G1 X221.5 Y87.5
M3 S0
G0 X214.5 Y87.5
M3 S255
G1 X214.5 Y87.5
M3 S255
G1 X186.0 Y87.5
M3 S0
G0 X172.0 Y87.5
M3 S255
G1 X172.0 Y87.5
M3 S255
G1 X147.0 Y87.5
M3 S0
M5 S0
G0 X147.0 Y88.0
M3 S255
G1 X147.0 Y88.0
M3 S255
G1 X172.0 Y88.0
M3 S0
G0 X186.0 Y88.0
M3 S255
G1 X186.0 Y88.0
M3 S255
G1 X214.5 Y88.0
M3 S0
G0 X221.5 Y88.0
M3 S255
G1 X221.5 Y88.0
M3 S255
G1 X241.5 Y88.0
M3 S0
G0 X293.0 Y88.0
M3 S255
G1 X293.0 Y88.0
M3 S255
G1 X294.5 Y88.0
M3 S0
G0 X317.5 Y88.0
M3 S255
G1 X317.5 Y88.0
M3 S255
G1 X319.5 Y88.0
M3 S0
M5 S0
G0 X319.5 Y88.5
M3 S255
G1 X319.5 Y88.5
M3 S255
G1 X317.5 Y88.5
M3 S0
G0 X294.5 Y88.5
M3 S255
G1 X294.5 Y88.5
M3 S255
G1 X293.0 Y88.5
M3 S0
G0 X241.5 Y88.5
M3 S255
G1 X241.5 Y88.5
M3 S255
G1 X221.5 Y88.5
M3 S0
G0 X214.5 Y88.5
M3 S255
G1 X214.5 Y88.5
M3 S255
G1 X186.0 Y88.5
M3 S0
G0 X172.0 Y88.5
M3 S255
G1 X172.0 Y88.5
M3 S255
G1 X147.0 Y88.5
M3 S0
M5 S0
G0 X147.0 Y89.0
M3 S255
G1 X147.0 Y89.0
M3 S255
G1 X172.0 Y89.0
M3 S0
G0 X184.5 Y89.0
M3 S255
G1 X184.5 Y89.0
M3 S255
G1 X214.5 Y89.0
M3 S0
G0 X216.5 Y89.0
M3 S255
G1 X216.5 Y89.0
M3 S255
G1 X225.5 Y89.0
M3 S0
G0 X239.5 Y89.0
M3 S255
G1 X239.5 Y89.0
M3 S255
G1 X241.5 Y89.0
M3 S0
G0 X294.5 Y89.0
M3 S255
G1 X294.5 Y89.0
M3 S255
G1 X298.0 Y89.0
M3 S0
G0 X316.0 Y89.0
M3 S255
G1 X316.0 Y89.0
M3 S255
G1 X319.5 Y89.0
M3 S0
M5 S0
G0 X319.5 Y89.5
M3 S255
G1 X319.5 Y89.5
M3 S255
G1 X316.0 Y89.5
M3 S0
G0 X298.0 Y89.5
M3 S255
G1 X298.0 Y89.5
M3 S255
G1 X294.5 Y89.5
M3 S0
G0 X241.5 Y89.5
M3 S255
G1 X241.5 Y89.5
M3 S255
G1 X239.5 Y89.5
M3 S0
G0 X225.5 Y89.5
M3 S255
G1 X225.5 Y89.5
M3 S255
G1 X216.5 Y89.5
M3 S0
G0 X214.5 Y89.5
M3 S255
G1 X214.5 Y89.5
M3 S255
G1 X184.5 Y89.5
M3 S0
G0 X172.0 Y89.5
M3 S255
G1 X172.0 Y89.5
M3 S255
G1 X147.0 Y89.5
M3 S0
M5 S0
G0 X147.0 Y90.0
M3 S255
G1 X147.0 Y90.0
M3 S255
G1 X172.0 Y90.0
M3 S0
G0 X184.5 Y90.0
M3 S255
G1 X184.5 Y90.0
M3 S255
G1 X214.5 Y90.0
M3 S0
G0 X216.5 Y90.0
M3 S255
G1 X216.5 Y90.0
M3 S255
G1 X225.5 Y90.0
M3 S0
G0 X239.5 Y90.0
M3 S255
G1 X239.5 Y90.0
M3 S255
G1 X241.5 Y90.0
M3 S0
G0 X294.5 Y90.0
M3 S255
G1 X294.5 Y90.0
M3 S255
G1 X298.0 Y90.0
M3 S0
G0 X316.0 Y90.0
M3 S255
G1 X316.0 Y90.0
M3 S255
G1 X319.5 Y90.0
M3 S0
M5 S0
G0 X319.5 Y90.5
M3 S255
G1 X319.5 Y90.5
M3 S255
G1 X316.0 Y90.5
M3 S0
G0 X301.5 Y90.5
M3 S255
G1 X301.5 Y90.5
M3 S255
G1 X298.0 Y90.5
M3 S0
G0 X243.0 Y90.5
M3 S255
G1 X243.0 Y90.5
M3 S255
G1 X239.5 Y90.5
M3 S0
G0 X218.0 Y90.5
M3 S255
G1 X218.0 Y90.5
M3 S255
G1 X184.5 Y90.5
M3 S0
G0 X170.0 Y90.5
M3 S255
G1 X170.0 Y90.5
M3 S255
G1 X145.5 Y90.5
M3 S0
M5 S0
G0 X145.5 Y91.0
M3 S255
G1 X145.5 Y91.0
M3 S255
G1 X170.0 Y91.0
M3 S0
G0 X184.5 Y91.0
M3 S255
G1 X184.5 Y91.0
M3 S255
G1 X218.0 Y91.0
M3 S0
G0 X239.5 Y91.0
M3 S255
G1 X239.5 Y91.0
M3 S255
G1 X243.0 Y91.0
M3 S0
G0 X298.0 Y91.0
M3 S255
G1 X298.0 Y91.0
M3 S255
G1 X301.5 Y91.0
M3 S0
G0 X316.0 Y91.0
M3 S255
G1 X316.0 Y91.0
M3 S255
G1 X319.5 Y91.0
M3 S0
M5 S0
G0 X319.5 Y91.5
M3 S255
G1 X319.5 Y91.5
M3 S255
G1 X316.0 Y91.5
M3 S0
G0 X301.5 Y91.5
M3 S255
G1 X301.5 Y91.5
M3 S255
G1 X298.0 Y91.5
M3 S0
G0 X243.0 Y91.5
M3 S255
G1 X243.0 Y91.5
M3 S255
G1 X239.5 Y91.5
M3 S0
G0 X218.0 Y91.5
M3 S255
G1 X218.0 Y91.5
M3 S255
G1 X184.5 Y91.5
M3 S0
G0 X170.0 Y91.5
M3 S255
G1 X170.0 Y91.5
M3 S255
G1 X145.5 Y91.5
M3 S0
M5 S0
G0 X145.5 Y92.0
M3 S255
G1 X145.5 Y92.0
M3 S255
G1 X170.0 Y92.0
M3 S0
G0 X184.5 Y92.0
M3 S255
G1 X184.5 Y92.0
M3 S255
G1 X218.0 Y92.0
M3 S0
G0 X239.5 Y92.0
M3 S255
G1 X239.5 Y92.0
M3 S255
G1 X243.0 Y92.0
M3 S0
G0 X298.0 Y92.0
M3 S255
G1 X298.0 Y92.0
M3 S255
G1 X301.5 Y92.0
M3 S0
G0 X316.0 Y92.0
M3 S255
G1 X316.0 Y92.0
M3 S255
G1 X319.5 Y92.0
M3 S0
M5 S0
G0 X319.5 Y92.5
M3 S255
G1 X319.5 Y92.5
M3 S255
G1 X312.5 Y92.5
M3 S0
G0 X307.0 Y92.5
M3 S255
G1 X307.0 Y92.5
M3 S255
G1 X303.5 Y92.5
M3 S0
G0 X243.0 Y92.5
M3 S255
G1 X243.0 Y92.5
M3 S255
G1 X241.5 Y92.5
M3 S0
G0 X214.5 Y92.5
M3 S255
G1 X214.5 Y92.5
M3 S255
G1 X182.5 Y92.5
M3 S0
G0 X170.0 Y92.5
M3 S255
G1 X170.0 Y92.5
M3 S255
G1 X145.5 Y92.5
M3 S0
M5 S0
G0 X145.5 Y93.0
M3 S255
G1 X145.5 Y93.0
M3 S255
G1 X170.0 Y93.0
M3 S0
G0 X182.5 Y93.0
M3 S255
G1 X182.5 Y93.0
M3 S255
G1 X214.5 Y93.0
M3 S0
G0 X241.5 Y93.0
M3 S255
G1 X241.5 Y93.0
M3 S255
G1 X243.0 Y93.0
M3 S0
G0 X303.5 Y93.0
M3 S255
G1 X303.5 Y93.0
M3 S255
G1 X307.0 Y93.0
M3 S0
G0 X312.5 Y93.0
M3 S255
G1 X312.5 Y93.0
M3 S255
G1 X319.5 Y93.0
M3 S0
M5 S0
G0 X319.5 Y93.5
M3 S255
G1 X319.5 Y93.5
M3 S255
G1 X312.5 Y93.5
M3 S0
G0 X307.0 Y93.5
M3 S255
G1 X307.0 Y93.5
M3 S255
G1 X303.5 Y93.5
M3 S0
G0 X243.0 Y93.5
M3 S255
G1 X243.0 Y93.5
M3 S255
G1 X241.5 Y93.5
M3 S0
G0 X214.5 Y93.5
M3 S255
G1 X214.5 Y93.5
M3 S255
G1 X182.5 Y93.5
M3 S0
G0 X170.0 Y93.5
M3 S255
G1 X170.0 Y93.5
M3 S255
G1 X145.5 Y93.5
M3 S0
M5 S0
G0 X143.5 Y94.0
M3 S255
G1 X143.5 Y94.0
M3 S255
G1 X168.5 Y94.0
M3 S0
G0 X182.5 Y94.0
M3 S255
G1 X182.5 Y94.0
M3 S255
G1 X211.0 Y94.0
M3 S0
G0 X241.5 Y94.0
M3 S255
G1 X241.5 Y94.0
M3 S255
G1 X245.0 Y94.0
M3 S0
G0 X316.0 Y94.0
M3 S255
G1 X316.0 Y94.0
M3 S255
G1 X319.5 Y94.0
M3 S0
M5 S0
G0 X319.5 Y94.5
M3 S255
G1 X319.5 Y94.5
M3 S255
G1 X316.0 Y94.5
M3 S0
G0 X245.0 Y94.5
M3 S255
G1 X245.0 Y94.5
M3 S255
G1 X241.5 Y94.5
M3 S0
G0 X211.0 Y94.5
M3 S255
G1 X211.0 Y94.5
M3 S255
G1 X182.5 Y94.5
M3 S0
G0 X168.5 Y94.5
M3 S255
G1 X168.5 Y94.5
M3 S255
G1 X143.5 Y94.5
M3 S0
M5 S0
G0 X143.5 Y95.0
M3 S255
G1 X143.5 Y95.0
M3 S255
G1 X168.5 Y95.0
M3 S0
G0 X182.5 Y95.0
M3 S255
G1 X182.5 Y95.0
M3 S255
G1 X211.0 Y95.0
M3 S0
G0 X241.5 Y95.0
M3 S255
G1 X241.5 Y95.0
M3 S255
G1 X245.0 Y95.0
M3 S0
G0 X316.0 Y95.0
M3 S255
G1 X316.0 Y95.0
M3 S255
G1 X319.5 Y95.0
M3 S0
M5 S0
G0 X319.5 Y95.5
M3 S255
G1 X319.5 Y95.5
M3 S255
G1 X316.0 Y95.5
M3 S0
G0 X245.0 Y95.5
M3 S255
G1 X245.0 Y95.5
M3 S255
G1 X241.5 Y95.5
M3 S0
G0 X211.0 Y95.5
M3 S255
G1 X211.0 Y95.5
M3 S255
G1 X182.5 Y95.5
M3 S0
G0 X168.5 Y95.5
M3 S255
G1 X168.5 Y95.5
M3 S255
G1 X143.5 Y95.5
M3 S0
M5 S0
G0 X143.5 Y96.0
M3 S255
G1 X143.5 Y96.0
M3 S255
G1 X209.5 Y96.0
M3 S0
G0 X243.0 Y96.0
M3 S255
G1 X243.0 Y96.0
M3 S255
G1 X246.5 Y96.0
M3 S0
G0 X316.0 Y96.0
M3 S255
G1 X316.0 Y96.0
M3 S255
G1 X319.5 Y96.0
M3 S0
M5 S0
G0 X319.5 Y96.5
M3 S255
G1 X319.5 Y96.5
M3 S255
G1 X316.0 Y96.5
M3 S0
G0 X246.5 Y96.5
M3 S255
G1 X246.5 Y96.5
M3 S255
G1 X243.0 Y96.5
M3 S0
G0 X209.5 Y96.5
M3 S255
G1 X209.5 Y96.5
M3 S255
G1 X143.5 Y96.5
M3 S0
M5 S0
G0 X143.5 Y97.0
M3 S255
G1 X143.5 Y97.0
M3 S255
G1 X209.5 Y97.0
M3 S0
G0 X243.0 Y97.0
M3 S255
G1 X243.0 Y97.0
M3 S255
G1 X246.5 Y97.0
M3 S0
G0 X316.0 Y97.0
M3 S255
G1 X316.0 Y97.0
M3 S255
G1 X319.5 Y97.0
M3 S0
M5 S0
G0 X319.5 Y97.5
M3 S255
G1 X319.5 Y97.5
M3 S255
G1 X316.0 Y97.5
M3 S0
G0 X246.5 Y97.5
M3 S255
G1 X246.5 Y97.5
M3 S255
G1 X243.0 Y97.5
M3 S0
G0 X209.5 Y97.5
M3 S255
G1 X209.5 Y97.5
M3 S255
G1 X143.5 Y97.5
M3 S0
M5 S0
G0 X141.5 Y98.0
M3 S255
G1 X141.5 Y98.0
M3 S255
G1 X170.0 Y98.0
M3 S0
G0 X189.5 Y98.0
M3 S255
G1 X189.5 Y98.0
M3 S255
G1 X207.5 Y98.0
M3 S0
G0 X245.0 Y98.0
M3 S255
G1 X245.0 Y98.0
M3 S255
G1 X246.5 Y98.0
M3 S0
G0 X316.0 Y98.0
M3 S255
G1 X316.0 Y98.0
M3 S255
G1 X317.5 Y98.0
M3 S0
M5 S0
G0 X317.5 Y98.5
M3 S255
G1 X317.5 Y98.5
M3 S255
G1 X316.0 Y98.5
M3 S0
G0 X246.5 Y98.5
M3 S255
G1 X246.5 Y98.5
M3 S255
G1 X245.0 Y98.5
M3 S0
G0 X207.5 Y98.5
M3 S255
G1 X207.5 Y98.5
M3 S255
G1 X189.5 Y98.5
M3 S0
G0 X170.0 Y98.5
M3 S255
G1 X170.0 Y98.5
M3 S255
G1 X141.5 Y98.5
M3 S0
M5 S0
G0 X141.5 Y99.0
M3 S255
G1 X141.5 Y99.0
M3 S255
G1 X170.0 Y99.0
M3 S0
G0 X189.5 Y99.0
M3 S255
G1 X189.5 Y99.0
M3 S255
G1 X207.5 Y99.0
M3 S0
G0 X245.0 Y99.0
M3 S255
G1 X245.0 Y99.0
M3 S255
G1 X246.5 Y99.0
M3 S0
G0 X316.0 Y99.0
M3 S255
G1 X316.0 Y99.0
M3 S255
G1 X317.5 Y99.0
M3 S0
M5 S0
G0 X317.5 Y99.5
M3 S255
G1 X317.5 Y99.5
M3 S255
G1 X316.0 Y99.5
M3 S0
G0 X248.5 Y99.5
M3 S255
G1 X248.5 Y99.5
M3 S255
G1 X245.0 Y99.5
M3 S0
G0 X205.5 Y99.5
M3 S255
G1 X205.5 Y99.5
M3 S255
G1 X197.0 Y99.5
M3 S0
G0 X161.5 Y99.5
M3 S255
G1 X161.5 Y99.5
M3 S255
G1 X141.5 Y99.5
M3 S0
M5 S0
G0 X141.5 Y100.0
M3 S255
G1 X141.5 Y100.0
M3 S255
G1 X161.5 Y100.0
M3 S0
G0 X197.0 Y100.0
M3 S255
G1 X197.0 Y100.0
M3 S255
G1 X205.5 Y100.0
M3 S0
G0 X245.0 Y100.0
M3 S255
G1 X245.0 Y100.0
M3 S255
G1 X248.5 Y100.0
M3 S0
G0 X316.0 Y100.0
M3 S255
G1 X316.0 Y100.0
M3 S255
G1 X317.5 Y100.0
M3 S0
M5 S0
G0 X317.5 Y100.5
M3 S255
G1 X317.5 Y100.5
M3 S255
G1 X316.0 Y100.5
M3 S0
G0 X248.5 Y100.5
M3 S255
G1 X248.5 Y100.5
M3 S255
G1 X245.0 Y100.5
M3 S0
G0 X205.5 Y100.5
M3 S255
G1 X205.5 Y100.5
M3 S255
G1 X197.0 Y100.5
M3 S0
G0 X161.5 Y100.5
M3 S255
G1 X161.5 Y100.5
M3 S255
G1 X141.5 Y100.5
M3 S0
M5 S0
G0 X141.5 Y101.0
M3 S255
G1 X141.5 Y101.0
M3 S255
G1 X161.5 Y101.0
M3 S0
G0 X197.0 Y101.0
M3 S255
G1 X197.0 Y101.0
M3 S255
G1 X205.5 Y101.0
M3 S0
G0 X245.0 Y101.0
M3 S255
G1 X245.0 Y101.0
M3 S255
G1 X248.5 Y101.0
M3 S0
G0 X316.0 Y101.0
M3 S255
G1 X316.0 Y101.0
M3 S255
G1 X317.5 Y101.0
M3 S0
M5 S0
G0 X317.5 Y101.5
M3 S255
G1 X317.5 Y101.5
M3 S255
G1 X314.0 Y101.5
M3 S0
G0 X250.0 Y101.5
M3 S255
G1 X250.0 Y101.5
M3 S255
G1 X246.5 Y101.5
M3 S0
G0 X205.5 Y101.5
M3 S255
G1 X205.5 Y101.5
M3 S255
G1 X202.0 Y101.5
M3 S0
G0 X154.0 Y101.5
M3 S255
G1 X154.0 Y101.5
M3 S255
G1 X141.5 Y101.5
M3 S0
M5 S0
G0 X141.5 Y102.0
M3 S255
G1 X141.5 Y102.0
M3 S255
G1 X154.0 Y102.0
M3 S0
G0 X202.0 Y102.0
M3 S255
G1 X202.0 Y102.0
M3 S255
G1 X205.5 Y102.0
M3 S0
G0 X246.5 Y102.0
M3 S255
G1 X246.5 Y102.0
M3 S255
G1 X250.0 Y102.0
M3 S0
G0 X314.0 Y102.0
M3 S255
G1 X314.0 Y102.0
M3 S255
G1 X317.5 Y102.0
M3 S0
M5 S0
G0 X317.5 Y102.5
M3 S255
G1 X317.5 Y102.5
M3 S255
G1 X314.0 Y102.5
M3 S0
G0 X250.0 Y102.5
M3 S255
G1 X250.0 Y102.5
M3 S255
G1 X246.5 Y102.5
M3 S0
G0 X205.5 Y102.5
M3 S255
G1 X205.5 Y102.5
M3 S255
G1 X202.0 Y102.5
M3 S0
G0 X154.0 Y102.5
M3 S255
G1 X154.0 Y102.5
M3 S255
G1 X141.5 Y102.5
M3 S0
M5 S0
G0 X140.0 Y103.0
M3 S255
G1 X140.0 Y103.0
M3 S255
G1 X154.0 Y103.0
M3 S0
G0 X205.5 Y103.0
M3 S255
G1 X205.5 Y103.0
M3 S255
G1 X209.5 Y103.0
M3 S0
G0 X246.5 Y103.0
M3 S255
G1 X246.5 Y103.0
M3 S255
G1 X250.0 Y103.0
M3 S0
G0 X314.0 Y103.0
M3 S255
G1 X314.0 Y103.0
M3 S255
G1 X316.0 Y103.0
M3 S0
M5 S0
G0 X316.0 Y103.5
M3 S255
G1 X316.0 Y103.5
M3 S255
G1 X314.0 Y103.5
M3 S0
G0 X250.0 Y103.5
M3 S255
G1 X250.0 Y103.5
M3 S255
G1 X246.5 Y103.5
M3 S0
G0 X209.5 Y103.5
M3 S255
G1 X209.5 Y103.5
M3 S255
G1 X205.5 Y103.5
M3 S0
G0 X154.0 Y103.5
M3 S255
G1 X154.0 Y103.5
M3 S255
G1 X140.0 Y103.5
M3 S0
M5 S0
G0 X140.0 Y104.0
M3 S255
G1 X140.0 Y104.0
M3 S255
G1 X154.0 Y104.0
M3 S0
G0 X205.5 Y104.0
M3 S255
G1 X205.5 Y104.0
M3 S255
G1 X209.5 Y104.0
M3 S0
G0 X246.5 Y104.0
M3 S255
G1 X246.5 Y104.0
M3 S255
G1 X250.0 Y104.0
M3 S0
G0 X314.0 Y104.0
M3 S255
G1 X314.0 Y104.0
M3 S255
G1 X316.0 Y104.0
M3 S0
M5 S0
G0 X316.0 Y104.5
M3 S255
G1 X316.0 Y104.5
M3 S255
G1 X314.0 Y104.5
M3 S0
G0 X250.0 Y104.5
M3 S255
G1 X250.0 Y104.5
M3 S255
G1 X246.5 Y104.5
M3 S0
G0 X209.5 Y104.5
M3 S255
G1 X209.5 Y104.5
M3 S255
G1 X205.5 Y104.5
M3 S0
G0 X154.0 Y104.5
M3 S255
G1 X154.0 Y104.5
M3 S255
G1 X140.0 Y104.5
M3 S0
M5 S0
G0 X140.0 Y105.0
M3 S255
G1 X140.0 Y105.0
M3 S255
G1 X154.0 Y105.0
M3 S0
G0 X207.5 Y105.0
M3 S255
G1 X207.5 Y105.0
M3 S255
G1 X213.0 Y105.0
M3 S0
G0 X248.5 Y105.0
M3 S255
G1 X248.5 Y105.0
M3 S255
G1 X252.0 Y105.0
M3 S0
G0 X312.5 Y105.0
M3 S255
G1 X312.5 Y105.0
M3 S255
G1 X316.0 Y105.0
M3 S0
M5 S0
G0 X316.0 Y105.5
M3 S255
G1 X316.0 Y105.5
M3 S255
G1 X312.5 Y105.5
M3 S0
G0 X252.0 Y105.5
M3 S255
G1 X252.0 Y105.5
M3 S255
G1 X248.5 Y105.5
M3 S0
G0 X213.0 Y105.5
M3 S255
G1 X213.0 Y105.5
M3 S255
G1 X207.5 Y105.5
M3 S0
G0 X154.0 Y105.5
M3 S255
G1 X154.0 Y105.5
M3 S255
G1 X140.0 Y105.5
M3 S0
M5 S0
G0 X140.0 Y106.0
M3 S255
G1 X140.0 Y106.0
M3 S255
G1 X154.0 Y106.0
M3 S0
G0 X207.5 Y106.0
M3 S255
G1 X207.5 Y106.0
M3 S255
G1 X213.0 Y106.0
M3 S0
G0 X248.5 Y106.0
M3 S255
G1 X248.5 Y106.0
M3 S255
G1 X252.0 Y106.0
M3 S0
G0 X312.5 Y106.0
M3 S255
G1 X312.5 Y106.0
M3 S255
G1 X316.0 Y106.0
M3 S0
M5 S0
G0 X314.0 Y106.5
M3 S255
G1 X314.0 Y106.5
M3 S255
G1 X312.5 Y106.5
M3 S0
G0 X253.5 Y106.5
M3 S255
G1 X253.5 Y106.5
M3 S255
G1 X250.0 Y106.5
M3 S0
G0 X214.5 Y106.5
M3 S255
G1 X214.5 Y106.5
M3 S255
G1 X211.0 Y106.5
M3 S0
G0 X145.5 Y106.5
M3 S255
G1 X145.5 Y106.5
M3 S255
G1 X138.0 Y106.5
M3 S0
M5 S0
G0 X138.0 Y107.0
M3 S255
G1 X138.0 Y107.0
M3 S255
G1 X145.5 Y107.0
M3 S0
G0 X211.0 Y107.0
M3 S255
G1 X211.0 Y107.0
M3 S255
G1 X214.5 Y107.0
M3 S0
G0 X250.0 Y107.0
M3 S255
G1 X250.0 Y107.0
M3 S255
G1 X253.5 Y107.0
M3 S0
G0 X312.5 Y107.0
M3 S255
G1 X312.5 Y107.0
M3 S255
G1 X314.0 Y107.0
M3 S0
M5 S0
G0 X314.0 Y107.5
M3 S255
G1 X314.0 Y107.5
M3 S255
G1 X312.5 Y107.5
M3 S0
G0 X253.5 Y107.5
M3 S255
G1 X253.5 Y107.5
M3 S255
G1 X250.0 Y107.5
M3 S0
G0 X214.5 Y107.5
M3 S255
G1 X214.5 Y107.5
M3 S255
G1 X211.0 Y107.5
M3 S0
G0 X145.5 Y107.5
M3 S255
G1 X145.5 Y107.5
M3 S255
G1 X138.0 Y107.5
M3 S0
M5 S0
G0 X138.0 Y108.0
M3 S255
G1 X138.0 Y108.0
M3 S255
G1 X145.5 Y108.0
M3 S0
G0 X211.0 Y108.0
M3 S255
G1 X211.0 Y108.0
M3 S255
G1 X214.5 Y108.0
M3 S0
G0 X250.0 Y108.0
M3 S255
G1 X250.0 Y108.0
M3 S255
G1 X253.5 Y108.0
M3 S0
G0 X312.5 Y108.0
M3 S255
G1 X312.5 Y108.0
M3 S255
G1 X314.0 Y108.0
M3 S0
M5 S0
G0 X314.0 Y108.5
M3 S255
G1 X314.0 Y108.5
M3 S255
G1 X310.5 Y108.5
M3 S0
G0 X255.5 Y108.5
M3 S255
G1 X255.5 Y108.5
M3 S255
G1 X252.0 Y108.5
M3 S0
G0 X213.0 Y108.5
M3 S255
G1 X213.0 Y108.5
M3 S255
G1 X211.0 Y108.5
M3 S0
G0 X152.5 Y108.5
M3 S255
G1 X152.5 Y108.5
M3 S255
G1 X150.5 Y108.5
M3 S0
G0 X140.0 Y108.5
M3 S255
G1 X140.0 Y108.5
M3 S255
G1 X136.5 Y108.5
M3 S0
M5 S0
G0 X136.5 Y109.0
M3 S255
G1 X136.5 Y109.0
M3 S255
G1 X140.0 Y109.0
M3 S0
G0 X150.5 Y109.0
M3 S255
G1 X150.5 Y109.0
M3 S255
G1 X152.5 Y109.0
M3 S0
G0 X211.0 Y109.0
M3 S255
G1 X211.0 Y109.0
M3 S255
G1 X213.0 Y109.0
M3 S0
G0 X252.0 Y109.0
M3 S255
G1 X252.0 Y109.0
M3 S255
G1 X255.5 Y109.0
M3 S0
G0 X310.5 Y109.0
M3 S255
G1 X310.5 Y109.0
M3 S255
G1 X314.0 Y109.0
M3 S0
M5 S0
G0 X314.0 Y109.5
M3 S255
G1 X314.0 Y109.5
M3 S255
G1 X310.5 Y109.5
M3 S0
G0 X255.5 Y109.5
M3 S255
G1 X255.5 Y109.5
M3 S255
G1 X252.0 Y109.5
M3 S0
G0 X213.0 Y109.5
M3 S255
G1 X213.0 Y109.5
M3 S255
G1 X211.0 Y109.5
M3 S0
G0 X152.5 Y109.5
M3 S255
G1 X152.5 Y109.5
M3 S255
G1 X150.5 Y109.5
M3 S0
G0 X140.0 Y109.5
M3 S255
G1 X140.0 Y109.5
M3 S255
G1 X136.5 Y109.5
M3 S0
M5 S0
G0 X133.0 Y110.0
M3 S255
G1 X133.0 Y110.0
M3 S255
G1 X136.5 Y110.0
M3 S0
G0 X150.5 Y110.0
M3 S255
G1 X150.5 Y110.0
M3 S255
G1 X152.5 Y110.0
M3 S0
G0 X170.0 Y110.0
M3 S255
G1 X170.0 Y110.0
M3 S255
G1 X172.0 Y110.0
M3 S0
G0 X209.5 Y110.0
M3 S255
G1 X209.5 Y110.0
M3 S255
G1 X211.0 Y110.0
M3 S0
G0 X253.5 Y110.0
M3 S255
G1 X253.5 Y110.0
M3 S255
G1 X257.5 Y110.0
M3 S0
G0 X309.0 Y110.0
M3 S255
G1 X309.0 Y110.0
M3 S255
G1 X312.5 Y110.0
M3 S0
M5 S0
G0 X312.5 Y110.5
M3 S255
G1 X312.5 Y110.5
M3 S255
G1 X309.0 Y110.5
M3 S0
G0 X257.5 Y110.5
M3 S255
G1 X257.5 Y110.5
M3 S255
G1 X253.5 Y110.5
M3 S0
G0 X211.0 Y110.5
M3 S255
G1 X211.0 Y110.5
M3 S255
G1 X209.5 Y110.5
M3 S0
G0 X172.0 Y110.5
M3 S255
G1 X172.0 Y110.5
M3 S255
G1 X170.0 Y110.5
M3 S0
G0 X152.5 Y110.5
M3 S255
G1 X152.5 Y110.5
M3 S255
G1 X150.5 Y110.5
M3 S0
G0 X136.5 Y110.5
M3 S255
G1 X136.5 Y110.5
M3 S255
G1 X133.0 Y110.5
M3 S0
M5 S0
G0 X133.0 Y111.0
M3 S255
G1 X133.0 Y111.0
M3 S255
G1 X136.5 Y111.0
M3 S0
G0 X150.5 Y111.0
M3 S255
G1 X150.5 Y111.0
M3 S255
G1 X152.5 Y111.0
M3 S0
G0 X170.0 Y111.0
M3 S255
G1 X170.0 Y111.0
M3 S255
G1 X172.0 Y111.0
M3 S0
G0 X209.5 Y111.0
M3 S255
G1 X209.5 Y111.0
M3 S255
G1 X211.0 Y111.0
M3 S0
G0 X253.5 Y111.0
M3 S255
G1 X253.5 Y111.0
M3 S255
G1 X257.5 Y111.0
M3 S0
G0 X309.0 Y111.0
M3 S255
G1 X309.0 Y111.0
M3 S255
G1 X312.5 Y111.0
M3 S0
M5 S0
G0 X312.5 Y111.5
M3 S255
G1 X312.5 Y111.5
M3 S255
G1 X309.0 Y111.5
M3 S0
G0 X257.5 Y111.5
M3 S255
G1 X257.5 Y111.5
M3 S255
G1 X253.5 Y111.5
M3 S0
G0 X211.0 Y111.5
M3 S255
G1 X211.0 Y111.5
M3 S255
G1 X209.5 Y111.5
M3 S0
G0 X172.0 Y111.5
M3 S255
G1 X172.0 Y111.5
M3 S255
G1 X170.0 Y111.5
M3 S0
G0 X152.5 Y111.5
M3 S255
G1 X152.5 Y111.5
M3 S255
G1 X150.5 Y111.5
M3 S0
G0 X136.5 Y111.5
M3 S255
G1 X136.5 Y111.5
M3 S255
G1 X133.0 Y111.5
M3 S0
M5 S0
G0 X129.5 Y112.0
M3 S255
G1 X129.5 Y112.0
M3 S255
G1 X133.0 Y112.0
M3 S0
G0 X150.5 Y112.0
M3 S255
G1 X150.5 Y112.0
M3 S255
G1 X152.5 Y112.0
M3 S0
G0 X166.5 Y112.0
M3 S255
G1 X166.5 Y112.0
M3 S255
G1 X170.0 Y112.0
M3 S0
G0 X207.5 Y112.0
M3 S255
G1 X207.5 Y112.0
M3 S255
G1 X211.0 Y112.0
M3 S0
G0 X255.5 Y112.0
M3 S255
G1 X255.5 Y112.0
M3 S255
G1 X259.0 Y112.0
M3 S0
G0 X307.0 Y112.0
M3 S255
G1 X307.0 Y112.0
M3 S255
G1 X310.5 Y112.0
M3 S0
M5 S0
G0 X310.5 Y112.5
M3 S255
G1 X310.5 Y112.5
M3 S255
G1 X307.0 Y112.5
M3 S0
G0 X259.0 Y112.5
M3 S255
G1 X259.0 Y112.5
M3 S255
G1 X255.5 Y112.5
M3 S0
G0 X211.0 Y112.5
M3 S255
G1 X211.0 Y112.5
M3 S255
G1 X207.5 Y112.5
M3 S0
G0 X170.0 Y112.5
M3 S255
G1 X170.0 Y112.5
M3 S255
G1 X166.5 Y112.5
M3 S0
G0 X152.5 Y112.5
M3 S255
G1 X152.5 Y112.5
M3 S255
G1 X150.5 Y112.5
M3 S0
G0 X133.0 Y112.5
M3 S255
G1 X133.0 Y112.5
M3 S255
G1 X129.5 Y112.5
M3 S0
M5 S0
G0 X129.5 Y113.0
M3 S255
G1 X129.5 Y113.0
M3 S255
G1 X133.0 Y113.0
M3 S0
G0 X150.5 Y113.0
M3 S255
G1 X150.5 Y113.0
M3 S255
G1 X152.5 Y113.0
M3 S0
G0 X166.5 Y113.0
M3 S255
G1 X166.5 Y113.0
M3 S255
G1 X170.0 Y113.0
M3 S0
G0 X207.5 Y113.0
M3 S255
G1 X207.5 Y113.0
M3 S255
G1 X211.0 Y113.0
M3 S0
G0 X255.5 Y113.0
M3 S255
G1 X255.5 Y113.0
M3 S255
G1 X259.0 Y113.0
M3 S0
G0 X307.0 Y113.0
M3 S255
G1 X307.0 Y113.0
M3 S255
G1 X310.5 Y113.0
M3 S0
M5 S0
G0 X310.5 Y113.5
M3 S255
G1 X310.5 Y113.5
M3 S255
G1 X307.0 Y113.5
M3 S0
G0 X259.0 Y113.5
M3 S255
G1 X259.0 Y113.5
M3 S255
G1 X255.5 Y113.5
M3 S0
G0 X211.0 Y113.5
M3 S255
G1 X211.0 Y113.5
M3 S255
G1 X207.5 Y113.5
M3 S0
G0 X170.0 Y113.5
M3 S255
G1 X170.0 Y113.5
M3 S255
G1 X166.5 Y113.5
M3 S0
G0 X152.5 Y113.5
M3 S255
G1 X152.5 Y113.5
M3 S255
G1 X150.5 Y113.5
M3 S0
G0 X133.0 Y113.5
M3 S255
G1 X133.0 Y113.5
M3 S255
G1 X129.5 Y113.5
M3 S0
M5 S0
G0 X127.5 Y114.0
M3 S255
G1 X127.5 Y114.0
M3 S255
G1 X129.5 Y114.0
M3 S0
G0 X150.5 Y114.0
M3 S255
G1 X150.5 Y114.0
M3 S255
G1 X152.5 Y114.0
M3 S0
G0 X165.0 Y114.0
M3 S255
G1 X165.0 Y114.0
M3 S255
G1 X168.5 Y114.0
M3 S0
G0 X202.0 Y114.0
M3 S255
G1 X202.0 Y114.0
M3 S255
G1 X204.0 Y114.0
M3 S0
G0 X205.5 Y114.0
M3 S255
G1 X205.5 Y114.0
M3 S255
G1 X209.5 Y114.0
M3 S0
G0 X257.5 Y114.0
M3 S255
G1 X257.5 Y114.0
M3 S255
G1 X261.0 Y114.0
M3 S0
G0 X305.5 Y114.0
M3 S255
G1 X305.5 Y114.0
M3 S255
G1 X310.5 Y114.0
M3 S0
M5 S0
G0 X310.5 Y114.5
M3 S255
G1 X310.5 Y114.5
M3 S255
G1 X305.5 Y114.5
M3 S0
G0 X261.0 Y114.5
M3 S255
G1 X261.0 Y114.5
M3 S255
G1 X257.5 Y114.5
M3 S0
G0 X209.5 Y114.5
M3 S255
G1 X209.5 Y114.5
M3 S255
G1 X205.5 Y114.5
M3 S0
G0 X204.0 Y114.5
M3 S255
G1 X204.0 Y114.5
M3 S255
G1 X202.0 Y114.5
M3 S0
G0 X168.5 Y114.5
M3 S255
G1 X168.5 Y114.5
M3 S255
G1 X165.0 Y114.5
M3 S0
G0 X152.5 Y114.5
M3 S255
G1 X152.5 Y114.5
M3 S255
G1 X150.5 Y114.5
M3 S0
G0 X129.5 Y114.5
M3 S255
G1 X129.5 Y114.5
M3 S255
G1 X127.5 Y114.5
M3 S0
M5 S0
G0 X127.5 Y115.0
M3 S255
G1 X127.5 Y115.0
M3 S255
G1 X129.5 Y115.0
M3 S0
G0 X150.5 Y115.0
M3 S255
G1 X150.5 Y115.0
M3 S255
G1 X152.5 Y115.0
M3 S0
G0 X165.0 Y115.0
M3 S255
G1 X165.0 Y115.0
M3 S255
G1 X168.5 Y115.0
M3 S0
G0 X202.0 Y115.0
M3 S255
G1 X202.0 Y115.0
M3 S255
G1 X204.0 Y115.0
M3 S0
G0 X205.5 Y115.0
M3 S255
G1 X205.5 Y115.0
M3 S255
G1 X209.5 Y115.0
M3 S0
G0 X257.5 Y115.0
M3 S255
G1 X257.5 Y115.0
M3 S255
G1 X261.0 Y115.0
M3 S0
G0 X305.5 Y115.0
M3 S255
G1 X305.5 Y115.0
M3 S255
G1 X310.5 Y115.0
M3 S0
M5 S0
G0 X309.0 Y115.5
M3 S255
G1 X309.0 Y115.5
M3 S255
G1 X303.5 Y115.5
M3 S0
G0 X262.5 Y115.5
M3 S255
G1 X262.5 Y115.5
M3 S255
G1 X259.0 Y115.5
M3 S0
G0 X207.5 Y115.5
M3 S255
G1 X207.5 Y115.5
M3 S255
G1 X202.0 Y115.5
M3 S0
G0 X166.5 Y115.5
M3 S255
G1 X166.5 Y115.5
M3 S255
G1 X165.0 Y115.5
M3 S0
G0 X152.5 Y115.5
M3 S255
G1 X152.5 Y115.5
M3 S255
G1 X150.5 Y115.5
M3 S0
G0 X127.5 Y115.5
M3 S255
G1 X127.5 Y115.5
M3 S255
G1 X124.0 Y115.5
M3 S0
M5 S0
G0 X124.0 Y116.0
M3 S255
G1 X124.0 Y116.0
M3 S255
G1 X127.5 Y116.0
M3 S0
G0 X150.5 Y116.0
M3 S255
G1 X150.5 Y116.0
M3 S255
G1 X152.5 Y116.0
M3 S0
G0 X165.0 Y116.0
M3 S255
G1 X165.0 Y116.0
M3 S255
G1 X166.5 Y116.0
M3 S0
G0 X202.0 Y116.0
M3 S255
G1 X202.0 Y116.0
M3 S255
G1 X207.5 Y116.0
M3 S0
G0 X259.0 Y116.0
M3 S255
G1 X259.0 Y116.0
M3 S255
G1 X262.5 Y116.0
M3 S0
G0 X303.5 Y116.0
M3 S255
G1 X303.5 Y116.0
M3 S255
G1 X309.0 Y116.0
M3 S0
M5 S0
G0 X309.0 Y116.5
M3 S255
G1 X309.0 Y116.5
M3 S255
G1 X303.5 Y116.5
M3 S0
G0 X262.5 Y116.5
M3 S255
G1 X262.5 Y116.5
M3 S255
G1 X259.0 Y116.5
M3 S0
G0 X207.5 Y116.5
M3 S255
G1 X207.5 Y116.5
M3 S255
G1 X202.0 Y116.5
M3 S0
G0 X166.5 Y116.5
M3 S255
G1 X166.5 Y116.5
M3 S255
G1 X165.0 Y116.5
M3 S0
G0 X152.5 Y116.5
M3 S255
G1 X152.5 Y116.5
M3 S255
G1 X150.5 Y116.5
M3 S0
G0 X127.5 Y116.5
M3 S255
G1 X127.5 Y116.5
M3 S255
G1 X124.0 Y116.5
M3 S0
M5 S0
G0 X124.0 Y117.0
M3 S255
G1 X124.0 Y117.0
M3 S255
G1 X127.5 Y117.0
M3 S0
G0 X150.5 Y117.0
M3 S255
G1 X150.5 Y117.0
M3 S255
G1 X152.5 Y117.0
M3 S0
G0 X165.0 Y117.0
M3 S255
G1 X165.0 Y117.0
M3 S255
G1 X166.5 Y117.0
M3 S0
G0 X202.0 Y117.0
M3 S255
G1 X202.0 Y117.0
M3 S255
G1 X207.5 Y117.0
M3 S0
G0 X259.0 Y117.0
M3 S255
G1 X259.0 Y117.0
M3 S255
G1 X262.5 Y117.0
M3 S0
G0 X303.5 Y117.0
M3 S255
G1 X303.5 Y117.0
M3 S255
G1 X309.0 Y117.0
M3 S0
M5 S0
G0 X307.0 Y117.5
M3 S255
G1 X307.0 Y117.5
M3 S255
G1 X301.5 Y117.5
M3 S0
G0 X266.0 Y117.5
M3 S255
G1 X266.0 Y117.5
M3 S255
G1 X261.0 Y117.5
M3 S0
G0 X207.5 Y117.5
M3 S255
G1 X207.5 Y117.5
M3 S255
G1 X204.0 Y117.5
M3 S0
G0 X165.0 Y117.5
M3 S255
G1 X165.0 Y117.5
M3 S255
G1 X163.0 Y117.5
M3 S0
G0 X152.5 Y117.5
M3 S255
G1 X152.5 Y117.5
M3 S255
G1 X149.0 Y117.5
M3 S0
G0 X124.0 Y117.5
M3 S255
G1 X124.0 Y117.5
M3 S255
G1 X122.0 Y117.5
M3 S0
M5 S0
G0 X122.0 Y118.0
M3 S255
G1 X122.0 Y118.0
M3 S255
G1 X124.0 Y118.0
M3 S0
G0 X149.0 Y118.0
M3 S255
G1 X149.0 Y118.0
M3 S255
G1 X152.5 Y118.0
M3 S0
G0 X163.0 Y118.0
M3 S255
G1 X163.0 Y118.0
M3 S255
G1 X165.0 Y118.0
M3 S0
G0 X204.0 Y118.0
M3 S255
G1 X204.0 Y118.0
M3 S255
G1 X207.5 Y118.0
M3 S0
G0 X261.0 Y118.0
M3 S255
G1 X261.0 Y118.0
M3 S255
G1 X266.0 Y118.0
M3 S0
G0 X301.5 Y118.0
M3 S255
G1 X301.5 Y118.0
M3 S255
G1 X307.0 Y118.0
M3 S0
M5 S0
G0 X307.0 Y118.5
M3 S255
G1 X307.0 Y118.5
M3 S255
G1 X301.5 Y118.5
M3 S0
G0 X266.0 Y118.5
M3 S255
G1 X266.0 Y118.5
M3 S255
G1 X261.0 Y118.5
M3 S0
G0 X207.5 Y118.5
M3 S255
G1 X207.5 Y118.5
M3 S255
G1 X204.0 Y118.5
M3 S0
G0 X165.0 Y118.5
M3 S255
G1 X165.0 Y118.5
M3 S255
G1 X163.0 Y118.5
M3 S0
G0 X152.5 Y118.5
M3 S255
G1 X152.5 Y118.5
M3 S255
G1 X149.0 Y118.5
M3 S0
G0 X124.0 Y118.5
M3 S255
G1 X124.0 Y118.5
M3 S255
G1 X122.0 Y118.5
M3 S0
M5 S0
G0 X120.5 Y119.0
M3 S255
G1 X120.5 Y119.0
M3 S255
G1 X122.0 Y119.0
M3 S0
G0 X149.0 Y119.0
M3 S255
G1 X149.0 Y119.0
M3 S255
G1 X152.5 Y119.0
M3 S0
G0 X163.0 Y119.0
M3 S255
G1 X163.0 Y119.0
M3 S255
G1 X165.0 Y119.0
M3 S0
G0 X205.5 Y119.0
M3 S255
G1 X205.5 Y119.0
M3 S255
G1 X207.5 Y119.0
M3 S0
G0 X264.5 Y119.0
M3 S255
G1 X264.5 Y119.0
M3 S255
G1 X268.0 Y119.0
M3 S0
G0 X300.0 Y119.0
M3 S255
G1 X300.0 Y119.0
M3 S255
G1 X305.5 Y119.0
M3 S0
M5 S0
G0 X305.5 Y119.5
M3 S255
G1 X305.5 Y119.5
M3 S255
G1 X300.0 Y119.5
M3 S0
G0 X268.0 Y119.5
M3 S255
G1 X268.0 Y119.5
M3 S255
G1 X264.5 Y119.5
M3 S0
G0 X207.5 Y119.5
M3 S255
G1 X207.5 Y119.5
M3 S255
G1 X205.5 Y119.5
M3 S0
G0 X165.0 Y119.5
M3 S255
G1 X165.0 Y119.5
M3 S255
G1 X163.0 Y119.5
M3 S0
G0 X152.5 Y119.5
M3 S255
G1 X152.5 Y119.5
M3 S255
G1 X149.0 Y119.5
M3 S0
G0 X122.0 Y119.5
M3 S255
G1 X122.0 Y119.5
M3 S255
G1 X120.5 Y119.5
M3 S0
M5 S0
G0 X120.5 Y120.0
M3 S255
G1 X120.5 Y120.0
M3 S255
G1 X122.0 Y120.0
M3 S0
G0 X149.0 Y120.0
M3 S255
G1 X149.0 Y120.0
M3 S255
G1 X152.5 Y120.0
M3 S0
G0 X163.0 Y120.0
M3 S255
G1 X163.0 Y120.0
M3 S255
G1 X165.0 Y120.0
M3 S0
G0 X205.5 Y120.0
M3 S255
G1 X205.5 Y120.0
M3 S255
G1 X207.5 Y120.0
M3 S0
G0 X264.5 Y120.0
M3 S255
G1 X264.5 Y120.0
M3 S255
G1 X268.0 Y120.0
M3 S0
G0 X300.0 Y120.0
M3 S255
G1 X300.0 Y120.0
M3 S255
G1 X305.5 Y120.0
M3 S0
M5 S0
G0 X305.5 Y120.5
M3 S255
G1 X305.5 Y120.5
M3 S255
G1 X300.0 Y120.5
M3 S0
G0 X268.0 Y120.5
M3 S255
G1 X268.0 Y120.5
M3 S255
G1 X264.5 Y120.5
M3 S0
G0 X207.5 Y120.5
M3 S255
G1 X207.5 Y120.5
M3 S255
G1 X205.5 Y120.5
M3 S0
G0 X165.0 Y120.5
M3 S255
G1 X165.0 Y120.5
M3 S255
G1 X163.0 Y120.5
M3 S0
G0 X152.5 Y120.5
M3 S255
G1 X152.5 Y120.5
M3 S255
G1 X149.0 Y120.5
M3 S0
G0 X122.0 Y120.5
M3 S255
G1 X122.0 Y120.5
M3 S255
G1 X120.5 Y120.5
M3 S0
M5 S0
G0 X117.0 Y121.0
M3 S255
G1 X117.0 Y121.0
M3 S255
G1 X120.5 Y121.0
M3 S0
G0 X147.0 Y121.0
M3 S255
G1 X147.0 Y121.0
M3 S255
G1 X150.5 Y121.0
M3 S0
G0 X161.5 Y121.0
M3 S255
G1 X161.5 Y121.0
M3 S255
G1 X163.0 Y121.0
M3 S0
G0 X207.5 Y121.0
M3 S255
G1 X207.5 Y121.0
M3 S255
G1 X209.5 Y121.0
M3 S0
G0 X266.0 Y121.0
M3 S255
G1 X266.0 Y121.0
M3 S255
G1 X273.5 Y121.0
M3 S0
G0 X294.5 Y121.0
M3 S255
G1 X294.5 Y121.0
M3 S255
G1 X301.5 Y121.0
M3 S0
M5 S0
G0 X301.5 Y121.5
M3 S255
G1 X301.5 Y121.5
M3 S255
G1 X294.5 Y121.5
M3 S0
G0 X273.5 Y121.5
M3 S255
G1 X273.5 Y121.5
M3 S255
G1 X266.0 Y121.5
M3 S0
G0 X209.5 Y121.5
M3 S255
G1 X209.5 Y121.5
M3 S255
G1 X207.5 Y121.5
M3 S0
G0 X163.0 Y121.5
M3 S255
G1 X163.0 Y121.5
M3 S255
G1 X161.5 Y121.5
M3 S0
G0 X150.5 Y121.5
M3 S255
G1 X150.5 Y121.5
M3 S255
G1 X147.0 Y121.5
M3 S0
G0 X120.5 Y121.5
M3 S255
G1 X120.5 Y121.5
M3 S255
G1 X117.0 Y121.5
M3 S0
M5 S0
G0 X117.0 Y122.0
M3 S255
G1 X117.0 Y122.0
M3 S255
G1 X120.5 Y122.0
M3 S0
G0 X147.0 Y122.0
M3 S255
G1 X147.0 Y122.0
M3 S255
G1 X150.5 Y122.0
M3 S0
G0 X161.5 Y122.0
M3 S255
G1 X161.5 Y122.0
M3 S255
G1 X163.0 Y122.0
M3 S0
G0 X207.5 Y122.0
M3 S255
G1 X207.5 Y122.0
M3 S255
G1 X209.5 Y122.0
M3 S0
G0 X266.0 Y122.0
M3 S255
G1 X266.0 Y122.0
M3 S255
G1 X273.5 Y122.0
M3 S0
G0 X294.5 Y122.0
M3 S255
G1 X294.5 Y122.0
M3 S255
G1 X301.5 Y122.0
M3 S0
M5 S0
G0 X298.0 Y122.5
M3 S255
G1 X298.0 Y122.5
M3 S255
G1 X271.5 Y122.5
M3 S0
G0 X211.0 Y122.5
M3 S255
G1 X211.0 Y122.5
M3 S255
G1 X207.5 Y122.5
M3 S0
G0 X147.0 Y122.5
M3 S255
G1 X147.0 Y122.5
M3 S255
G1 X143.5 Y122.5
M3 S0
G0 X117.0 Y122.5
M3 S255
G1 X117.0 Y122.5
M3 S255
G1 X115.0 Y122.5
M3 S0
M5 S0
G0 X115.0 Y123.0
M3 S255
G1 X115.0 Y123.0
M3 S255
G1 X117.0 Y123.0
M3 S0
G0 X143.5 Y123.0
M3 S255
G1 X143.5 Y123.0
M3 S255
G1 X147.0 Y123.0
M3 S0
G0 X207.5 Y123.0
M3 S255
G1 X207.5 Y123.0
M3 S255
G1 X211.0 Y123.0
M3 S0
G0 X271.5 Y123.0
M3 S255
G1 X271.5 Y123.0
M3 S255
G1 X298.0 Y123.0
M3 S0
M5 S0
G0 X298.0 Y123.5
M3 S255
G1 X298.0 Y123.5
M3 S255
G1 X271.5 Y123.5
M3 S0
G0 X211.0 Y123.5
M3 S255
G1 X211.0 Y123.5
M3 S255
G1 X207.5 Y123.5
M3 S0
G0 X147.0 Y123.5
M3 S255
G1 X147.0 Y123.5
M3 S255
G1 X143.5 Y123.5
M3 S0
G0 X117.0 Y123.5
M3 S255
G1 X117.0 Y123.5
M3 S255
G1 X115.0 Y123.5
M3 S0
M5 S0
G0 X115.0 Y124.0
M3 S255
G1 X115.0 Y124.0
M3 S255
G1 X117.0 Y124.0
M3 S0
G0 X143.5 Y124.0
M3 S255
G1 X143.5 Y124.0
M3 S255
G1 X147.0 Y124.0
M3 S0
G0 X207.5 Y124.0
M3 S255
G1 X207.5 Y124.0
M3 S255
G1 X211.0 Y124.0
M3 S0
G0 X271.5 Y124.0
M3 S255
G1 X271.5 Y124.0
M3 S255
G1 X298.0 Y124.0
M3 S0
M5 S0
G0 X293.0 Y124.5
M3 S255
G1 X293.0 Y124.5
M3 S255
G1 X280.5 Y124.5
M3 S0
G0 X211.0 Y124.5
M3 S255
G1 X211.0 Y124.5
M3 S255
G1 X209.5 Y124.5
M3 S0
G0 X205.5 Y124.5
M3 S255
G1 X205.5 Y124.5
M3 S255
G1 X200.5 Y124.5
M3 S0
G0 X145.5 Y124.5
M3 S255
G1 X145.5 Y124.5
M3 S255
G1 X141.5 Y124.5
M3 S0
G0 X115.0 Y124.5
M3 S255
G1 X115.0 Y124.5
M3 S255
G1 X113.5 Y124.5
M3 S0
M5 S0
G0 X113.5 Y125.0
M3 S255
G1 X113.5 Y125.0
M3 S255
G1 X115.0 Y125.0
M3 S0
G0 X141.5 Y125.0
M3 S255
G1 X141.5 Y125.0
M3 S255
G1 X145.5 Y125.0
M3 S0
G0 X200.5 Y125.0
M3 S255
G1 X200.5 Y125.0
M3 S255
G1 X205.5 Y125.0
M3 S0
G0 X209.5 Y125.0
M3 S255
G1 X209.5 Y125.0
M3 S255
G1 X211.0 Y125.0
M3 S0
G0 X280.5 Y125.0
M3 S255
G1 X280.5 Y125.0
M3 S255
G1 X293.0 Y125.0
M3 S0
M5 S0
G0 X293.0 Y125.5
M3 S255
G1 X293.0 Y125.5
M3 S255
G1 X280.5 Y125.5
M3 S0
G0 X211.0 Y125.5
M3 S255
G1 X211.0 Y125.5
M3 S255
G1 X209.5 Y125.5
M3 S0
G0 X205.5 Y125.5
M3 S255
G1 X205.5 Y125.5
M3 S255
G1 X200.5 Y125.5
M3 S0
G0 X145.5 Y125.5
M3 S255
G1 X145.5 Y125.5
M3 S255
G1 X141.5 Y125.5
M3 S0
G0 X115.0 Y125.5
M3 S255
G1 X115.0 Y125.5
M3 S255
G1 X113.5 Y125.5
M3 S0
M5 S0
G0 X111.5 Y126.0
M3 S255
G1 X111.5 Y126.0
M3 S255
G1 X113.5 Y126.0
M3 S0
G0 X140.0 Y126.0
M3 S255
G1 X140.0 Y126.0
M3 S255
G1 X141.5 Y126.0
M3 S0
G0 X159.5 Y126.0
M3 S255
G1 X159.5 Y126.0
M3 S255
G1 X161.5 Y126.0
M3 S0
G0 X198.5 Y126.0
M3 S255
G1 X198.5 Y126.0
M3 S255
G1 X202.0 Y126.0
M3 S0
G0 X205.5 Y126.0
M3 S255
G1 X205.5 Y126.0
M3 S255
G1 X207.5 Y126.0
M3 S0
G0 X211.0 Y126.0
M3 S255
G1 X211.0 Y126.0
M3 S255
G1 X213.0 Y126.0
M3 S0
G0 X282.0 Y126.0
M3 S255
G1 X282.0 Y126.0
M3 S255
G1 X284.0 Y126.0
M3 S0
M5 S0
G0 X284.0 Y126.5
M3 S255
G1 X284.0 Y126.5
M3 S255
G1 X282.0 Y126.5
M3 S0
G0 X213.0 Y126.5
M3 S255
G1 X213.0 Y126.5
M3 S255
G1 X211.0 Y126.5
M3 S0
G0 X207.5 Y126.5
M3 S255
G1 X207.5 Y126.5
M3 S255
G1 X205.5 Y126.5
M3 S0
G0 X202.0 Y126.5
M3 S255
G1 X202.0 Y126.5
M3 S255
