H5 S0 
F100
G0 Z0 ( for some grbl senders compatibility )
 
G0 X19.0 Y0.0 
M3 S255
G1 X19.0 Y0.0 
M3 S255
G1 X19.25 Y0.0 
M3 S0
M5 S0
G0 X23.3 Y0.05 
M3 S255
G1 X23.3 Y0.05 
M3 S255
G1 X22.5 Y0.05 
M3 S0
G0 X19.450000000000003 Y0.05 
M3 S255
G1 X19.450000000000003 Y0.05 
M3 S255
G1 X18.75 Y0.05 
M3 S0
M5 S0
G0 X18.650000000000002 Y0.1 
M3 S255
G1 X18.650000000000002 Y0.1 
M3 S255
G1 X20.85 Y0.1 
M3 S0
G0 X22.35 Y0.1 
M3 S255
G1 X22.35 Y0.1 
M3 S255
G1 X24.200000000000003 Y0.1 
M3 S0
M5 S0
G0 X24.450000000000003 Y0.15000000000000002 
M3 S255
G1 X24.450000000000003 Y0.15000000000000002 
M3 S255
G1 X22.3 Y0.15000000000000002 
M3 S0
G0 X21.55 Y0.15000000000000002 
M3 S255
G1 X21.55 Y0.15000000000000002 
M3 S255
G1 X18.3 Y0.15000000000000002 
M3 S0
M5 S0
G0 X17.45 Y0.2 
M3 S255
G1 X17.45 Y0.2 
M3 S255
G1 X22.700000000000003 Y0.2 
M3 S0
G0 X23.25 Y0.2 
M3 S255
G1 X23.25 Y0.2 
M3 S255
G1 X24.25 Y0.2 
M3 S0
G0 X24.35 Y0.2 
M3 S255
G1 X24.35 Y0.2 
M3 S255
G1 X24.650000000000002 Y0.2 
M3 S0
M5 S0
G0 X24.650000000000002 Y0.25 
M3 S255
G1 X24.650000000000002 Y0.25 
M3 S255
G1 X24.35 Y0.25 
M3 S0
G0 X24.3 Y0.25 
M3 S255
G1 X24.3 Y0.25 
M3 S255
G1 X24.25 Y0.25 
M3 S0
G0 X24.200000000000003 Y0.25 
M3 S255
G1 X24.200000000000003 Y0.25 
M3 S255
G1 X23.25 Y0.25 
M3 S0
G0 X22.700000000000003 Y0.25 
M3 S255
G1 X22.700000000000003 Y0.25 
M3 S255
G1 X17.45 Y0.25 
M3 S0
M5 S0
G0 X16.85 Y0.30000000000000004 
M3 S255
G1 X16.85 Y0.30000000000000004 
M3 S255
G1 X19.8 Y0.30000000000000004 
M3 S0
G0 X20.0 Y0.30000000000000004 
M3 S255
G1 X20.0 Y0.30000000000000004 
M3 S255
G1 X20.25 Y0.30000000000000004 
M3 S0
G0 X20.450000000000003 Y0.30000000000000004 
M3 S255
G1 X20.450000000000003 Y0.30000000000000004 
M3 S255
G1 X23.05 Y0.30000000000000004 
M3 S0
G0 X23.75 Y0.30000000000000004 
M3 S255
G1 X23.75 Y0.30000000000000004 
M3 S255
G1 X23.85 Y0.30000000000000004 
M3 S0
G0 X24.55 Y0.30000000000000004 
M3 S255
G1 X24.55 Y0.30000000000000004 
M3 S255
G1 X24.700000000000003 Y0.30000000000000004 
M3 S0
M5 S0
G0 X24.8 Y0.35000000000000003 
M3 S255
G1 X24.8 Y0.35000000000000003 
M3 S255
G1 X24.650000000000002 Y0.35000000000000003 
M3 S0
G0 X23.55 Y0.35000000000000003 
M3 S255
G1 X23.55 Y0.35000000000000003 
M3 S255
G1 X21.900000000000002 Y0.35000000000000003 
M3 S0
G0 X21.200000000000003 Y0.35000000000000003 
M3 S255
G1 X21.200000000000003 Y0.35000000000000003 
M3 S255
G1 X20.8 Y0.35000000000000003 
M3 S0
G0 X20.150000000000002 Y0.35000000000000003 
M3 S255
G1 X20.150000000000002 Y0.35000000000000003 
M3 S255
G1 X20.0 Y0.35000000000000003 
M3 S0
G0 X19.900000000000002 Y0.35000000000000003 
M3 S255
G1 X19.900000000000002 Y0.35000000000000003 
M3 S255
G1 X19.3 Y0.35000000000000003 
M3 S0
G0 X19.200000000000003 Y0.35000000000000003 
M3 S255
G1 X19.200000000000003 Y0.35000000000000003 
M3 S255
G1 X19.0 Y0.35000000000000003 
M3 S0
G0 X18.95 Y0.35000000000000003 
M3 S255
G1 X18.95 Y0.35000000000000003 
M3 S255
G1 X18.75 Y0.35000000000000003 
M3 S0
G0 X18.7 Y0.35000000000000003 
M3 S255
G1 X18.7 Y0.35000000000000003 
M3 S255
G1 X18.5 Y0.35000000000000003 
M3 S0
G0 X18.45 Y0.35000000000000003 
M3 S255
G1 X18.45 Y0.35000000000000003 
M3 S255
G1 X18.25 Y0.35000000000000003 
M3 S0
G0 X18.05 Y0.35000000000000003 
M3 S255
G1 X18.05 Y0.35000000000000003 
M3 S255
G1 X16.400000000000002 Y0.35000000000000003 
M3 S0
M5 S0
G0 X16.35 Y0.4 
M3 S255
G1 X16.35 Y0.4 
M3 S255
G1 X18.1 Y0.4 
M3 S0
G0 X18.25 Y0.4 
M3 S255
G1 X18.25 Y0.4 
M3 S255
G1 X18.400000000000002 Y0.4 
M3 S0
G0 X18.5 Y0.4 
M3 S255
G1 X18.5 Y0.4 
M3 S255
G1 X18.7 Y0.4 
M3 S0
G0 X18.75 Y0.4 
M3 S255
G1 X18.75 Y0.4 
M3 S255
G1 X19.200000000000003 Y0.4 
M3 S0
G0 X19.3 Y0.4 
M3 S255
G1 X19.3 Y0.4 
M3 S255
G1 X19.900000000000002 Y0.4 
M3 S0
G0 X20.0 Y0.4 
M3 S255
G1 X20.0 Y0.4 
M3 S255
G1 X20.150000000000002 Y0.4 
M3 S0
G0 X20.85 Y0.4 
M3 S255
G1 X20.85 Y0.4 
M3 S255
G1 X21.25 Y0.4 
M3 S0
G0 X21.85 Y0.4 
M3 S255
G1 X21.85 Y0.4 
M3 S255
G1 X23.5 Y0.4 
M3 S0
G0 X24.650000000000002 Y0.4 
M3 S255
G1 X24.650000000000002 Y0.4 
M3 S255
G1 X24.8 Y0.4 
M3 S0
M5 S0
G0 X24.8 Y0.45 
M3 S255
G1 X24.8 Y0.45 
M3 S255
G1 X24.650000000000002 Y0.45 
M3 S0
G0 X23.950000000000003 Y0.45 
M3 S255
G1 X23.950000000000003 Y0.45 
M3 S255
G1 X22.650000000000002 Y0.45 
M3 S0
G0 X21.1 Y0.45 
M3 S255
G1 X21.1 Y0.45 
M3 S255
G1 X20.8 Y0.45 
M3 S0
G0 X20.150000000000002 Y0.45 
M3 S255
G1 X20.150000000000002 Y0.45 
M3 S255
G1 X19.75 Y0.45 
M3 S0
G0 X19.650000000000002 Y0.45 
M3 S255
G1 X19.650000000000002 Y0.45 
M3 S255
G1 X19.25 Y0.45 
M3 S0
G0 X19.1 Y0.45 
M3 S255
G1 X19.1 Y0.45 
M3 S255
G1 X18.8 Y0.45 
M3 S0
G0 X18.7 Y0.45 
M3 S255
G1 X18.7 Y0.45 
M3 S255
G1 X18.55 Y0.45 
M3 S0
G0 X18.400000000000002 Y0.45 
M3 S255
G1 X18.400000000000002 Y0.45 
M3 S255
G1 X18.25 Y0.45 
M3 S0
G0 X18.1 Y0.45 
M3 S255
G1 X18.1 Y0.45 
M3 S255
G1 X17.75 Y0.45 
M3 S0
G0 X17.25 Y0.45 
M3 S255
G1 X17.25 Y0.45 
M3 S255
G1 X15.950000000000001 Y0.45 
M3 S0
M5 S0
G0 X15.5 Y0.5 
M3 S255
G1 X15.5 Y0.5 
M3 S255
G1 X16.7 Y0.5 
M3 S0
G0 X17.75 Y0.5 
M3 S255
G1 X17.75 Y0.5 
M3 S255
G1 X18.1 Y0.5 
M3 S0
G0 X18.25 Y0.5 
M3 S255
G1 X18.25 Y0.5 
M3 S255
G1 X18.400000000000002 Y0.5 
M3 S0
G0 X18.55 Y0.5 
M3 S255
G1 X18.55 Y0.5 
M3 S255
G1 X18.7 Y0.5 
M3 S0
G0 X18.8 Y0.5 
M3 S255
G1 X18.8 Y0.5 
M3 S255
G1 X19.0 Y0.5 
M3 S0
G0 X19.200000000000003 Y0.5 
M3 S255
G1 X19.200000000000003 Y0.5 
M3 S255
G1 X19.650000000000002 Y0.5 
M3 S0
G0 X19.8 Y0.5 
M3 S255
G1 X19.8 Y0.5 
M3 S255
G1 X20.150000000000002 Y0.5 
M3 S0
G0 X23.200000000000003 Y0.5 
M3 S255
G1 X23.200000000000003 Y0.5 
M3 S255
G1 X24.400000000000002 Y0.5 
M3 S0
G0 X24.55 Y0.5 
M3 S255
G1 X24.55 Y0.5 
M3 S255
G1 X24.700000000000003 Y0.5 
M3 S0
M5 S0
G0 X24.700000000000003 Y0.55 
M3 S255
G1 X24.700000000000003 Y0.55 
M3 S255
G1 X24.55 Y0.55 
M3 S0
G0 X24.400000000000002 Y0.55 
M3 S255
G1 X24.400000000000002 Y0.55 
M3 S255
G1 X23.200000000000003 Y0.55 
M3 S0
G0 X20.150000000000002 Y0.55 
M3 S255
G1 X20.150000000000002 Y0.55 
M3 S255
G1 X19.8 Y0.55 
M3 S0
G0 X19.650000000000002 Y0.55 
M3 S255
G1 X19.650000000000002 Y0.55 
M3 S255
G1 X19.200000000000003 Y0.55 
M3 S0
G0 X18.95 Y0.55 
M3 S255
G1 X18.95 Y0.55 
M3 S255
G1 X18.8 Y0.55 
M3 S0
G0 X18.7 Y0.55 
M3 S255
G1 X18.7 Y0.55 
M3 S255
G1 X18.55 Y0.55 
M3 S0
G0 X18.400000000000002 Y0.55 
M3 S255
G1 X18.400000000000002 Y0.55 
M3 S255
G1 X18.25 Y0.55 
M3 S0
G0 X18.1 Y0.55 
M3 S255
G1 X18.1 Y0.55 
M3 S255
G1 X17.75 Y0.55 
M3 S0
G0 X16.7 Y0.55 
M3 S255
G1 X16.7 Y0.55 
M3 S255
G1 X15.5 Y0.55 
M3 S0
M5 S0
G0 X15.200000000000001 Y0.6000000000000001 
M3 S255
G1 X15.200000000000001 Y0.6000000000000001 
M3 S255
G1 X16.2 Y0.6000000000000001 
M3 S0
G0 X17.75 Y0.6000000000000001 
M3 S255
G1 X17.75 Y0.6000000000000001 
M3 S255
G1 X18.1 Y0.6000000000000001 
M3 S0
G0 X18.25 Y0.6000000000000001 
M3 S255
G1 X18.25 Y0.6000000000000001 
M3 S255
G1 X18.400000000000002 Y0.6000000000000001 
M3 S0
G0 X18.55 Y0.6000000000000001 
M3 S255
G1 X18.55 Y0.6000000000000001 
M3 S255
G1 X18.7 Y0.6000000000000001 
M3 S0
G0 X18.75 Y0.6000000000000001 
M3 S255
G1 X18.75 Y0.6000000000000001 
M3 S255
G1 X19.05 Y0.6000000000000001 
M3 S0
G0 X19.200000000000003 Y0.6000000000000001 
M3 S255
G1 X19.200000000000003 Y0.6000000000000001 
M3 S255
G1 X19.6 Y0.6000000000000001 
M3 S0
G0 X19.650000000000002 Y0.6000000000000001 
M3 S255
G1 X19.650000000000002 Y0.6000000000000001 
M3 S255
G1 X19.8 Y0.6000000000000001 
M3 S0
G0 X20.0 Y0.6000000000000001 
M3 S255
G1 X20.0 Y0.6000000000000001 
M3 S255
G1 X20.150000000000002 Y0.6000000000000001 
M3 S0
G0 X22.950000000000003 Y0.6000000000000001 
M3 S255
G1 X22.950000000000003 Y0.6000000000000001 
M3 S255
G1 X23.05 Y0.6000000000000001 
M3 S0
G0 X23.700000000000003 Y0.6000000000000001 
M3 S255
G1 X23.700000000000003 Y0.6000000000000001 
M3 S255
G1 X24.700000000000003 Y0.6000000000000001 
M3 S0
M5 S0
G0 X24.85 Y0.65 
M3 S255
G1 X24.85 Y0.65 
M3 S255
G1 X23.75 Y0.65 
M3 S0
G0 X23.05 Y0.65 
M3 S255
G1 X23.05 Y0.65 
M3 S255
G1 X22.900000000000002 Y0.65 
M3 S0
G0 X20.150000000000002 Y0.65 
M3 S255
G1 X20.150000000000002 Y0.65 
M3 S255
G1 X19.900000000000002 Y0.65 
M3 S0
G0 X19.6 Y0.65 
M3 S255
G1 X19.6 Y0.65 
M3 S255
G1 X19.5 Y0.65 
M3 S0
G0 X19.35 Y0.65 
M3 S255
G1 X19.35 Y0.65 
M3 S255
G1 X18.5 Y0.65 
M3 S0
G0 X18.35 Y0.65 
M3 S255
G1 X18.35 Y0.65 
M3 S255
G1 X18.25 Y0.65 
M3 S0
G0 X17.95 Y0.65 
M3 S255
G1 X17.95 Y0.65 
M3 S255
G1 X17.75 Y0.65 
M3 S0
G0 X16.0 Y0.65 
M3 S255
G1 X16.0 Y0.65 
M3 S255
G1 X15.05 Y0.65 
M3 S0
M5 S0
G0 X14.850000000000001 Y0.7000000000000001 
M3 S255
G1 X14.850000000000001 Y0.7000000000000001 
M3 S255
G1 X15.850000000000001 Y0.7000000000000001 
M3 S0
G0 X17.75 Y0.7000000000000001 
M3 S255
G1 X17.75 Y0.7000000000000001 
M3 S255
G1 X17.95 Y0.7000000000000001 
M3 S0
G0 X18.2 Y0.7000000000000001 
M3 S255
G1 X18.2 Y0.7000000000000001 
M3 S255
G1 X18.35 Y0.7000000000000001 
M3 S0
G0 X18.5 Y0.7000000000000001 
M3 S255
G1 X18.5 Y0.7000000000000001 
M3 S255
G1 X18.85 Y0.7000000000000001 
M3 S0
G0 X18.95 Y0.7000000000000001 
M3 S255
G1 X18.95 Y0.7000000000000001 
M3 S255
G1 X19.35 Y0.7000000000000001 
M3 S0
G0 X19.5 Y0.7000000000000001 
M3 S255
G1 X19.5 Y0.7000000000000001 
M3 S255
G1 X19.650000000000002 Y0.7000000000000001 
M3 S0
G0 X19.75 Y0.7000000000000001 
M3 S255
G1 X19.75 Y0.7000000000000001 
M3 S255
G1 X20.1 Y0.7000000000000001 
M3 S0
G0 X22.85 Y0.7000000000000001 
M3 S255
G1 X22.85 Y0.7000000000000001 
M3 S255
G1 X23.0 Y0.7000000000000001 
M3 S0
G0 X23.5 Y0.7000000000000001 
M3 S255
G1 X23.5 Y0.7000000000000001 
M3 S255
G1 X25.0 Y0.7000000000000001 
M3 S0
M5 S0
G0 X25.35 Y0.75 
M3 S255
G1 X25.35 Y0.75 
M3 S255
G1 X25.1 Y0.75 
M3 S0
G0 X24.950000000000003 Y0.75 
M3 S255
G1 X24.950000000000003 Y0.75 
M3 S255
G1 X24.450000000000003 Y0.75 
M3 S0
G0 X24.05 Y0.75 
M3 S255
G1 X24.05 Y0.75 
M3 S255
G1 X23.200000000000003 Y0.75 
M3 S0
G0 X22.8 Y0.75 
M3 S255
G1 X22.8 Y0.75 
M3 S255
G1 X22.650000000000002 Y0.75 
M3 S0
G0 X20.1 Y0.75 
M3 S255
G1 X20.1 Y0.75 
M3 S255
G1 X19.5 Y0.75 
M3 S0
G0 X19.1 Y0.75 
M3 S255
G1 X19.1 Y0.75 
M3 S255
G1 X19.05 Y0.75 
M3 S0
G0 X18.7 Y0.75 
M3 S255
G1 X18.7 Y0.75 
M3 S255
G1 X18.5 Y0.75 
M3 S0
G0 X17.900000000000002 Y0.75 
M3 S255
G1 X17.900000000000002 Y0.75 
M3 S255
G1 X17.75 Y0.75 
M3 S0
G0 X15.450000000000001 Y0.75 
M3 S255
G1 X15.450000000000001 Y0.75 
M3 S255
G1 X14.55 Y0.75 
M3 S0
M5 S0
G0 X14.450000000000001 Y0.8 
M3 S255
G1 X14.450000000000001 Y0.8 
M3 S255
G1 X15.25 Y0.8 
M3 S0
G0 X17.75 Y0.8 
M3 S255
G1 X17.75 Y0.8 
M3 S255
G1 X17.900000000000002 Y0.8 
M3 S0
G0 X19.5 Y0.8 
M3 S255
G1 X19.5 Y0.8 
M3 S255
G1 X20.150000000000002 Y0.8 
M3 S0
G0 X22.650000000000002 Y0.8 
M3 S255
G1 X22.650000000000002 Y0.8 
M3 S255
G1 X22.700000000000003 Y0.8 
M3 S0
G0 X23.1 Y0.8 
M3 S255
G1 X23.1 Y0.8 
M3 S255
G1 X23.85 Y0.8 
M3 S0
G0 X24.650000000000002 Y0.8 
M3 S255
G1 X24.650000000000002 Y0.8 
M3 S255
G1 X24.900000000000002 Y0.8 
M3 S0
G0 X25.1 Y0.8 
M3 S255
G1 X25.1 Y0.8 
M3 S255
G1 X25.450000000000003 Y0.8 
M3 S0
M5 S0
G0 X25.6 Y0.8500000000000001 
M3 S255
G1 X25.6 Y0.8500000000000001 
M3 S255
G1 X25.05 Y0.8500000000000001 
M3 S0
G0 X24.85 Y0.8500000000000001 
M3 S255
G1 X24.85 Y0.8500000000000001 
M3 S255
G1 X24.8 Y0.8500000000000001 
M3 S0
G0 X23.450000000000003 Y0.8500000000000001 
M3 S255
G1 X23.450000000000003 Y0.8500000000000001 
M3 S255
G1 X22.950000000000003 Y0.8500000000000001 
M3 S0
G0 X20.150000000000002 Y0.8500000000000001 
M3 S255
G1 X20.150000000000002 Y0.8500000000000001 
M3 S255
G1 X20.0 Y0.8500000000000001 
M3 S0
G0 X19.8 Y0.8500000000000001 
M3 S255
G1 X19.8 Y0.8500000000000001 
M3 S255
G1 X19.5 Y0.8500000000000001 
M3 S0
G0 X17.900000000000002 Y0.8500000000000001 
M3 S255
G1 X17.900000000000002 Y0.8500000000000001 
M3 S255
G1 X17.75 Y0.8500000000000001 
M3 S0
G0 X15.100000000000001 Y0.8500000000000001 
M3 S255
G1 X15.100000000000001 Y0.8500000000000001 
M3 S255
G1 X14.3 Y0.8500000000000001 
M3 S0
M5 S0
G0 X14.0 Y0.9 
M3 S255
G1 X14.0 Y0.9 
M3 S255
G1 X14.8 Y0.9 
M3 S0
G0 X17.75 Y0.9 
M3 S255
G1 X17.75 Y0.9 
M3 S255
G1 X17.900000000000002 Y0.9 
M3 S0
G0 X19.5 Y0.9 
M3 S255
G1 X19.5 Y0.9 
M3 S255
G1 X19.75 Y0.9 
M3 S0
G0 X20.0 Y0.9 
M3 S255
G1 X20.0 Y0.9 
M3 S255
G1 X20.150000000000002 Y0.9 
M3 S0
G0 X20.85 Y0.9 
M3 S255
G1 X20.85 Y0.9 
M3 S255
G1 X20.900000000000002 Y0.9 
M3 S0
G0 X22.8 Y0.9 
M3 S255
G1 X22.8 Y0.9 
M3 S255
G1 X23.150000000000002 Y0.9 
M3 S0
G0 X25.1 Y0.9 
M3 S255
G1 X25.1 Y0.9 
M3 S255
G1 X25.8 Y0.9 
M3 S0
M5 S0
G0 X25.8 Y0.9500000000000001 
M3 S255
G1 X25.8 Y0.9500000000000001 
M3 S255
G1 X25.25 Y0.9500000000000001 
M3 S0
G0 X23.1 Y0.9500000000000001 
M3 S255
G1 X23.1 Y0.9500000000000001 
M3 S255
G1 X22.700000000000003 Y0.9500000000000001 
M3 S0
G0 X20.950000000000003 Y0.9500000000000001 
M3 S255
G1 X20.950000000000003 Y0.9500000000000001 
M3 S255
G1 X20.85 Y0.9500000000000001 
M3 S0
G0 X20.25 Y0.9500000000000001 
M3 S255
G1 X20.25 Y0.9500000000000001 
M3 S255
G1 X20.0 Y0.9500000000000001 
M3 S0
G0 X19.650000000000002 Y0.9500000000000001 
M3 S255
G1 X19.650000000000002 Y0.9500000000000001 
M3 S255
G1 X19.5 Y0.9500000000000001 
M3 S0
G0 X18.5 Y0.9500000000000001 
M3 S255
G1 X18.5 Y0.9500000000000001 
M3 S255
G1 X18.400000000000002 Y0.9500000000000001 
M3 S0
G0 X18.150000000000002 Y0.9500000000000001 
M3 S255
G1 X18.150000000000002 Y0.9500000000000001 
M3 S255
G1 X18.1 Y0.9500000000000001 
M3 S0
G0 X17.900000000000002 Y0.9500000000000001 
M3 S255
G1 X17.900000000000002 Y0.9500000000000001 
M3 S255
G1 X17.75 Y0.9500000000000001 
M3 S0
G0 X14.65 Y0.9500000000000001 
M3 S255
G1 X14.65 Y0.9500000000000001 
M3 S255
G1 X13.850000000000001 Y0.9500000000000001 
M3 S0
M5 S0
G0 X13.75 Y1.0 
M3 S255
G1 X13.75 Y1.0 
M3 S255
G1 X14.55 Y1.0 
M3 S0
G0 X17.75 Y1.0 
M3 S255
G1 X17.75 Y1.0 
M3 S255
G1 X17.900000000000002 Y1.0 
M3 S0
G0 X18.05 Y1.0 
M3 S255
G1 X18.05 Y1.0 
M3 S255
G1 X18.2 Y1.0 
M3 S0
G0 X18.400000000000002 Y1.0 
M3 S255
G1 X18.400000000000002 Y1.0 
M3 S255
G1 X18.5 Y1.0 
M3 S0
G0 X19.5 Y1.0 
M3 S255
G1 X19.5 Y1.0 
M3 S255
G1 X19.650000000000002 Y1.0 
M3 S0
G0 X20.0 Y1.0 
M3 S255
G1 X20.0 Y1.0 
M3 S255
G1 X20.25 Y1.0 
M3 S0
G0 X20.85 Y1.0 
M3 S255
G1 X20.85 Y1.0 
M3 S255
G1 X20.950000000000003 Y1.0 
M3 S0
G0 X22.650000000000002 Y1.0 
M3 S255
G1 X22.650000000000002 Y1.0 
M3 S255
G1 X23.0 Y1.0 
M3 S0
G0 X25.35 Y1.0 
M3 S255
G1 X25.35 Y1.0 
M3 S255
G1 X25.8 Y1.0 
M3 S0
M5 S0
G0 X25.8 Y1.05 
M3 S255
G1 X25.8 Y1.05 
M3 S255
G1 X25.5 Y1.05 
M3 S0
G0 X22.900000000000002 Y1.05 
M3 S255
G1 X22.900000000000002 Y1.05 
M3 S255
G1 X22.55 Y1.05 
M3 S0
G0 X20.950000000000003 Y1.05 
M3 S255
G1 X20.950000000000003 Y1.05 
M3 S255
G1 X20.85 Y1.05 
M3 S0
G0 X20.25 Y1.05 
M3 S255
G1 X20.25 Y1.05 
M3 S255
G1 X20.0 Y1.05 
M3 S0
G0 X19.650000000000002 Y1.05 
M3 S255
G1 X19.650000000000002 Y1.05 
M3 S255
G1 X19.450000000000003 Y1.05 
M3 S0
G0 X18.2 Y1.05 
M3 S255
G1 X18.2 Y1.05 
M3 S255
G1 X18.05 Y1.05 
M3 S0
G0 X17.900000000000002 Y1.05 
M3 S255
G1 X17.900000000000002 Y1.05 
M3 S255
G1 X17.75 Y1.05 
M3 S0
G0 X14.4 Y1.05 
M3 S255
G1 X14.4 Y1.05 
M3 S255
G1 X14.05 Y1.05 
M3 S0
G0 X13.950000000000001 Y1.05 
M3 S255
G1 X13.950000000000001 Y1.05 
M3 S255
G1 X13.65 Y1.05 
M3 S0
M5 S0
G0 X13.4 Y1.1 
M3 S255
G1 X13.4 Y1.1 
M3 S255
G1 X13.9 Y1.1 
M3 S0
G0 X17.75 Y1.1 
M3 S255
G1 X17.75 Y1.1 
M3 S255
G1 X17.900000000000002 Y1.1 
M3 S0
G0 X18.0 Y1.1 
M3 S255
G1 X18.0 Y1.1 
M3 S255
G1 X18.150000000000002 Y1.1 
M3 S0
G0 X19.450000000000003 Y1.1 
M3 S255
G1 X19.450000000000003 Y1.1 
M3 S255
G1 X19.6 Y1.1 
M3 S0
G0 X20.05 Y1.1 
M3 S255
G1 X20.05 Y1.1 
M3 S255
G1 X20.25 Y1.1 
M3 S0
G0 X20.450000000000003 Y1.1 
M3 S255
G1 X20.450000000000003 Y1.1 
M3 S255
G1 X20.700000000000003 Y1.1 
M3 S0
G0 X20.85 Y1.1 
M3 S255
G1 X20.85 Y1.1 
M3 S255
G1 X21.0 Y1.1 
M3 S0
G0 X22.400000000000002 Y1.1 
M3 S255
G1 X22.400000000000002 Y1.1 
M3 S255
G1 X22.700000000000003 Y1.1 
M3 S0
G0 X26.400000000000002 Y1.1 
M3 S255
G1 X26.400000000000002 Y1.1 
M3 S255
G1 X26.5 Y1.1 
M3 S0
M5 S0
G0 X26.6 Y1.1500000000000001 
M3 S255
G1 X26.6 Y1.1500000000000001 
M3 S255
G1 X26.450000000000003 Y1.1500000000000001 
M3 S0
G0 X22.650000000000002 Y1.1500000000000001 
M3 S255
G1 X22.650000000000002 Y1.1500000000000001 
M3 S255
G1 X22.35 Y1.1500000000000001 
M3 S0
G0 X21.0 Y1.1500000000000001 
M3 S255
G1 X21.0 Y1.1500000000000001 
M3 S255
G1 X20.85 Y1.1500000000000001 
M3 S0
G0 X20.700000000000003 Y1.1500000000000001 
M3 S255
G1 X20.700000000000003 Y1.1500000000000001 
M3 S255
G1 X20.450000000000003 Y1.1500000000000001 
M3 S0
G0 X20.25 Y1.1500000000000001 
M3 S255
G1 X20.25 Y1.1500000000000001 
M3 S255
G1 X20.05 Y1.1500000000000001 
M3 S0
G0 X19.6 Y1.1500000000000001 
M3 S255
G1 X19.6 Y1.1500000000000001 
M3 S255
G1 X19.450000000000003 Y1.1500000000000001 
M3 S0
G0 X18.150000000000002 Y1.1500000000000001 
M3 S255
G1 X18.150000000000002 Y1.1500000000000001 
M3 S255
G1 X18.0 Y1.1500000000000001 
M3 S0
G0 X17.900000000000002 Y1.1500000000000001 
M3 S255
G1 X17.900000000000002 Y1.1500000000000001 
M3 S255
G1 X17.75 Y1.1500000000000001 
M3 S0
G0 X13.850000000000001 Y1.1500000000000001 
M3 S255
G1 X13.850000000000001 Y1.1500000000000001 
M3 S255
G1 X13.350000000000001 Y1.1500000000000001 
M3 S0
M5 S0
G0 X13.200000000000001 Y1.2000000000000002 
M3 S255
G1 X13.200000000000001 Y1.2000000000000002 
M3 S255
G1 X13.8 Y1.2000000000000002 
M3 S0
G0 X17.75 Y1.2000000000000002 
M3 S255
G1 X17.75 Y1.2000000000000002 
M3 S255
G1 X17.900000000000002 Y1.2000000000000002 
M3 S0
G0 X18.0 Y1.2000000000000002 
M3 S255
G1 X18.0 Y1.2000000000000002 
M3 S255
G1 X18.1 Y1.2000000000000002 
M3 S0
G0 X19.400000000000002 Y1.2000000000000002 
M3 S255
G1 X19.400000000000002 Y1.2000000000000002 
M3 S255
G1 X19.6 Y1.2000000000000002 
M3 S0
G0 X20.1 Y1.2000000000000002 
M3 S255
G1 X20.1 Y1.2000000000000002 
M3 S255
G1 X20.25 Y1.2000000000000002 
M3 S0
G0 X20.400000000000002 Y1.2000000000000002 
M3 S255
G1 X20.400000000000002 Y1.2000000000000002 
M3 S255
G1 X20.650000000000002 Y1.2000000000000002 
M3 S0
G0 X20.900000000000002 Y1.2000000000000002 
M3 S255
G1 X20.900000000000002 Y1.2000000000000002 
M3 S255
G1 X21.0 Y1.2000000000000002 
M3 S0
G0 X22.3 Y1.2000000000000002 
M3 S255
G1 X22.3 Y1.2000000000000002 
M3 S255
G1 X22.5 Y1.2000000000000002 
M3 S0
G0 X26.450000000000003 Y1.2000000000000002 
M3 S255
G1 X26.450000000000003 Y1.2000000000000002 
M3 S255
G1 X26.700000000000003 Y1.2000000000000002 
M3 S0
M5 S0
G0 X26.900000000000002 Y1.25 
M3 S255
G1 X26.900000000000002 Y1.25 
M3 S255
G1 X26.55 Y1.25 
M3 S0
G0 X22.400000000000002 Y1.25 
M3 S255
G1 X22.400000000000002 Y1.25 
M3 S255
G1 X22.150000000000002 Y1.25 
M3 S0
G0 X20.55 Y1.25 
M3 S255
G1 X20.55 Y1.25 
M3 S255
G1 X20.400000000000002 Y1.25 
M3 S0
G0 X20.3 Y1.25 
M3 S255
G1 X20.3 Y1.25 
M3 S255
G1 X20.1 Y1.25 
M3 S0
G0 X19.5 Y1.25 
M3 S255
G1 X19.5 Y1.25 
M3 S255
G1 X19.35 Y1.25 
M3 S0
G0 X18.1 Y1.25 
M3 S255
G1 X18.1 Y1.25 
M3 S255
G1 X17.8 Y1.25 
M3 S0
G0 X13.600000000000001 Y1.25 
M3 S255
G1 X13.600000000000001 Y1.25 
M3 S255
G1 X12.950000000000001 Y1.25 
M3 S0
M5 S0
G0 X12.75 Y1.3 
M3 S255
G1 X12.75 Y1.3 
M3 S255
G1 X13.350000000000001 Y1.3 
M3 S0
G0 X17.85 Y1.3 
M3 S255
G1 X17.85 Y1.3 
M3 S255
G1 X18.25 Y1.3 
M3 S0
G0 X19.3 Y1.3 
M3 S255
G1 X19.3 Y1.3 
M3 S255
G1 X19.5 Y1.3 
M3 S0
G0 X20.1 Y1.3 
M3 S255
G1 X20.1 Y1.3 
M3 S255
G1 X20.3 Y1.3 
M3 S0
G0 X20.400000000000002 Y1.3 
M3 S255
G1 X20.400000000000002 Y1.3 
M3 S255
G1 X20.55 Y1.3 
M3 S0
G0 X22.05 Y1.3 
M3 S255
G1 X22.05 Y1.3 
M3 S255
G1 X22.25 Y1.3 
M3 S0
G0 X26.6 Y1.3 
M3 S255
G1 X26.6 Y1.3 
M3 S255
G1 X27.150000000000002 Y1.3 
M3 S0
M5 S0
G0 X27.150000000000002 Y1.35 
M3 S255
G1 X27.150000000000002 Y1.35 
M3 S255
G1 X26.650000000000002 Y1.35 
M3 S0
G0 X22.25 Y1.35 
M3 S255
G1 X22.25 Y1.35 
M3 S255
G1 X22.05 Y1.35 
M3 S0
G0 X20.55 Y1.35 
M3 S255
G1 X20.55 Y1.35 
M3 S255
G1 X20.400000000000002 Y1.35 
M3 S0
G0 X20.3 Y1.35 
M3 S255
G1 X20.3 Y1.35 
M3 S255
G1 X20.1 Y1.35 
M3 S0
G0 X19.5 Y1.35 
M3 S255
G1 X19.5 Y1.35 
M3 S255
G1 X19.3 Y1.35 
M3 S0
G0 X18.25 Y1.35 
M3 S255
G1 X18.25 Y1.35 
M3 S255
G1 X17.85 Y1.35 
M3 S0
G0 X13.350000000000001 Y1.35 
M3 S255
G1 X13.350000000000001 Y1.35 
M3 S255
G1 X12.75 Y1.35 
M3 S0
M5 S0
G0 X12.55 Y1.4000000000000001 
M3 S255
G1 X12.55 Y1.4000000000000001 
M3 S255
G1 X13.15 Y1.4000000000000001 
M3 S0
G0 X17.85 Y1.4000000000000001 
M3 S255
G1 X17.85 Y1.4000000000000001 
M3 S255
G1 X18.0 Y1.4000000000000001 
M3 S0
G0 X18.1 Y1.4000000000000001 
M3 S255
G1 X18.1 Y1.4000000000000001 
M3 S255
G1 X18.25 Y1.4000000000000001 
M3 S0
G0 X19.25 Y1.4000000000000001 
M3 S255
G1 X19.25 Y1.4000000000000001 
M3 S255
G1 X19.450000000000003 Y1.4000000000000001 
M3 S0
G0 X20.150000000000002 Y1.4000000000000001 
M3 S255
G1 X20.150000000000002 Y1.4000000000000001 
M3 S255
G1 X20.3 Y1.4000000000000001 
M3 S0
G0 X20.400000000000002 Y1.4000000000000001 
M3 S255
G1 X20.400000000000002 Y1.4000000000000001 
M3 S255
G1 X20.450000000000003 Y1.4000000000000001 
M3 S0
G0 X21.950000000000003 Y1.4000000000000001 
M3 S255
G1 X21.950000000000003 Y1.4000000000000001 
M3 S255
G1 X22.150000000000002 Y1.4000000000000001 
M3 S0
G0 X26.75 Y1.4000000000000001 
M3 S255
G1 X26.75 Y1.4000000000000001 
M3 S255
G1 X27.35 Y1.4000000000000001 
M3 S0
M5 S0
G0 X27.450000000000003 Y1.4500000000000002 
M3 S255
G1 X27.450000000000003 Y1.4500000000000002 
M3 S255
G1 X26.85 Y1.4500000000000002 
M3 S0
G0 X22.1 Y1.4500000000000002 
M3 S255
G1 X22.1 Y1.4500000000000002 
M3 S255
G1 X21.900000000000002 Y1.4500000000000002 
M3 S0
G0 X20.450000000000003 Y1.4500000000000002 
M3 S255
G1 X20.450000000000003 Y1.4500000000000002 
M3 S255
G1 X20.400000000000002 Y1.4500000000000002 
M3 S0
G0 X20.3 Y1.4500000000000002 
M3 S255
G1 X20.3 Y1.4500000000000002 
M3 S255
G1 X20.150000000000002 Y1.4500000000000002 
M3 S0
G0 X19.450000000000003 Y1.4500000000000002 
M3 S255
G1 X19.450000000000003 Y1.4500000000000002 
M3 S255
G1 X19.25 Y1.4500000000000002 
M3 S0
G0 X18.650000000000002 Y1.4500000000000002 
M3 S255
G1 X18.650000000000002 Y1.4500000000000002 
M3 S255
G1 X18.55 Y1.4500000000000002 
M3 S0
G0 X18.3 Y1.4500000000000002 
M3 S255
G1 X18.3 Y1.4500000000000002 
M3 S255
G1 X18.1 Y1.4500000000000002 
M3 S0
G0 X18.0 Y1.4500000000000002 
M3 S255
G1 X18.0 Y1.4500000000000002 
M3 S255
G1 X17.85 Y1.4500000000000002 
M3 S0
G0 X13.05 Y1.4500000000000002 
M3 S255
G1 X13.05 Y1.4500000000000002 
M3 S255
G1 X12.450000000000001 Y1.4500000000000002 
M3 S0
M5 S0
G0 X12.350000000000001 Y1.5 
M3 S255
G1 X12.350000000000001 Y1.5 
M3 S255
G1 X12.950000000000001 Y1.5 
M3 S0
G0 X17.900000000000002 Y1.5 
M3 S255
G1 X17.900000000000002 Y1.5 
M3 S255
G1 X18.0 Y1.5 
M3 S0
G0 X18.150000000000002 Y1.5 
M3 S255
G1 X18.150000000000002 Y1.5 
M3 S255
G1 X18.3 Y1.5 
M3 S0
G0 X18.5 Y1.5 
M3 S255
G1 X18.5 Y1.5 
M3 S255
G1 X18.650000000000002 Y1.5 
M3 S0
G0 X19.25 Y1.5 
M3 S255
G1 X19.25 Y1.5 
M3 S255
G1 X19.450000000000003 Y1.5 
M3 S0
G0 X20.150000000000002 Y1.5 
M3 S255
G1 X20.150000000000002 Y1.5 
M3 S255
G1 X20.3 Y1.5 
M3 S0
G0 X20.400000000000002 Y1.5 
M3 S255
G1 X20.400000000000002 Y1.5 
M3 S255
G1 X20.450000000000003 Y1.5 
M3 S0
G0 X21.85 Y1.5 
M3 S255
G1 X21.85 Y1.5 
M3 S255
G1 X22.05 Y1.5 
M3 S0
G0 X26.950000000000003 Y1.5 
M3 S255
G1 X26.950000000000003 Y1.5 
M3 S255
G1 X27.5 Y1.5 
M3 S0
M5 S0
G0 X27.75 Y1.55 
M3 S255
G1 X27.75 Y1.55 
M3 S255
G1 X27.200000000000003 Y1.55 
M3 S0
G0 X22.0 Y1.55 
M3 S255
G1 X22.0 Y1.55 
M3 S255
G1 X21.75 Y1.55 
M3 S0
G0 X21.200000000000003 Y1.55 
M3 S255
G1 X21.200000000000003 Y1.55 
M3 S255
G1 X21.150000000000002 Y1.55 
M3 S0
G0 X20.950000000000003 Y1.55 
M3 S255
G1 X20.950000000000003 Y1.55 
M3 S255
G1 X20.85 Y1.55 
M3 S0
G0 X20.450000000000003 Y1.55 
M3 S255
G1 X20.450000000000003 Y1.55 
M3 S255
G1 X20.400000000000002 Y1.55 
M3 S0
G0 X20.3 Y1.55 
M3 S255
G1 X20.3 Y1.55 
M3 S255
G1 X20.150000000000002 Y1.55 
M3 S0
G0 X19.450000000000003 Y1.55 
M3 S255
G1 X19.450000000000003 Y1.55 
M3 S255
G1 X19.25 Y1.55 
M3 S0
G0 X18.85 Y1.55 
M3 S255
G1 X18.85 Y1.55 
M3 S255
G1 X18.8 Y1.55 
M3 S0
G0 X18.650000000000002 Y1.55 
M3 S255
G1 X18.650000000000002 Y1.55 
M3 S255
G1 X18.5 Y1.55 
M3 S0
G0 X18.25 Y1.55 
M3 S255
G1 X18.25 Y1.55 
M3 S255
G1 X18.2 Y1.55 
M3 S0
G0 X18.05 Y1.55 
M3 S255
G1 X18.05 Y1.55 
M3 S255
G1 X17.900000000000002 Y1.55 
M3 S0
G0 X12.700000000000001 Y1.55 
M3 S255
G1 X12.700000000000001 Y1.55 
M3 S255
G1 X12.15 Y1.55 
M3 S0
M5 S0
G0 X12.05 Y1.6 
M3 S255
G1 X12.05 Y1.6 
M3 S255
G1 X12.65 Y1.6 
M3 S0
G0 X17.900000000000002 Y1.6 
M3 S255
G1 X17.900000000000002 Y1.6 
M3 S255
G1 X18.05 Y1.6 
M3 S0
G0 X18.5 Y1.6 
M3 S255
G1 X18.5 Y1.6 
M3 S255
G1 X18.55 Y1.6 
M3 S0
G0 X18.75 Y1.6 
M3 S255
G1 X18.75 Y1.6 
M3 S255
G1 X19.05 Y1.6 
M3 S0
G0 X19.25 Y1.6 
M3 S255
G1 X19.25 Y1.6 
M3 S255
G1 X19.450000000000003 Y1.6 
M3 S0
G0 X20.1 Y1.6 
M3 S255
G1 X20.1 Y1.6 
M3 S255
G1 X20.25 Y1.6 
M3 S0
G0 X20.3 Y1.6 
M3 S255
G1 X20.3 Y1.6 
M3 S255
G1 X20.450000000000003 Y1.6 
M3 S0
G0 X20.85 Y1.6 
M3 S255
G1 X20.85 Y1.6 
M3 S255
G1 X20.950000000000003 Y1.6 
M3 S0
G0 X21.1 Y1.6 
M3 S255
G1 X21.1 Y1.6 
M3 S255
G1 X21.200000000000003 Y1.6 
M3 S0
G0 X21.75 Y1.6 
M3 S255
G1 X21.75 Y1.6 
M3 S255
G1 X21.950000000000003 Y1.6 
M3 S0
G0 X27.25 Y1.6 
M3 S255
G1 X27.25 Y1.6 
M3 S255
G1 X27.85 Y1.6 
M3 S0
M5 S0
G0 X27.900000000000002 Y1.6500000000000001 
M3 S255
G1 X27.900000000000002 Y1.6500000000000001 
M3 S255
G1 X27.35 Y1.6500000000000001 
M3 S0
G0 X21.900000000000002 Y1.6500000000000001 
M3 S255
G1 X21.900000000000002 Y1.6500000000000001 
M3 S255
G1 X21.700000000000003 Y1.6500000000000001 
M3 S0
G0 X21.200000000000003 Y1.6500000000000001 
M3 S255
G1 X21.200000000000003 Y1.6500000000000001 
M3 S255
G1 X21.05 Y1.6500000000000001 
M3 S0
G0 X20.900000000000002 Y1.6500000000000001 
M3 S255
G1 X20.900000000000002 Y1.6500000000000001 
M3 S255
G1 X20.85 Y1.6500000000000001 
M3 S0
G0 X20.400000000000002 Y1.6500000000000001 
M3 S255
G1 X20.400000000000002 Y1.6500000000000001 
M3 S255
G1 X20.3 Y1.6500000000000001 
M3 S0
G0 X20.25 Y1.6500000000000001 
M3 S255
G1 X20.25 Y1.6500000000000001 
M3 S255
G1 X20.1 Y1.6500000000000001 
M3 S0
G0 X19.450000000000003 Y1.6500000000000001 
M3 S255
G1 X19.450000000000003 Y1.6500000000000001 
M3 S255
G1 X19.25 Y1.6500000000000001 
M3 S0
G0 X19.05 Y1.6500000000000001 
M3 S255
G1 X19.05 Y1.6500000000000001 
M3 S255
G1 X18.75 Y1.6500000000000001 
M3 S0
G0 X18.55 Y1.6500000000000001 
M3 S255
G1 X18.55 Y1.6500000000000001 
M3 S255
G1 X18.5 Y1.6500000000000001 
M3 S0
G0 X18.05 Y1.6500000000000001 
M3 S255
G1 X18.05 Y1.6500000000000001 
M3 S255
G1 X17.900000000000002 Y1.6500000000000001 
M3 S0
G0 X12.55 Y1.6500000000000001 
M3 S255
G1 X12.55 Y1.6500000000000001 
M3 S255
G1 X11.950000000000001 Y1.6500000000000001 
M3 S0
M5 S0
G0 X11.8 Y1.7000000000000002 
M3 S255
G1 X11.8 Y1.7000000000000002 
M3 S255
G1 X12.350000000000001 Y1.7000000000000002 
M3 S0
G0 X17.900000000000002 Y1.7000000000000002 
M3 S255
G1 X17.900000000000002 Y1.7000000000000002 
M3 S255
G1 X18.05 Y1.7000000000000002 
M3 S0
G0 X18.7 Y1.7000000000000002 
M3 S255
G1 X18.7 Y1.7000000000000002 
M3 S255
G1 X18.85 Y1.7000000000000002 
M3 S0
G0 X18.95 Y1.7000000000000002 
M3 S255
G1 X18.95 Y1.7000000000000002 
M3 S255
G1 X19.0 Y1.7000000000000002 
M3 S0
G0 X19.25 Y1.7000000000000002 
M3 S255
G1 X19.25 Y1.7000000000000002 
M3 S255
G1 X19.450000000000003 Y1.7000000000000002 
M3 S0
G0 X20.05 Y1.7000000000000002 
M3 S255
G1 X20.05 Y1.7000000000000002 
M3 S255
G1 X20.25 Y1.7000000000000002 
M3 S0
G0 X20.3 Y1.7000000000000002 
M3 S255
G1 X20.3 Y1.7000000000000002 
M3 S255
G1 X20.400000000000002 Y1.7000000000000002 
M3 S0
G0 X20.85 Y1.7000000000000002 
M3 S255
G1 X20.85 Y1.7000000000000002 
M3 S255
G1 X20.900000000000002 Y1.7000000000000002 
M3 S0
G0 X21.05 Y1.7000000000000002 
M3 S255
G1 X21.05 Y1.7000000000000002 
M3 S255
G1 X21.150000000000002 Y1.7000000000000002 
M3 S0
G0 X21.450000000000003 Y1.7000000000000002 
M3 S255
G1 X21.450000000000003 Y1.7000000000000002 
M3 S255
G1 X21.5 Y1.7000000000000002 
M3 S0
G0 X21.650000000000002 Y1.7000000000000002 
M3 S255
G1 X21.650000000000002 Y1.7000000000000002 
M3 S255
G1 X21.85 Y1.7000000000000002 
M3 S0
G0 X27.55 Y1.7000000000000002 
M3 S255
G1 X27.55 Y1.7000000000000002 
M3 S255
G1 X28.1 Y1.7000000000000002 
M3 S0
M5 S0
G0 X28.150000000000002 Y1.75 
M3 S255
G1 X28.150000000000002 Y1.75 
M3 S255
G1 X27.650000000000002 Y1.75 
M3 S0
G0 X21.8 Y1.75 
M3 S255
G1 X21.8 Y1.75 
M3 S255
G1 X21.650000000000002 Y1.75 
M3 S0
G0 X21.5 Y1.75 
M3 S255
G1 X21.5 Y1.75 
M3 S255
G1 X21.400000000000002 Y1.75 
M3 S0
G0 X21.150000000000002 Y1.75 
M3 S255
G1 X21.150000000000002 Y1.75 
M3 S255
G1 X21.05 Y1.75 
M3 S0
G0 X20.900000000000002 Y1.75 
M3 S255
G1 X20.900000000000002 Y1.75 
M3 S255
G1 X20.85 Y1.75 
M3 S0
G0 X20.400000000000002 Y1.75 
M3 S255
G1 X20.400000000000002 Y1.75 
M3 S255
G1 X20.3 Y1.75 
M3 S0
G0 X20.25 Y1.75 
M3 S255
G1 X20.25 Y1.75 
M3 S255
G1 X20.05 Y1.75 
M3 S0
G0 X19.450000000000003 Y1.75 
M3 S255
G1 X19.450000000000003 Y1.75 
M3 S255
G1 X19.25 Y1.75 
M3 S0
G0 X18.8 Y1.75 
M3 S255
G1 X18.8 Y1.75 
M3 S255
G1 X18.7 Y1.75 
M3 S0
G0 X18.05 Y1.75 
M3 S255
G1 X18.05 Y1.75 
M3 S255
G1 X17.900000000000002 Y1.75 
M3 S0
G0 X12.25 Y1.75 
M3 S255
G1 X12.25 Y1.75 
M3 S255
G1 X11.75 Y1.75 
M3 S0
M5 S0
G0 X11.600000000000001 Y1.8 
M3 S255
G1 X11.600000000000001 Y1.8 
M3 S255
G1 X12.15 Y1.8 
M3 S0
G0 X17.900000000000002 Y1.8 
M3 S255
G1 X17.900000000000002 Y1.8 
M3 S255
G1 X18.05 Y1.8 
M3 S0
G0 X18.7 Y1.8 
M3 S255
G1 X18.7 Y1.8 
M3 S255
G1 X18.75 Y1.8 
M3 S0
G0 X19.200000000000003 Y1.8 
M3 S255
G1 X19.200000000000003 Y1.8 
M3 S255
G1 X19.450000000000003 Y1.8 
M3 S0
G0 X20.05 Y1.8 
M3 S255
G1 X20.05 Y1.8 
M3 S255
G1 X20.25 Y1.8 
M3 S0
G0 X20.3 Y1.8 
M3 S255
G1 X20.3 Y1.8 
M3 S255
G1 X20.400000000000002 Y1.8 
M3 S0
G0 X20.85 Y1.8 
M3 S255
G1 X20.85 Y1.8 
M3 S255
G1 X20.900000000000002 Y1.8 
M3 S0
G0 X21.05 Y1.8 
M3 S255
G1 X21.05 Y1.8 
M3 S255
G1 X21.1 Y1.8 
M3 S0
G0 X21.35 Y1.8 
M3 S255
G1 X21.35 Y1.8 
M3 S255
G1 X21.5 Y1.8 
M3 S0
G0 X21.650000000000002 Y1.8 
M3 S255
G1 X21.650000000000002 Y1.8 
M3 S255
G1 X21.8 Y1.8 
M3 S0
G0 X27.75 Y1.8 
M3 S255
G1 X27.75 Y1.8 
M3 S255
G1 X28.25 Y1.8 
M3 S0
M5 S0
G0 X28.35 Y1.85 
M3 S255
G1 X28.35 Y1.85 
M3 S255
G1 X27.85 Y1.85 
M3 S0
G0 X21.75 Y1.85 
M3 S255
G1 X21.75 Y1.85 
M3 S255
G1 X21.650000000000002 Y1.85 
M3 S0
G0 X21.5 Y1.85 
M3 S255
G1 X21.5 Y1.85 
M3 S255
G1 X21.35 Y1.85 
M3 S0
G0 X20.900000000000002 Y1.85 
M3 S255
G1 X20.900000000000002 Y1.85 
M3 S255
G1 X20.85 Y1.85 
M3 S0
G0 X20.400000000000002 Y1.85 
M3 S255
G1 X20.400000000000002 Y1.85 
M3 S255
G1 X20.3 Y1.85 
M3 S0
G0 X20.25 Y1.85 
M3 S255
G1 X20.25 Y1.85 
M3 S255
G1 X20.0 Y1.85 
M3 S0
G0 X19.35 Y1.85 
M3 S255
G1 X19.35 Y1.85 
M3 S255
G1 X19.200000000000003 Y1.85 
M3 S0
G0 X18.05 Y1.85 
M3 S255
G1 X18.05 Y1.85 
M3 S255
G1 X17.900000000000002 Y1.85 
M3 S0
G0 X12.05 Y1.85 
M3 S255
G1 X12.05 Y1.85 
M3 S255
G1 X11.55 Y1.85 
M3 S0
M5 S0
G0 X11.4 Y1.9000000000000001 
M3 S255
G1 X11.4 Y1.9000000000000001 
M3 S255
G1 X11.9 Y1.9000000000000001 
M3 S0
G0 X17.900000000000002 Y1.9000000000000001 
M3 S255
G1 X17.900000000000002 Y1.9000000000000001 
M3 S255
G1 X18.05 Y1.9000000000000001 
M3 S0
G0 X19.150000000000002 Y1.9000000000000001 
M3 S255
G1 X19.150000000000002 Y1.9000000000000001 
M3 S255
G1 X19.35 Y1.9000000000000001 
M3 S0
G0 X20.0 Y1.9000000000000001 
M3 S255
G1 X20.0 Y1.9000000000000001 
M3 S255
G1 X20.25 Y1.9000000000000001 
M3 S0
G0 X20.3 Y1.9000000000000001 
M3 S255
G1 X20.3 Y1.9000000000000001 
M3 S255
G1 X20.400000000000002 Y1.9000000000000001 
M3 S0
G0 X21.35 Y1.9000000000000001 
M3 S255
G1 X21.35 Y1.9000000000000001 
M3 S255
G1 X21.400000000000002 Y1.9000000000000001 
M3 S0
G0 X21.6 Y1.9000000000000001 
M3 S255
G1 X21.6 Y1.9000000000000001 
M3 S255
G1 X21.700000000000003 Y1.9000000000000001 
M3 S0
G0 X28.0 Y1.9000000000000001 
M3 S255
G1 X28.0 Y1.9000000000000001 
M3 S255
G1 X28.5 Y1.9000000000000001 
M3 S0
M5 S0
G0 X28.6 Y1.9500000000000002 
M3 S255
G1 X28.6 Y1.9500000000000002 
M3 S255
G1 X28.1 Y1.9500000000000002 
M3 S0
G0 X27.85 Y1.9500000000000002 
M3 S255
G1 X27.85 Y1.9500000000000002 
M3 S255
G1 X27.5 Y1.9500000000000002 
M3 S0
G0 X21.650000000000002 Y1.9500000000000002 
M3 S255
G1 X21.650000000000002 Y1.9500000000000002 
M3 S255
G1 X21.55 Y1.9500000000000002 
M3 S0
G0 X20.400000000000002 Y1.9500000000000002 
M3 S255
G1 X20.400000000000002 Y1.9500000000000002 
M3 S255
G1 X20.3 Y1.9500000000000002 
M3 S0
G0 X20.25 Y1.9500000000000002 
M3 S255
G1 X20.25 Y1.9500000000000002 
M3 S255
G1 X20.0 Y1.9500000000000002 
M3 S0
G0 X19.35 Y1.9500000000000002 
M3 S255
G1 X19.35 Y1.9500000000000002 
M3 S255
G1 X19.150000000000002 Y1.9500000000000002 
M3 S0
G0 X18.05 Y1.9500000000000002 
M3 S255
G1 X18.05 Y1.9500000000000002 
M3 S255
G1 X17.900000000000002 Y1.9500000000000002 
M3 S0
G0 X11.8 Y1.9500000000000002 
M3 S255
G1 X11.8 Y1.9500000000000002 
M3 S255
G1 X11.3 Y1.9500000000000002 
M3 S0
M5 S0
G0 X11.25 Y2.0 
M3 S255
G1 X11.25 Y2.0 
M3 S255
G1 X11.700000000000001 Y2.0 
M3 S0
G0 X17.900000000000002 Y2.0 
M3 S255
G1 X17.900000000000002 Y2.0 
M3 S255
G1 X18.05 Y2.0 
M3 S0
G0 X19.1 Y2.0 
M3 S255
G1 X19.1 Y2.0 
M3 S255
G1 X19.35 Y2.0 
M3 S0
G0 X20.0 Y2.0 
M3 S255
G1 X20.0 Y2.0 
M3 S255
G1 X20.150000000000002 Y2.0 
M3 S0
G0 X21.55 Y2.0 
M3 S255
G1 X21.55 Y2.0 
M3 S255
G1 X21.650000000000002 Y2.0 
M3 S0
G0 X27.450000000000003 Y2.0 
M3 S255
G1 X27.450000000000003 Y2.0 
M3 S255
G1 X28.0 Y2.0 
M3 S0
G0 X28.150000000000002 Y2.0 
M3 S255
G1 X28.150000000000002 Y2.0 
M3 S255
G1 X28.650000000000002 Y2.0 
M3 S0
M5 S0
G0 X28.8 Y2.0500000000000003 
M3 S255
G1 X28.8 Y2.0500000000000003 
M3 S255
G1 X28.35 Y2.0500000000000003 
M3 S0
G0 X28.200000000000003 Y2.0500000000000003 
M3 S255
G1 X28.200000000000003 Y2.0500000000000003 
M3 S255
G1 X28.0 Y2.0500000000000003 
M3 S0
G0 X27.55 Y2.0500000000000003 
M3 S255
G1 X27.55 Y2.0500000000000003 
M3 S255
G1 X27.35 Y2.0500000000000003 
M3 S0
G0 X21.650000000000002 Y2.0500000000000003 
M3 S255
G1 X21.650000000000002 Y2.0500000000000003 
M3 S255
G1 X21.55 Y2.0500000000000003 
M3 S0
G0 X20.150000000000002 Y2.0500000000000003 
M3 S255
G1 X20.150000000000002 Y2.0500000000000003 
M3 S255
G1 X20.0 Y2.0500000000000003 
M3 S0
G0 X19.25 Y2.0500000000000003 
M3 S255
G1 X19.25 Y2.0500000000000003 
M3 S255
G1 X19.05 Y2.0500000000000003 
M3 S0
G0 X18.05 Y2.0500000000000003 
M3 S255
G1 X18.05 Y2.0500000000000003 
M3 S255
G1 X17.900000000000002 Y2.0500000000000003 
M3 S0
G0 X11.55 Y2.0500000000000003 
M3 S255
G1 X11.55 Y2.0500000000000003 
M3 S255
G1 X11.100000000000001 Y2.0500000000000003 
M3 S0
M5 S0
G0 X10.950000000000001 Y2.1 
M3 S255
G1 X10.950000000000001 Y2.1 
M3 S255
G1 X11.450000000000001 Y2.1 
M3 S0
G0 X17.900000000000002 Y2.1 
M3 S255
G1 X17.900000000000002 Y2.1 
M3 S255
G1 X18.05 Y2.1 
M3 S0
G0 X19.0 Y2.1 
M3 S255
G1 X19.0 Y2.1 
M3 S255
G1 X19.200000000000003 Y2.1 
M3 S0
G0 X19.950000000000003 Y2.1 
M3 S255
G1 X19.950000000000003 Y2.1 
M3 S255
G1 X20.150000000000002 Y2.1 
M3 S0
G0 X21.5 Y2.1 
M3 S255
G1 X21.5 Y2.1 
M3 S255
G1 X21.6 Y2.1 
M3 S0
G0 X27.400000000000002 Y2.1 
M3 S255
G1 X27.400000000000002 Y2.1 
M3 S255
G1 X27.5 Y2.1 
M3 S0
G0 X28.1 Y2.1 
M3 S255
G1 X28.1 Y2.1 
M3 S255
G1 X28.3 Y2.1 
M3 S0
G0 X28.450000000000003 Y2.1 
M3 S255
G1 X28.450000000000003 Y2.1 
M3 S255
G1 X28.900000000000002 Y2.1 
M3 S0
M5 S0
G0 X28.950000000000003 Y2.15 
M3 S255
G1 X28.950000000000003 Y2.15 
M3 S255
G1 X28.5 Y2.15 
M3 S0
G0 X28.35 Y2.15 
M3 S255
G1 X28.35 Y2.15 
M3 S255
G1 X28.150000000000002 Y2.15 
M3 S0
G0 X21.6 Y2.15 
M3 S255
G1 X21.6 Y2.15 
M3 S255
G1 X21.5 Y2.15 
M3 S0
G0 X20.900000000000002 Y2.15 
M3 S255
G1 X20.900000000000002 Y2.15 
M3 S255
G1 X20.85 Y2.15 
M3 S0
G0 X20.150000000000002 Y2.15 
M3 S255
G1 X20.150000000000002 Y2.15 
M3 S255
G1 X19.950000000000003 Y2.15 
M3 S0
G0 X19.200000000000003 Y2.15 
M3 S255
G1 X19.200000000000003 Y2.15 
M3 S255
G1 X19.0 Y2.15 
M3 S0
G0 X18.05 Y2.15 
M3 S255
G1 X18.05 Y2.15 
M3 S255
G1 X17.900000000000002 Y2.15 
M3 S0
G0 X11.4 Y2.15 
M3 S255
G1 X11.4 Y2.15 
M3 S255
G1 X10.850000000000001 Y2.15 
M3 S0
M5 S0
G0 X10.700000000000001 Y2.2 
M3 S255
G1 X10.700000000000001 Y2.2 
M3 S255
G1 X11.200000000000001 Y2.2 
M3 S0
G0 X17.900000000000002 Y2.2 
M3 S255
G1 X17.900000000000002 Y2.2 
M3 S255
G1 X18.05 Y2.2 
M3 S0
G0 X18.95 Y2.2 
M3 S255
G1 X18.95 Y2.2 
M3 S255
G1 X19.150000000000002 Y2.2 
M3 S0
G0 X19.950000000000003 Y2.2 
M3 S255
G1 X19.950000000000003 Y2.2 
M3 S255
G1 X20.1 Y2.2 
M3 S0
G0 X20.85 Y2.2 
M3 S255
G1 X20.85 Y2.2 
M3 S255
G1 X20.900000000000002 Y2.2 
M3 S0
G0 X21.5 Y2.2 
M3 S255
G1 X21.5 Y2.2 
M3 S255
G1 X21.55 Y2.2 
M3 S0
G0 X27.25 Y2.2 
M3 S255
G1 X27.25 Y2.2 
M3 S255
G1 X27.3 Y2.2 
M3 S0
G0 X28.25 Y2.2 
M3 S255
G1 X28.25 Y2.2 
M3 S255
G1 X28.450000000000003 Y2.2 
M3 S0
G0 X28.650000000000002 Y2.2 
M3 S255
G1 X28.650000000000002 Y2.2 
M3 S255
G1 X29.1 Y2.2 
M3 S0
M5 S0
G0 X29.200000000000003 Y2.25 
M3 S255
G1 X29.200000000000003 Y2.25 
M3 S255
G1 X28.75 Y2.25 
M3 S0
G0 X28.55 Y2.25 
M3 S255
G1 X28.55 Y2.25 
M3 S255
G1 X28.3 Y2.25 
M3 S0
G0 X27.35 Y2.25 
M3 S255
G1 X27.35 Y2.25 
M3 S255
G1 X27.200000000000003 Y2.25 
M3 S0
G0 X21.55 Y2.25 
M3 S255
G1 X21.55 Y2.25 
M3 S255
G1 X21.5 Y2.25 
M3 S0
G0 X20.1 Y2.25 
M3 S255
G1 X20.1 Y2.25 
M3 S255
G1 X19.900000000000002 Y2.25 
M3 S0
G0 X19.1 Y2.25 
M3 S255
G1 X19.1 Y2.25 
M3 S255
G1 X18.900000000000002 Y2.25 
M3 S0
G0 X18.05 Y2.25 
M3 S255
G1 X18.05 Y2.25 
M3 S255
G1 X17.900000000000002 Y2.25 
M3 S0
G0 X11.100000000000001 Y2.25 
M3 S255
G1 X11.100000000000001 Y2.25 
M3 S255
G1 X10.700000000000001 Y2.25 
M3 S0
M5 S0
G0 X10.65 Y2.3000000000000003 
M3 S255
G1 X10.65 Y2.3000000000000003 
M3 S255
G1 X11.100000000000001 Y2.3000000000000003 
M3 S0
G0 X17.85 Y2.3000000000000003 
M3 S255
G1 X17.85 Y2.3000000000000003 
M3 S255
G1 X18.05 Y2.3000000000000003 
M3 S0
G0 X18.900000000000002 Y2.3000000000000003 
M3 S255
G1 X18.900000000000002 Y2.3000000000000003 
M3 S255
G1 X19.1 Y2.3000000000000003 
M3 S0
G0 X19.900000000000002 Y2.3000000000000003 
M3 S255
G1 X19.900000000000002 Y2.3000000000000003 
M3 S255
G1 X20.05 Y2.3000000000000003 
M3 S0
G0 X20.8 Y2.3000000000000003 
M3 S255
G1 X20.8 Y2.3000000000000003 
M3 S255
G1 X20.85 Y2.3000000000000003 
M3 S0
G0 X21.5 Y2.3000000000000003 
M3 S255
G1 X21.5 Y2.3000000000000003 
M3 S255
G1 X21.55 Y2.3000000000000003 
M3 S0
G0 X27.200000000000003 Y2.3000000000000003 
M3 S255
G1 X27.200000000000003 Y2.3000000000000003 
M3 S255
G1 X27.35 Y2.3000000000000003 
M3 S0
G0 X28.3 Y2.3000000000000003 
M3 S255
G1 X28.3 Y2.3000000000000003 
M3 S255
G1 X28.650000000000002 Y2.3000000000000003 
M3 S0
G0 X28.8 Y2.3000000000000003 
M3 S255
G1 X28.8 Y2.3000000000000003 
M3 S255
G1 X29.25 Y2.3000000000000003 
M3 S0
M5 S0
G0 X29.450000000000003 Y2.35 
M3 S255
G1 X29.450000000000003 Y2.35 
M3 S255
G1 X28.950000000000003 Y2.35 
M3 S0
G0 X28.75 Y2.35 
M3 S255
G1 X28.75 Y2.35 
M3 S255
G1 X28.3 Y2.35 
M3 S0
G0 X27.35 Y2.35 
M3 S255
G1 X27.35 Y2.35 
M3 S255
G1 X27.200000000000003 Y2.35 
M3 S0
G0 X21.5 Y2.35 
M3 S255
G1 X21.5 Y2.35 
M3 S255
G1 X21.450000000000003 Y2.35 
M3 S0
G0 X20.85 Y2.35 
M3 S255
G1 X20.85 Y2.35 
M3 S255
G1 X20.75 Y2.35 
M3 S0
G0 X20.05 Y2.35 
M3 S255
G1 X20.05 Y2.35 
M3 S255
G1 X19.900000000000002 Y2.35 
M3 S0
G0 X19.05 Y2.35 
M3 S255
G1 X19.05 Y2.35 
M3 S255
G1 X18.900000000000002 Y2.35 
M3 S0
G0 X18.05 Y2.35 
M3 S255
G1 X18.05 Y2.35 
M3 S255
G1 X17.85 Y2.35 
M3 S0
G0 X10.950000000000001 Y2.35 
M3 S255
G1 X10.950000000000001 Y2.35 
M3 S255
G1 X10.450000000000001 Y2.35 
M3 S0
M5 S0
G0 X10.4 Y2.4000000000000004 
M3 S255
G1 X10.4 Y2.4000000000000004 
M3 S255
G1 X10.850000000000001 Y2.4000000000000004 
M3 S0
G0 X17.85 Y2.4000000000000004 
M3 S255
G1 X17.85 Y2.4000000000000004 
M3 S255
G1 X18.05 Y2.4000000000000004 
M3 S0
G0 X18.85 Y2.4000000000000004 
M3 S255
G1 X18.85 Y2.4000000000000004 
M3 S255
G1 X19.05 Y2.4000000000000004 
M3 S0
G0 X19.900000000000002 Y2.4000000000000004 
M3 S255
G1 X19.900000000000002 Y2.4000000000000004 
M3 S255
G1 X20.0 Y2.4000000000000004 
M3 S0
G0 X20.75 Y2.4000000000000004 
M3 S255
G1 X20.75 Y2.4000000000000004 
M3 S255
G1 X20.8 Y2.4000000000000004 
M3 S0
G0 X21.450000000000003 Y2.4000000000000004 
M3 S255
G1 X21.450000000000003 Y2.4000000000000004 
M3 S255
G1 X21.5 Y2.4000000000000004 
M3 S0
G0 X27.200000000000003 Y2.4000000000000004 
M3 S255
G1 X27.200000000000003 Y2.4000000000000004 
M3 S255
G1 X27.3 Y2.4000000000000004 
M3 S0
G0 X28.3 Y2.4000000000000004 
M3 S255
G1 X28.3 Y2.4000000000000004 
M3 S255
G1 X28.8 Y2.4000000000000004 
M3 S0
G0 X29.05 Y2.4000000000000004 
M3 S255
G1 X29.05 Y2.4000000000000004 
M3 S255
G1 X29.5 Y2.4000000000000004 
M3 S0
M5 S0
G0 X29.6 Y2.45 
M3 S255
G1 X29.6 Y2.45 
M3 S255
G1 X29.1 Y2.45 
M3 S0
G0 X28.900000000000002 Y2.45 
M3 S255
G1 X28.900000000000002 Y2.45 
M3 S255
G1 X28.3 Y2.45 
M3 S0
G0 X27.3 Y2.45 
M3 S255
G1 X27.3 Y2.45 
M3 S255
G1 X27.200000000000003 Y2.45 
M3 S0
G0 X21.5 Y2.45 
M3 S255
G1 X21.5 Y2.45 
M3 S255
G1 X21.400000000000002 Y2.45 
M3 S0
G0 X20.0 Y2.45 
M3 S255
G1 X20.0 Y2.45 
M3 S255
G1 X19.900000000000002 Y2.45 
M3 S0
G0 X19.05 Y2.45 
M3 S255
G1 X19.05 Y2.45 
M3 S255
G1 X18.85 Y2.45 
M3 S0
G0 X18.0 Y2.45 
M3 S255
G1 X18.0 Y2.45 
M3 S255
G1 X17.8 Y2.45 
M3 S0
G0 X10.8 Y2.45 
M3 S255
G1 X10.8 Y2.45 
M3 S255
G1 X10.3 Y2.45 
M3 S0
M5 S0
G0 X10.200000000000001 Y2.5 
M3 S255
G1 X10.200000000000001 Y2.5 
M3 S255
G1 X10.65 Y2.5 
M3 S0
G0 X17.75 Y2.5 
M3 S255
G1 X17.75 Y2.5 
M3 S255
G1 X17.95 Y2.5 
M3 S0
G0 X18.85 Y2.5 
M3 S255
G1 X18.85 Y2.5 
M3 S255
G1 X19.05 Y2.5 
M3 S0
G0 X19.85 Y2.5 
M3 S255
G1 X19.85 Y2.5 
M3 S255
G1 X20.0 Y2.5 
M3 S0
G0 X20.400000000000002 Y2.5 
M3 S255
G1 X20.400000000000002 Y2.5 
M3 S255
G1 X20.450000000000003 Y2.5 
M3 S0
G0 X21.400000000000002 Y2.5 
M3 S255
G1 X21.400000000000002 Y2.5 
M3 S255
G1 X21.5 Y2.5 
M3 S0
G0 X27.150000000000002 Y2.5 
M3 S255
G1 X27.150000000000002 Y2.5 
M3 S255
G1 X27.25 Y2.5 
M3 S0
G0 X28.35 Y2.5 
M3 S255
G1 X28.35 Y2.5 
M3 S255
G1 X29.05 Y2.5 
M3 S0
G0 X29.25 Y2.5 
M3 S255
G1 X29.25 Y2.5 
M3 S255
G1 X29.700000000000003 Y2.5 
M3 S0
M5 S0
G0 X29.75 Y2.5500000000000003 
M3 S255
G1 X29.75 Y2.5500000000000003 
M3 S255
G1 X29.35 Y2.5500000000000003 
M3 S0
G0 X29.1 Y2.5500000000000003 
M3 S255
G1 X29.1 Y2.5500000000000003 
M3 S255
G1 X28.450000000000003 Y2.5500000000000003 
M3 S0
G0 X27.200000000000003 Y2.5500000000000003 
M3 S255
G1 X27.200000000000003 Y2.5500000000000003 
M3 S255
G1 X27.150000000000002 Y2.5500000000000003 
M3 S0
G0 X21.5 Y2.5500000000000003 
M3 S255
G1 X21.5 Y2.5500000000000003 
M3 S255
G1 X21.400000000000002 Y2.5500000000000003 
M3 S0
G0 X20.450000000000003 Y2.5500000000000003 
M3 S255
G1 X20.450000000000003 Y2.5500000000000003 
M3 S255
G1 X20.400000000000002 Y2.5500000000000003 
M3 S0
G0 X20.0 Y2.5500000000000003 
M3 S255
G1 X20.0 Y2.5500000000000003 
M3 S255
G1 X19.85 Y2.5500000000000003 
M3 S0
G0 X19.05 Y2.5500000000000003 
M3 S255
G1 X19.05 Y2.5500000000000003 
M3 S255
G1 X18.85 Y2.5500000000000003 
M3 S0
G0 X17.900000000000002 Y2.5500000000000003 
M3 S255
G1 X17.900000000000002 Y2.5500000000000003 
M3 S255
G1 X17.75 Y2.5500000000000003 
M3 S0
G0 X10.55 Y2.5500000000000003 
M3 S255
G1 X10.55 Y2.5500000000000003 
M3 S255
G1 X10.15 Y2.5500000000000003 
M3 S0
M5 S0
G0 X10.05 Y2.6 
M3 S255
G1 X10.05 Y2.6 
M3 S255
G1 X10.450000000000001 Y2.6 
M3 S0
G0 X17.7 Y2.6 
M3 S255
G1 X17.7 Y2.6 
M3 S255
G1 X17.900000000000002 Y2.6 
M3 S0
G0 X18.85 Y2.6 
M3 S255
G1 X18.85 Y2.6 
M3 S255
G1 X19.0 Y2.6 
M3 S0
G0 X19.85 Y2.6 
M3 S255
G1 X19.85 Y2.6 
M3 S255
G1 X20.0 Y2.6 
M3 S0
G0 X20.400000000000002 Y2.6 
M3 S255
G1 X20.400000000000002 Y2.6 
M3 S255
G1 X20.450000000000003 Y2.6 
M3 S0
G0 X21.400000000000002 Y2.6 
M3 S255
G1 X21.400000000000002 Y2.6 
M3 S255
G1 X21.5 Y2.6 
M3 S0
G0 X28.6 Y2.6 
M3 S255
G1 X28.6 Y2.6 
M3 S255
G1 X29.200000000000003 Y2.6 
M3 S0
G0 X29.400000000000002 Y2.6 
M3 S255
G1 X29.400000000000002 Y2.6 
M3 S255
G1 X29.85 Y2.6 
M3 S0
M5 S0
G0 X30.0 Y2.6500000000000004 
M3 S255
G1 X30.0 Y2.6500000000000004 
M3 S255
G1 X29.55 Y2.6500000000000004 
M3 S0
G0 X29.400000000000002 Y2.6500000000000004 
M3 S255
G1 X29.400000000000002 Y2.6500000000000004 
M3 S255
G1 X28.85 Y2.6500000000000004 
M3 S0
G0 X27.55 Y2.6500000000000004 
M3 S255
G1 X27.55 Y2.6500000000000004 
M3 S255
G1 X27.450000000000003 Y2.6500000000000004 
M3 S0
G0 X27.3 Y2.6500000000000004 
M3 S255
G1 X27.3 Y2.6500000000000004 
M3 S255
G1 X27.25 Y2.6500000000000004 
M3 S0
G0 X21.5 Y2.6500000000000004 
M3 S255
G1 X21.5 Y2.6500000000000004 
M3 S255
G1 X21.35 Y2.6500000000000004 
M3 S0
G0 X20.8 Y2.6500000000000004 
M3 S255
G1 X20.8 Y2.6500000000000004 
M3 S255
G1 X20.75 Y2.6500000000000004 
M3 S0
G0 X20.450000000000003 Y2.6500000000000004 
M3 S255
G1 X20.450000000000003 Y2.6500000000000004 
M3 S255
G1 X20.400000000000002 Y2.6500000000000004 
M3 S0
G0 X19.950000000000003 Y2.6500000000000004 
M3 S255
G1 X19.950000000000003 Y2.6500000000000004 
M3 S255
G1 X19.8 Y2.6500000000000004 
M3 S0
G0 X19.0 Y2.6500000000000004 
M3 S255
G1 X19.0 Y2.6500000000000004 
M3 S255
G1 X18.8 Y2.6500000000000004 
M3 S0
G0 X17.85 Y2.6500000000000004 
M3 S255
G1 X17.85 Y2.6500000000000004 
M3 S255
G1 X17.650000000000002 Y2.6500000000000004 
M3 S0
G0 X10.3 Y2.6500000000000004 
M3 S255
G1 X10.3 Y2.6500000000000004 
M3 S255
G1 X9.9 Y2.6500000000000004 
M3 S0
M5 S0
G0 X9.850000000000001 Y2.7 
M3 S255
G1 X9.850000000000001 Y2.7 
M3 S255
G1 X10.3 Y2.7 
M3 S0
G0 X17.6 Y2.7 
M3 S255
G1 X17.6 Y2.7 
M3 S255
G1 X17.85 Y2.7 
M3 S0
G0 X18.8 Y2.7 
M3 S255
G1 X18.8 Y2.7 
M3 S255
G1 X18.95 Y2.7 
M3 S0
G0 X19.8 Y2.7 
M3 S255
G1 X19.8 Y2.7 
M3 S255
G1 X19.950000000000003 Y2.7 
M3 S0
G0 X20.400000000000002 Y2.7 
M3 S255
G1 X20.400000000000002 Y2.7 
M3 S255
G1 X20.450000000000003 Y2.7 
M3 S0
G0 X20.75 Y2.7 
M3 S255
G1 X20.75 Y2.7 
M3 S255
G1 X20.8 Y2.7 
M3 S0
G0 X21.35 Y2.7 
M3 S255
G1 X21.35 Y2.7 
M3 S255
G1 X21.450000000000003 Y2.7 
M3 S0
G0 X27.25 Y2.7 
M3 S255
G1 X27.25 Y2.7 
M3 S255
G1 X27.3 Y2.7 
M3 S0
G0 X27.5 Y2.7 
M3 S255
G1 X27.5 Y2.7 
M3 S255
G1 X27.6 Y2.7 
M3 S0
G0 X29.05 Y2.7 
M3 S255
G1 X29.05 Y2.7 
M3 S255
G1 X29.450000000000003 Y2.7 
M3 S0
G0 X29.6 Y2.7 
M3 S255
G1 X29.6 Y2.7 
M3 S255
G1 X30.05 Y2.7 
M3 S0
M5 S0
G0 X30.150000000000002 Y2.75 
M3 S255
G1 X30.150000000000002 Y2.75 
M3 S255
G1 X29.700000000000003 Y2.75 
M3 S0
G0 X29.55 Y2.75 
M3 S255
G1 X29.55 Y2.75 
M3 S255
G1 X29.200000000000003 Y2.75 
M3 S0
G0 X27.650000000000002 Y2.75 
M3 S255
G1 X27.650000000000002 Y2.75 
M3 S255
G1 X27.5 Y2.75 
M3 S0
G0 X27.3 Y2.75 
M3 S255
G1 X27.3 Y2.75 
M3 S255
G1 X27.200000000000003 Y2.75 
M3 S0
G0 X21.450000000000003 Y2.75 
M3 S255
G1 X21.450000000000003 Y2.75 
M3 S255
G1 X21.35 Y2.75 
M3 S0
G0 X20.8 Y2.75 
M3 S255
G1 X20.8 Y2.75 
M3 S255
G1 X20.75 Y2.75 
M3 S0
G0 X20.450000000000003 Y2.75 
M3 S255
G1 X20.450000000000003 Y2.75 
M3 S255
G1 X20.400000000000002 Y2.75 
M3 S0
G0 X19.900000000000002 Y2.75 
M3 S255
G1 X19.900000000000002 Y2.75 
M3 S255
G1 X19.8 Y2.75 
M3 S0
G0 X18.95 Y2.75 
M3 S255
G1 X18.95 Y2.75 
M3 S255
G1 X18.8 Y2.75 
M3 S0
G0 X17.8 Y2.75 
M3 S255
G1 X17.8 Y2.75 
M3 S255
G1 X17.6 Y2.75 
M3 S0
G0 X10.200000000000001 Y2.75 
M3 S255
G1 X10.200000000000001 Y2.75 
M3 S255
G1 X9.75 Y2.75 
M3 S0
M5 S0
G0 X9.700000000000001 Y2.8000000000000003 
M3 S255
G1 X9.700000000000001 Y2.8000000000000003 
M3 S255
G1 X10.15 Y2.8000000000000003 
M3 S0
G0 X17.6 Y2.8000000000000003 
M3 S255
G1 X17.6 Y2.8000000000000003 
M3 S255
G1 X17.75 Y2.8000000000000003 
M3 S0
G0 X18.8 Y2.8000000000000003 
M3 S255
G1 X18.8 Y2.8000000000000003 
M3 S255
G1 X18.95 Y2.8000000000000003 
M3 S0
G0 X19.8 Y2.8000000000000003 
M3 S255
G1 X19.8 Y2.8000000000000003 
M3 S255
G1 X19.900000000000002 Y2.8000000000000003 
M3 S0
G0 X20.400000000000002 Y2.8000000000000003 
M3 S255
G1 X20.400000000000002 Y2.8000000000000003 
M3 S255
G1 X20.450000000000003 Y2.8000000000000003 
M3 S0
G0 X20.75 Y2.8000000000000003 
M3 S255
G1 X20.75 Y2.8000000000000003 
M3 S255
G1 X20.8 Y2.8000000000000003 
M3 S0
G0 X21.35 Y2.8000000000000003 
M3 S255
G1 X21.35 Y2.8000000000000003 
M3 S255
G1 X21.450000000000003 Y2.8000000000000003 
M3 S0
G0 X27.150000000000002 Y2.8000000000000003 
M3 S255
G1 X27.150000000000002 Y2.8000000000000003 
M3 S255
G1 X27.25 Y2.8000000000000003 
M3 S0
G0 X27.450000000000003 Y2.8000000000000003 
M3 S255
G1 X27.450000000000003 Y2.8000000000000003 
M3 S255
G1 X27.650000000000002 Y2.8000000000000003 
M3 S0
G0 X29.25 Y2.8000000000000003 
M3 S255
G1 X29.25 Y2.8000000000000003 
M3 S255
G1 X29.6 Y2.8000000000000003 
M3 S0
G0 X29.75 Y2.8000000000000003 
M3 S255
G1 X29.75 Y2.8000000000000003 
M3 S255
G1 X30.200000000000003 Y2.8000000000000003 
M3 S0
M5 S0
G0 X30.3 Y2.85 
M3 S255
G1 X30.3 Y2.85 
M3 S255
G1 X29.900000000000002 Y2.85 
M3 S0
G0 X29.75 Y2.85 
M3 S255
G1 X29.75 Y2.85 
M3 S255
G1 X29.35 Y2.85 
M3 S0
G0 X27.900000000000002 Y2.85 
M3 S255
G1 X27.900000000000002 Y2.85 
M3 S255
G1 X27.8 Y2.85 
M3 S0
G0 X27.6 Y2.85 
M3 S255
G1 X27.6 Y2.85 
M3 S255
G1 X27.400000000000002 Y2.85 
M3 S0
G0 X27.3 Y2.85 
M3 S255
G1 X27.3 Y2.85 
M3 S255
G1 X27.1 Y2.85 
M3 S0
G0 X21.450000000000003 Y2.85 
M3 S255
G1 X21.450000000000003 Y2.85 
M3 S255
G1 X21.35 Y2.85 
M3 S0
G0 X20.55 Y2.85 
M3 S255
G1 X20.55 Y2.85 
M3 S255
G1 X20.5 Y2.85 
M3 S0
G0 X20.450000000000003 Y2.85 
M3 S255
G1 X20.450000000000003 Y2.85 
M3 S255
G1 X20.400000000000002 Y2.85 
M3 S0
G0 X19.900000000000002 Y2.85 
M3 S255
G1 X19.900000000000002 Y2.85 
M3 S255
G1 X19.75 Y2.85 
M3 S0
G0 X18.95 Y2.85 
M3 S255
G1 X18.95 Y2.85 
M3 S255
G1 X18.75 Y2.85 
M3 S0
G0 X17.75 Y2.85 
M3 S255
G1 X17.75 Y2.85 
M3 S255
G1 X17.5 Y2.85 
M3 S0
G0 X10.0 Y2.85 
M3 S255
G1 X10.0 Y2.85 
M3 S255
G1 X9.600000000000001 Y2.85 
M3 S0
M5 S0
G0 X9.5 Y2.9000000000000004 
M3 S255
G1 X9.5 Y2.9000000000000004 
M3 S255
G1 X9.9 Y2.9000000000000004 
M3 S0
G0 X17.5 Y2.9000000000000004 
M3 S255
G1 X17.5 Y2.9000000000000004 
M3 S255
G1 X17.75 Y2.9000000000000004 
M3 S0
G0 X18.75 Y2.9000000000000004 
M3 S255
G1 X18.75 Y2.9000000000000004 
M3 S255
G1 X18.900000000000002 Y2.9000000000000004 
M3 S0
G0 X19.75 Y2.9000000000000004 
M3 S255
G1 X19.75 Y2.9000000000000004 
M3 S255
G1 X19.900000000000002 Y2.9000000000000004 
M3 S0
G0 X20.400000000000002 Y2.9000000000000004 
M3 S255
G1 X20.400000000000002 Y2.9000000000000004 
M3 S255
G1 X20.55 Y2.9000000000000004 
M3 S0
G0 X21.35 Y2.9000000000000004 
M3 S255
G1 X21.35 Y2.9000000000000004 
M3 S255
G1 X21.450000000000003 Y2.9000000000000004 
M3 S0
G0 X27.1 Y2.9000000000000004 
M3 S255
G1 X27.1 Y2.9000000000000004 
M3 S255
G1 X27.25 Y2.9000000000000004 
M3 S0
G0 X27.35 Y2.9000000000000004 
M3 S255
G1 X27.35 Y2.9000000000000004 
M3 S255
G1 X27.55 Y2.9000000000000004 
M3 S0
G0 X27.8 Y2.9000000000000004 
M3 S255
G1 X27.8 Y2.9000000000000004 
M3 S255
G1 X27.85 Y2.9000000000000004 
M3 S0
G0 X29.35 Y2.9000000000000004 
M3 S255
G1 X29.35 Y2.9000000000000004 
M3 S255
G1 X29.900000000000002 Y2.9000000000000004 
M3 S0
G0 X30.0 Y2.9000000000000004 
M3 S255
G1 X30.0 Y2.9000000000000004 
M3 S255
G1 X30.35 Y2.9000000000000004 
M3 S0
M5 S0
G0 X30.450000000000003 Y2.95 
M3 S255
G1 X30.450000000000003 Y2.95 
M3 S255
G1 X30.05 Y2.95 
M3 S0
G0 X29.900000000000002 Y2.95 
M3 S255
G1 X29.900000000000002 Y2.95 
M3 S255
G1 X29.35 Y2.95 
M3 S0
G0 X27.85 Y2.95 
M3 S255
G1 X27.85 Y2.95 
M3 S255
G1 X27.8 Y2.95 
M3 S0
G0 X27.5 Y2.95 
M3 S255
G1 X27.5 Y2.95 
M3 S255
G1 X27.35 Y2.95 
M3 S0
G0 X27.3 Y2.95 
M3 S255
G1 X27.3 Y2.95 
M3 S255
G1 X27.1 Y2.95 
M3 S0
G0 X21.450000000000003 Y2.95 
M3 S255
G1 X21.450000000000003 Y2.95 
M3 S255
G1 X21.35 Y2.95 
M3 S0
G0 X20.55 Y2.95 
M3 S255
G1 X20.55 Y2.95 
M3 S255
G1 X20.400000000000002 Y2.95 
M3 S0
G0 X19.900000000000002 Y2.95 
M3 S255
G1 X19.900000000000002 Y2.95 
M3 S255
G1 X19.75 Y2.95 
M3 S0
G0 X18.900000000000002 Y2.95 
M3 S255
G1 X18.900000000000002 Y2.95 
M3 S255
G1 X18.75 Y2.95 
M3 S0
G0 X17.7 Y2.95 
M3 S255
G1 X17.7 Y2.95 
M3 S255
G1 X17.45 Y2.95 
M3 S0
G0 X10.950000000000001 Y2.95 
M3 S255
G1 X10.950000000000001 Y2.95 
M3 S255
G1 X10.65 Y2.95 
M3 S0
G0 X9.850000000000001 Y2.95 
M3 S255
G1 X9.850000000000001 Y2.95 
M3 S255
G1 X9.450000000000001 Y2.95 
M3 S0
M5 S0
G0 X9.35 Y3.0 
M3 S255
G1 X9.35 Y3.0 
M3 S255
G1 X9.75 Y3.0 
M3 S0
G0 X10.450000000000001 Y3.0 
M3 S255
G1 X10.450000000000001 Y3.0 
M3 S255
G1 X11.05 Y3.0 
M3 S0
G0 X17.45 Y3.0 
M3 S255
G1 X17.45 Y3.0 
M3 S255
G1 X17.650000000000002 Y3.0 
M3 S0
G0 X18.75 Y3.0 
M3 S255
G1 X18.75 Y3.0 
M3 S255
G1 X18.900000000000002 Y3.0 
M3 S0
G0 X19.75 Y3.0 
M3 S255
G1 X19.75 Y3.0 
M3 S255
G1 X19.900000000000002 Y3.0 
M3 S0
G0 X20.450000000000003 Y3.0 
M3 S255
G1 X20.450000000000003 Y3.0 
M3 S255
G1 X20.55 Y3.0 
M3 S0
G0 X21.35 Y3.0 
M3 S255
G1 X21.35 Y3.0 
M3 S255
G1 X21.400000000000002 Y3.0 
M3 S0
G0 X27.05 Y3.0 
M3 S255
G1 X27.05 Y3.0 
M3 S255
G1 X27.5 Y3.0 
M3 S0
G0 X29.700000000000003 Y3.0 
M3 S255
G1 X29.700000000000003 Y3.0 
M3 S255
G1 X29.85 Y3.0 
M3 S0
G0 X29.900000000000002 Y3.0 
M3 S255
G1 X29.900000000000002 Y3.0 
M3 S255
G1 X30.05 Y3.0 
M3 S0
G0 X30.150000000000002 Y3.0 
M3 S255
G1 X30.150000000000002 Y3.0 
M3 S255
G1 X30.55 Y3.0 
M3 S0
M5 S0
G0 X30.650000000000002 Y3.0500000000000003 
M3 S255
G1 X30.650000000000002 Y3.0500000000000003 
M3 S255
G1 X30.25 Y3.0500000000000003 
M3 S0
G0 X30.150000000000002 Y3.0500000000000003 
M3 S255
G1 X30.150000000000002 Y3.0500000000000003 
M3 S255
G1 X29.900000000000002 Y3.0500000000000003 
M3 S0
G0 X27.400000000000002 Y3.0500000000000003 
M3 S255
G1 X27.400000000000002 Y3.0500000000000003 
M3 S255
G1 X27.05 Y3.0500000000000003 
M3 S0
G0 X21.400000000000002 Y3.0500000000000003 
M3 S255
G1 X21.400000000000002 Y3.0500000000000003 
M3 S255
G1 X21.25 Y3.0500000000000003 
M3 S0
G0 X20.55 Y3.0500000000000003 
M3 S255
G1 X20.55 Y3.0500000000000003 
M3 S255
G1 X20.450000000000003 Y3.0500000000000003 
M3 S0
G0 X19.85 Y3.0500000000000003 
M3 S255
G1 X19.85 Y3.0500000000000003 
M3 S255
G1 X19.75 Y3.0500000000000003 
M3 S0
G0 X18.900000000000002 Y3.0500000000000003 
M3 S255
G1 X18.900000000000002 Y3.0500000000000003 
M3 S255
G1 X18.7 Y3.0500000000000003 
M3 S0
G0 X17.6 Y3.0500000000000003 
M3 S255
G1 X17.6 Y3.0500000000000003 
M3 S255
G1 X17.45 Y3.0500000000000003 
M3 S0
G0 X11.100000000000001 Y3.0500000000000003 
M3 S255
G1 X11.100000000000001 Y3.0500000000000003 
M3 S255
G1 X10.850000000000001 Y3.0500000000000003 
M3 S0
G0 X10.5 Y3.0500000000000003 
M3 S255
G1 X10.5 Y3.0500000000000003 
M3 S255
G1 X10.3 Y3.0500000000000003 
M3 S0
G0 X9.65 Y3.0500000000000003 
M3 S255
G1 X9.65 Y3.0500000000000003 
M3 S255
G1 X9.25 Y3.0500000000000003 
M3 S0
M5 S0
G0 X9.200000000000001 Y3.1 
M3 S255
G1 X9.200000000000001 Y3.1 
M3 S255
G1 X9.600000000000001 Y3.1 
M3 S0
G0 X10.200000000000001 Y3.1 
M3 S255
G1 X10.200000000000001 Y3.1 
M3 S255
G1 X10.4 Y3.1 
M3 S0
G0 X10.950000000000001 Y3.1 
M3 S255
G1 X10.950000000000001 Y3.1 
M3 S255
G1 X11.100000000000001 Y3.1 
M3 S0
G0 X17.45 Y3.1 
M3 S255
G1 X17.45 Y3.1 
M3 S255
G1 X17.6 Y3.1 
M3 S0
G0 X18.7 Y3.1 
M3 S255
G1 X18.7 Y3.1 
M3 S255
G1 X18.900000000000002 Y3.1 
M3 S0
G0 X19.75 Y3.1 
M3 S255
G1 X19.75 Y3.1 
M3 S255
G1 X19.85 Y3.1 
M3 S0
G0 X20.450000000000003 Y3.1 
M3 S255
G1 X20.450000000000003 Y3.1 
M3 S255
G1 X20.55 Y3.1 
M3 S0
G0 X21.25 Y3.1 
M3 S255
G1 X21.25 Y3.1 
M3 S255
G1 X21.400000000000002 Y3.1 
M3 S0
G0 X27.05 Y3.1 
M3 S255
G1 X27.05 Y3.1 
M3 S255
G1 X27.35 Y3.1 
M3 S0
G0 X30.0 Y3.1 
M3 S255
G1 X30.0 Y3.1 
M3 S255
G1 X30.200000000000003 Y3.1 
M3 S0
G0 X30.3 Y3.1 
M3 S255
G1 X30.3 Y3.1 
M3 S255
G1 X30.650000000000002 Y3.1 
M3 S0
M5 S0
G0 X30.8 Y3.1500000000000004 
M3 S255
G1 X30.8 Y3.1500000000000004 
M3 S255
G1 X30.05 Y3.1500000000000004 
M3 S0
G0 X27.85 Y3.1500000000000004 
M3 S255
G1 X27.85 Y3.1500000000000004 
M3 S255
G1 X27.8 Y3.1500000000000004 
M3 S0
G0 X27.3 Y3.1500000000000004 
M3 S255
G1 X27.3 Y3.1500000000000004 
M3 S255
G1 X27.05 Y3.1500000000000004 
M3 S0
G0 X21.400000000000002 Y3.1500000000000004 
M3 S255
G1 X21.400000000000002 Y3.1500000000000004 
M3 S255
G1 X21.25 Y3.1500000000000004 
M3 S0
G0 X20.55 Y3.1500000000000004 
M3 S255
G1 X20.55 Y3.1500000000000004 
M3 S255
G1 X20.450000000000003 Y3.1500000000000004 
M3 S0
G0 X19.85 Y3.1500000000000004 
M3 S255
G1 X19.85 Y3.1500000000000004 
M3 S255
G1 X19.75 Y3.1500000000000004 
M3 S0
G0 X18.85 Y3.1500000000000004 
M3 S255
G1 X18.85 Y3.1500000000000004 
M3 S255
G1 X18.7 Y3.1500000000000004 
M3 S0
G0 X17.6 Y3.1500000000000004 
M3 S255
G1 X17.6 Y3.1500000000000004 
M3 S255
G1 X17.400000000000002 Y3.1500000000000004 
M3 S0
G0 X11.15 Y3.1500000000000004 
M3 S255
G1 X11.15 Y3.1500000000000004 
M3 S255
G1 X11.0 Y3.1500000000000004 
M3 S0
G0 X10.25 Y3.1500000000000004 
M3 S255
G1 X10.25 Y3.1500000000000004 
M3 S255
G1 X10.05 Y3.1500000000000004 
M3 S0
G0 X9.450000000000001 Y3.1500000000000004 
M3 S255
G1 X9.450000000000001 Y3.1500000000000004 
M3 S255
G1 X9.1 Y3.1500000000000004 
M3 S0
M5 S0
G0 X9.05 Y3.2 
M3 S255
G1 X9.05 Y3.2 
M3 S255
G1 X9.450000000000001 Y3.2 
M3 S0
G0 X10.0 Y3.2 
M3 S255
G1 X10.0 Y3.2 
M3 S255
G1 X10.200000000000001 Y3.2 
M3 S0
G0 X11.05 Y3.2 
M3 S255
G1 X11.05 Y3.2 
M3 S255
G1 X11.200000000000001 Y3.2 
M3 S0
G0 X17.35 Y3.2 
M3 S255
G1 X17.35 Y3.2 
M3 S255
G1 X17.6 Y3.2 
M3 S0
G0 X18.7 Y3.2 
M3 S255
G1 X18.7 Y3.2 
M3 S255
G1 X18.85 Y3.2 
M3 S0
G0 X19.650000000000002 Y3.2 
M3 S255
G1 X19.650000000000002 Y3.2 
M3 S255
G1 X19.85 Y3.2 
M3 S0
G0 X20.450000000000003 Y3.2 
M3 S255
G1 X20.450000000000003 Y3.2 
M3 S255
G1 X20.55 Y3.2 
M3 S0
G0 X21.25 Y3.2 
M3 S255
G1 X21.25 Y3.2 
M3 S255
G1 X21.400000000000002 Y3.2 
M3 S0
G0 X27.05 Y3.2 
M3 S255
G1 X27.05 Y3.2 
M3 S255
G1 X27.3 Y3.2 
M3 S0
G0 X27.8 Y3.2 
M3 S255
G1 X27.8 Y3.2 
M3 S255
G1 X27.85 Y3.2 
M3 S0
G0 X30.150000000000002 Y3.2 
M3 S255
G1 X30.150000000000002 Y3.2 
M3 S255
G1 X30.85 Y3.2 
M3 S0
M5 S0
G0 X30.950000000000003 Y3.25 
M3 S255
G1 X30.950000000000003 Y3.25 
M3 S255
G1 X30.150000000000002 Y3.25 
M3 S0
G0 X28.950000000000003 Y3.25 
M3 S255
G1 X28.950000000000003 Y3.25 
M3 S255
G1 X28.900000000000002 Y3.25 
M3 S0
G0 X27.85 Y3.25 
M3 S255
G1 X27.85 Y3.25 
M3 S255
G1 X27.8 Y3.25 
M3 S0
G0 X27.25 Y3.25 
M3 S255
G1 X27.25 Y3.25 
M3 S255
G1 X27.05 Y3.25 
M3 S0
G0 X21.400000000000002 Y3.25 
M3 S255
G1 X21.400000000000002 Y3.25 
M3 S255
G1 X21.25 Y3.25 
M3 S0
G0 X20.55 Y3.25 
M3 S255
G1 X20.55 Y3.25 
M3 S255
G1 X20.450000000000003 Y3.25 
M3 S0
G0 X19.85 Y3.25 
M3 S255
G1 X19.85 Y3.25 
M3 S255
G1 X19.650000000000002 Y3.25 
M3 S0
G0 X18.85 Y3.25 
M3 S255
G1 X18.85 Y3.25 
M3 S255
G1 X18.7 Y3.25 
M3 S0
G0 X17.55 Y3.25 
M3 S255
G1 X17.55 Y3.25 
M3 S255
G1 X17.35 Y3.25 
M3 S0
G0 X11.200000000000001 Y3.25 
M3 S255
G1 X11.200000000000001 Y3.25 
M3 S255
G1 X11.100000000000001 Y3.25 
M3 S0
G0 X10.15 Y3.25 
M3 S255
G1 X10.15 Y3.25 
M3 S255
G1 X9.9 Y3.25 
M3 S0
G0 X9.35 Y3.25 
M3 S255
G1 X9.35 Y3.25 
M3 S255
G1 X8.950000000000001 Y3.25 
M3 S0
M5 S0
G0 X8.85 Y3.3000000000000003 
M3 S255
G1 X8.85 Y3.3000000000000003 
M3 S255
G1 X9.25 Y3.3000000000000003 
M3 S0
G0 X9.75 Y3.3000000000000003 
M3 S255
G1 X9.75 Y3.3000000000000003 
M3 S255
G1 X10.15 Y3.3000000000000003 
M3 S0
G0 X11.100000000000001 Y3.3000000000000003 
M3 S255
G1 X11.100000000000001 Y3.3000000000000003 
M3 S255
G1 X11.25 Y3.3000000000000003 
M3 S0
G0 X17.3 Y3.3000000000000003 
M3 S255
G1 X17.3 Y3.3000000000000003 
M3 S255
G1 X17.5 Y3.3000000000000003 
M3 S0
G0 X18.7 Y3.3000000000000003 
M3 S255
G1 X18.7 Y3.3000000000000003 
M3 S255
G1 X18.85 Y3.3000000000000003 
M3 S0
G0 X19.650000000000002 Y3.3000000000000003 
M3 S255
G1 X19.650000000000002 Y3.3000000000000003 
M3 S255
G1 X19.85 Y3.3000000000000003 
M3 S0
G0 X20.450000000000003 Y3.3000000000000003 
M3 S255
G1 X20.450000000000003 Y3.3000000000000003 
M3 S255
G1 X20.6 Y3.3000000000000003 
M3 S0
G0 X21.25 Y3.3000000000000003 
M3 S255
G1 X21.25 Y3.3000000000000003 
M3 S255
G1 X21.35 Y3.3000000000000003 
M3 S0
G0 X27.0 Y3.3000000000000003 
M3 S255
G1 X27.0 Y3.3000000000000003 
M3 S255
G1 X27.200000000000003 Y3.3000000000000003 
M3 S0
G0 X27.8 Y3.3000000000000003 
M3 S255
G1 X27.8 Y3.3000000000000003 
M3 S255
G1 X27.85 Y3.3000000000000003 
M3 S0
G0 X28.900000000000002 Y3.3000000000000003 
M3 S255
G1 X28.900000000000002 Y3.3000000000000003 
M3 S255
G1 X28.950000000000003 Y3.3000000000000003 
M3 S0
G0 X30.150000000000002 Y3.3000000000000003 
M3 S255
G1 X30.150000000000002 Y3.3000000000000003 
M3 S255
G1 X31.05 Y3.3000000000000003 
M3 S0
M5 S0
G0 X31.1 Y3.35 
M3 S255
G1 X31.1 Y3.35 
M3 S255
G1 X30.35 Y3.35 
M3 S0
G0 X30.3 Y3.35 
M3 S255
G1 X30.3 Y3.35 
M3 S255
G1 X30.150000000000002 Y3.35 
M3 S0
G0 X29.900000000000002 Y3.35 
M3 S255
G1 X29.900000000000002 Y3.35 
M3 S255
G1 X29.75 Y3.35 
M3 S0
G0 X27.85 Y3.35 
M3 S255
G1 X27.85 Y3.35 
M3 S255
G1 X27.8 Y3.35 
M3 S0
G0 X27.200000000000003 Y3.35 
M3 S255
G1 X27.200000000000003 Y3.35 
M3 S255
G1 X26.950000000000003 Y3.35 
M3 S0
G0 X21.35 Y3.35 
M3 S255
G1 X21.35 Y3.35 
M3 S255
G1 X21.25 Y3.35 
M3 S0
G0 X20.6 Y3.35 
M3 S255
G1 X20.6 Y3.35 
M3 S255
G1 X20.450000000000003 Y3.35 
M3 S0
G0 X20.1 Y3.35 
M3 S255
G1 X20.1 Y3.35 
M3 S255
G1 X20.05 Y3.35 
M3 S0
G0 X19.85 Y3.35 
M3 S255
G1 X19.85 Y3.35 
M3 S255
G1 X19.650000000000002 Y3.35 
M3 S0
G0 X18.85 Y3.35 
M3 S255
G1 X18.85 Y3.35 
M3 S255
G1 X18.7 Y3.35 
M3 S0
G0 X17.5 Y3.35 
M3 S255
G1 X17.5 Y3.35 
M3 S255
G1 X17.3 Y3.35 
M3 S0
G0 X11.25 Y3.35 
M3 S255
G1 X11.25 Y3.35 
M3 S255
G1 X11.100000000000001 Y3.35 
M3 S0
G0 X10.15 Y3.35 
M3 S255
G1 X10.15 Y3.35 
M3 S255
G1 X9.700000000000001 Y3.35 
M3 S0
G0 X9.200000000000001 Y3.35 
M3 S255
G1 X9.200000000000001 Y3.35 
M3 S255
G1 X8.8 Y3.35 
M3 S0
M5 S0
G0 X8.75 Y3.4000000000000004 
M3 S255
G1 X8.75 Y3.4000000000000004 
M3 S255
G1 X9.1 Y3.4000000000000004 
M3 S0
G0 X9.65 Y3.4000000000000004 
M3 S255
G1 X9.65 Y3.4000000000000004 
M3 S255
G1 X10.15 Y3.4000000000000004 
M3 S0
G0 X11.100000000000001 Y3.4000000000000004 
M3 S255
G1 X11.100000000000001 Y3.4000000000000004 
M3 S255
G1 X11.25 Y3.4000000000000004 
M3 S0
G0 X17.25 Y3.4000000000000004 
M3 S255
G1 X17.25 Y3.4000000000000004 
M3 S255
G1 X17.45 Y3.4000000000000004 
M3 S0
G0 X18.7 Y3.4000000000000004 
M3 S255
G1 X18.7 Y3.4000000000000004 
M3 S255
G1 X18.85 Y3.4000000000000004 
M3 S0
G0 X19.650000000000002 Y3.4000000000000004 
M3 S255
G1 X19.650000000000002 Y3.4000000000000004 
M3 S255
G1 X19.85 Y3.4000000000000004 
M3 S0
G0 X20.05 Y3.4000000000000004 
M3 S255
G1 X20.05 Y3.4000000000000004 
M3 S255
G1 X20.1 Y3.4000000000000004 
M3 S0
G0 X20.450000000000003 Y3.4000000000000004 
M3 S255
G1 X20.450000000000003 Y3.4000000000000004 
M3 S255
G1 X20.6 Y3.4000000000000004 
M3 S0
G0 X21.25 Y3.4000000000000004 
M3 S255
G1 X21.25 Y3.4000000000000004 
M3 S255
G1 X21.35 Y3.4000000000000004 
M3 S0
G0 X26.950000000000003 Y3.4000000000000004 
M3 S255
G1 X26.950000000000003 Y3.4000000000000004 
M3 S255
G1 X27.200000000000003 Y3.4000000000000004 
M3 S0
G0 X27.75 Y3.4000000000000004 
M3 S255
G1 X27.75 Y3.4000000000000004 
M3 S255
G1 X27.85 Y3.4000000000000004 
M3 S0
G0 X29.75 Y3.4000000000000004 
M3 S255
G1 X29.75 Y3.4000000000000004 
M3 S255
G1 X29.900000000000002 Y3.4000000000000004 
M3 S0
G0 X30.150000000000002 Y3.4000000000000004 
M3 S255
G1 X30.150000000000002 Y3.4000000000000004 
M3 S255
G1 X30.25 Y3.4000000000000004 
M3 S0
G0 X30.450000000000003 Y3.4000000000000004 
M3 S255
G1 X30.450000000000003 Y3.4000000000000004 
M3 S255
G1 X31.150000000000002 Y3.4000000000000004 
M3 S0
M5 S0
G0 X31.25 Y3.45 
M3 S255
G1 X31.25 Y3.45 
M3 S255
G1 X30.85 Y3.45 
M3 S0
G0 X30.8 Y3.45 
M3 S255
G1 X30.8 Y3.45 
M3 S255
G1 X30.55 Y3.45 
M3 S0
G0 X29.900000000000002 Y3.45 
M3 S255
G1 X29.900000000000002 Y3.45 
M3 S255
G1 X29.75 Y3.45 
M3 S0
G0 X29.55 Y3.45 
M3 S255
G1 X29.55 Y3.45 
M3 S255
G1 X29.400000000000002 Y3.45 
M3 S0
G0 X27.85 Y3.45 
M3 S255
G1 X27.85 Y3.45 
M3 S255
G1 X27.75 Y3.45 
M3 S0
G0 X27.200000000000003 Y3.45 
M3 S255
G1 X27.200000000000003 Y3.45 
M3 S255
G1 X26.900000000000002 Y3.45 
M3 S0
G0 X21.35 Y3.45 
M3 S255
G1 X21.35 Y3.45 
M3 S255
G1 X21.25 Y3.45 
M3 S0
G0 X20.6 Y3.45 
M3 S255
G1 X20.6 Y3.45 
M3 S255
G1 X20.55 Y3.45 
M3 S0
G0 X20.5 Y3.45 
M3 S255
G1 X20.5 Y3.45 
M3 S255
G1 X20.450000000000003 Y3.45 
M3 S0
G0 X20.1 Y3.45 
M3 S255
G1 X20.1 Y3.45 
M3 S255
G1 X20.0 Y3.45 
M3 S0
G0 X19.8 Y3.45 
M3 S255
G1 X19.8 Y3.45 
M3 S255
G1 X19.650000000000002 Y3.45 
M3 S0
G0 X18.85 Y3.45 
M3 S255
G1 X18.85 Y3.45 
M3 S255
G1 X18.7 Y3.45 
M3 S0
G0 X17.45 Y3.45 
M3 S255
G1 X17.45 Y3.45 
M3 S255
G1 X17.25 Y3.45 
M3 S0
G0 X11.25 Y3.45 
M3 S255
G1 X11.25 Y3.45 
M3 S255
G1 X11.15 Y3.45 
M3 S0
G0 X10.15 Y3.45 
M3 S255
G1 X10.15 Y3.45 
M3 S255
G1 X9.5 Y3.45 
M3 S0
G0 X9.05 Y3.45 
M3 S255
G1 X9.05 Y3.45 
M3 S255
G1 X8.65 Y3.45 
M3 S0
M5 S0
G0 X8.6 Y3.5 
M3 S255
G1 X8.6 Y3.5 
M3 S255
G1 X8.950000000000001 Y3.5 
M3 S0
G0 X9.450000000000001 Y3.5 
M3 S255
G1 X9.450000000000001 Y3.5 
M3 S255
G1 X10.05 Y3.5 
M3 S0
G0 X10.100000000000001 Y3.5 
M3 S255
G1 X10.100000000000001 Y3.5 
M3 S255
G1 X10.15 Y3.5 
M3 S0
G0 X11.15 Y3.5 
M3 S255
G1 X11.15 Y3.5 
M3 S255
G1 X11.3 Y3.5 
M3 S0
G0 X17.25 Y3.5 
M3 S255
G1 X17.25 Y3.5 
M3 S255
G1 X17.45 Y3.5 
M3 S0
G0 X18.7 Y3.5 
M3 S255
G1 X18.7 Y3.5 
M3 S255
G1 X18.85 Y3.5 
M3 S0
G0 X19.650000000000002 Y3.5 
M3 S255
G1 X19.650000000000002 Y3.5 
M3 S255
G1 X19.75 Y3.5 
M3 S0
G0 X20.0 Y3.5 
M3 S255
G1 X20.0 Y3.5 
M3 S255
G1 X20.1 Y3.5 
M3 S0
G0 X20.55 Y3.5 
M3 S255
G1 X20.55 Y3.5 
M3 S255
G1 X20.6 Y3.5 
M3 S0
G0 X21.25 Y3.5 
M3 S255
G1 X21.25 Y3.5 
M3 S255
G1 X21.35 Y3.5 
M3 S0
G0 X26.85 Y3.5 
M3 S255
G1 X26.85 Y3.5 
M3 S255
G1 X27.200000000000003 Y3.5 
M3 S0
G0 X27.700000000000003 Y3.5 
M3 S255
G1 X27.700000000000003 Y3.5 
M3 S255
G1 X27.85 Y3.5 
M3 S0
G0 X29.55 Y3.5 
M3 S255
G1 X29.55 Y3.5 
M3 S255
G1 X29.900000000000002 Y3.5 
M3 S0
G0 X30.6 Y3.5 
M3 S255
G1 X30.6 Y3.5 
M3 S255
G1 X30.85 Y3.5 
M3 S0
G0 X30.950000000000003 Y3.5 
M3 S255
G1 X30.950000000000003 Y3.5 
M3 S255
G1 X31.3 Y3.5 
M3 S0
M5 S0
G0 X31.400000000000002 Y3.5500000000000003 
M3 S255
G1 X31.400000000000002 Y3.5500000000000003 
M3 S255
G1 X31.0 Y3.5500000000000003 
M3 S0
G0 X30.950000000000003 Y3.5500000000000003 
M3 S255
G1 X30.950000000000003 Y3.5500000000000003 
M3 S255
G1 X30.900000000000002 Y3.5500000000000003 
M3 S0
G0 X30.85 Y3.5500000000000003 
M3 S255
G1 X30.85 Y3.5500000000000003 
M3 S255
G1 X30.6 Y3.5500000000000003 
M3 S0
G0 X29.900000000000002 Y3.5500000000000003 
M3 S255
G1 X29.900000000000002 Y3.5500000000000003 
M3 S255
G1 X29.75 Y3.5500000000000003 
M3 S0
G0 X27.85 Y3.5500000000000003 
M3 S255
G1 X27.85 Y3.5500000000000003 
M3 S255
G1 X27.650000000000002 Y3.5500000000000003 
M3 S0
G0 X27.150000000000002 Y3.5500000000000003 
M3 S255
G1 X27.150000000000002 Y3.5500000000000003 
M3 S255
G1 X26.85 Y3.5500000000000003 
M3 S0
G0 X21.35 Y3.5500000000000003 
M3 S255
G1 X21.35 Y3.5500000000000003 
M3 S255
G1 X21.25 Y3.5500000000000003 
M3 S0
G0 X20.6 Y3.5500000000000003 
M3 S255
G1 X20.6 Y3.5500000000000003 
M3 S255
G1 X20.55 Y3.5500000000000003 
M3 S0
G0 X20.1 Y3.5500000000000003 
M3 S255
G1 X20.1 Y3.5500000000000003 
M3 S255
G1 X20.0 Y3.5500000000000003 
M3 S0
G0 X19.8 Y3.5500000000000003 
M3 S255
G1 X19.8 Y3.5500000000000003 
M3 S255
G1 X19.650000000000002 Y3.5500000000000003 
M3 S0
G0 X18.85 Y3.5500000000000003 
M3 S255
G1 X18.85 Y3.5500000000000003 
M3 S255
G1 X18.7 Y3.5500000000000003 
M3 S0
G0 X17.45 Y3.5500000000000003 
M3 S255
G1 X17.45 Y3.5500000000000003 
M3 S255
G1 X17.25 Y3.5500000000000003 
M3 S0
G0 X11.3 Y3.5500000000000003 
M3 S255
G1 X11.3 Y3.5500000000000003 
M3 S255
G1 X11.15 Y3.5500000000000003 
M3 S0
G0 X10.0 Y3.5500000000000003 
M3 S255
G1 X10.0 Y3.5500000000000003 
M3 S255
G1 X9.3 Y3.5500000000000003 
M3 S0
G0 X8.9 Y3.5500000000000003 
M3 S255
G1 X8.9 Y3.5500000000000003 
M3 S255
G1 X8.5 Y3.5500000000000003 
M3 S0
M5 S0
G0 X8.450000000000001 Y3.6 
M3 S255
G1 X8.450000000000001 Y3.6 
M3 S255
G1 X8.85 Y3.6 
M3 S0
G0 X9.25 Y3.6 
M3 S255
G1 X9.25 Y3.6 
M3 S255
G1 X9.9 Y3.6 
M3 S0
G0 X11.15 Y3.6 
M3 S255
G1 X11.15 Y3.6 
M3 S255
G1 X11.3 Y3.6 
M3 S0
G0 X17.25 Y3.6 
M3 S255
G1 X17.25 Y3.6 
M3 S255
G1 X17.45 Y3.6 
M3 S0
G0 X18.650000000000002 Y3.6 
M3 S255
G1 X18.650000000000002 Y3.6 
M3 S255
G1 X18.85 Y3.6 
M3 S0
G0 X19.650000000000002 Y3.6 
M3 S255
G1 X19.650000000000002 Y3.6 
M3 S255
G1 X19.8 Y3.6 
M3 S0
G0 X19.950000000000003 Y3.6 
M3 S255
G1 X19.950000000000003 Y3.6 
M3 S255
G1 X20.1 Y3.6 
M3 S0
G0 X20.55 Y3.6 
M3 S255
G1 X20.55 Y3.6 
M3 S255
G1 X20.650000000000002 Y3.6 
M3 S0
G0 X21.25 Y3.6 
M3 S255
G1 X21.25 Y3.6 
M3 S255
G1 X21.35 Y3.6 
M3 S0
G0 X26.85 Y3.6 
M3 S255
G1 X26.85 Y3.6 
M3 S255
G1 X27.150000000000002 Y3.6 
M3 S0
G0 X27.650000000000002 Y3.6 
M3 S255
G1 X27.650000000000002 Y3.6 
M3 S255
G1 X27.8 Y3.6 
M3 S0
G0 X27.950000000000003 Y3.6 
M3 S255
G1 X27.950000000000003 Y3.6 
M3 S255
G1 X28.150000000000002 Y3.6 
M3 S0
G0 X30.55 Y3.6 
M3 S255
G1 X30.55 Y3.6 
M3 S255
G1 X30.950000000000003 Y3.6 
M3 S0
G0 X31.05 Y3.6 
M3 S255
G1 X31.05 Y3.6 
M3 S255
G1 X31.450000000000003 Y3.6 
M3 S0
M5 S0
G0 X31.55 Y3.6500000000000004 
M3 S255
G1 X31.55 Y3.6500000000000004 
M3 S255
G1 X31.150000000000002 Y3.6500000000000004 
M3 S0
G0 X31.05 Y3.6500000000000004 
M3 S255
G1 X31.05 Y3.6500000000000004 
M3 S255
G1 X30.25 Y3.6500000000000004 
M3 S0
G0 X29.25 Y3.6500000000000004 
M3 S255
G1 X29.25 Y3.6500000000000004 
M3 S255
G1 X28.950000000000003 Y3.6500000000000004 
M3 S0
G0 X28.150000000000002 Y3.6500000000000004 
M3 S255
G1 X28.150000000000002 Y3.6500000000000004 
M3 S255
G1 X27.85 Y3.6500000000000004 
M3 S0
G0 X27.1 Y3.6500000000000004 
M3 S255
G1 X27.1 Y3.6500000000000004 
M3 S255
G1 X26.8 Y3.6500000000000004 
M3 S0
G0 X21.35 Y3.6500000000000004 
M3 S255
G1 X21.35 Y3.6500000000000004 
M3 S255
G1 X21.25 Y3.6500000000000004 
M3 S0
G0 X20.650000000000002 Y3.6500000000000004 
M3 S255
G1 X20.650000000000002 Y3.6500000000000004 
M3 S255
G1 X20.55 Y3.6500000000000004 
M3 S0
G0 X20.05 Y3.6500000000000004 
M3 S255
G1 X20.05 Y3.6500000000000004 
M3 S255
G1 X19.950000000000003 Y3.6500000000000004 
M3 S0
G0 X19.8 Y3.6500000000000004 
M3 S255
G1 X19.8 Y3.6500000000000004 
M3 S255
G1 X19.650000000000002 Y3.6500000000000004 
M3 S0
G0 X18.85 Y3.6500000000000004 
M3 S255
G1 X18.85 Y3.6500000000000004 
M3 S255
G1 X18.650000000000002 Y3.6500000000000004 
M3 S0
G0 X17.6 Y3.6500000000000004 
M3 S255
G1 X17.6 Y3.6500000000000004 
M3 S255
G1 X17.5 Y3.6500000000000004 
M3 S0
G0 X17.400000000000002 Y3.6500000000000004 
M3 S255
G1 X17.400000000000002 Y3.6500000000000004 
M3 S255
G1 X17.2 Y3.6500000000000004 
M3 S0
G0 X11.3 Y3.6500000000000004 
M3 S255
G1 X11.3 Y3.6500000000000004 
M3 S255
G1 X11.15 Y3.6500000000000004 
M3 S0
G0 X11.0 Y3.6500000000000004 
M3 S255
G1 X11.0 Y3.6500000000000004 
M3 S255
G1 X10.850000000000001 Y3.6500000000000004 
M3 S0
G0 X9.65 Y3.6500000000000004 
M3 S255
G1 X9.65 Y3.6500000000000004 
M3 S255
G1 X9.1 Y3.6500000000000004 
M3 S0
G0 X8.700000000000001 Y3.6500000000000004 
M3 S255
G1 X8.700000000000001 Y3.6500000000000004 
M3 S255
G1 X8.35 Y3.6500000000000004 
M3 S0
M5 S0
G0 X8.3 Y3.7 
M3 S255
G1 X8.3 Y3.7 
M3 S255
G1 X8.65 Y3.7 
M3 S0
G0 X9.05 Y3.7 
M3 S255
G1 X9.05 Y3.7 
M3 S255
G1 X9.450000000000001 Y3.7 
M3 S0
G0 X10.850000000000001 Y3.7 
M3 S255
G1 X10.850000000000001 Y3.7 
M3 S255
G1 X11.0 Y3.7 
M3 S0
G0 X11.15 Y3.7 
M3 S255
G1 X11.15 Y3.7 
M3 S255
G1 X11.350000000000001 Y3.7 
M3 S0
G0 X17.2 Y3.7 
M3 S255
G1 X17.2 Y3.7 
M3 S255
G1 X17.400000000000002 Y3.7 
M3 S0
G0 X17.5 Y3.7 
M3 S255
G1 X17.5 Y3.7 
M3 S255
G1 X17.6 Y3.7 
M3 S0
G0 X18.650000000000002 Y3.7 
M3 S255
G1 X18.650000000000002 Y3.7 
M3 S255
G1 X18.85 Y3.7 
M3 S0
G0 X19.650000000000002 Y3.7 
M3 S255
G1 X19.650000000000002 Y3.7 
M3 S255
G1 X19.8 Y3.7 
M3 S0
G0 X19.950000000000003 Y3.7 
M3 S255
G1 X19.950000000000003 Y3.7 
M3 S255
G1 X20.05 Y3.7 
M3 S0
G0 X20.55 Y3.7 
M3 S255
G1 X20.55 Y3.7 
M3 S255
G1 X20.650000000000002 Y3.7 
M3 S0
G0 X21.25 Y3.7 
M3 S255
G1 X21.25 Y3.7 
M3 S255
G1 X21.35 Y3.7 
M3 S0
G0 X26.8 Y3.7 
M3 S255
G1 X26.8 Y3.7 
M3 S255
G1 X27.1 Y3.7 
M3 S0
G0 X27.85 Y3.7 
M3 S255
G1 X27.85 Y3.7 
M3 S255
G1 X28.150000000000002 Y3.7 
M3 S0
G0 X28.55 Y3.7 
M3 S255
G1 X28.55 Y3.7 
M3 S255
G1 X29.450000000000003 Y3.7 
M3 S0
G0 X30.3 Y3.7 
M3 S255
G1 X30.3 Y3.7 
M3 S255
G1 X31.1 Y3.7 
M3 S0
G0 X31.25 Y3.7 
M3 S255
G1 X31.25 Y3.7 
M3 S255
G1 X31.6 Y3.7 
M3 S0
M5 S0
G0 X31.650000000000002 Y3.75 
M3 S255
G1 X31.650000000000002 Y3.75 
M3 S255
G1 X31.25 Y3.75 
M3 S0
G0 X31.1 Y3.75 
M3 S255
G1 X31.1 Y3.75 
M3 S255
G1 X30.400000000000002 Y3.75 
M3 S0
G0 X29.85 Y3.75 
M3 S255
G1 X29.85 Y3.75 
M3 S255
G1 X28.3 Y3.75 
M3 S0
G0 X28.150000000000002 Y3.75 
M3 S255
G1 X28.150000000000002 Y3.75 
M3 S255
G1 X28.0 Y3.75 
M3 S0
G0 X27.950000000000003 Y3.75 
M3 S255
G1 X27.950000000000003 Y3.75 
M3 S255
G1 X27.900000000000002 Y3.75 
M3 S0
G0 X27.1 Y3.75 
M3 S255
G1 X27.1 Y3.75 
M3 S255
G1 X26.950000000000003 Y3.75 
M3 S0
G0 X26.900000000000002 Y3.75 
M3 S255
G1 X26.900000000000002 Y3.75 
M3 S255
G1 X26.75 Y3.75 
M3 S0
G0 X21.35 Y3.75 
M3 S255
G1 X21.35 Y3.75 
M3 S255
G1 X21.25 Y3.75 
M3 S0
G0 X20.650000000000002 Y3.75 
M3 S255
G1 X20.650000000000002 Y3.75 
M3 S255
G1 X20.55 Y3.75 
M3 S0
G0 X20.05 Y3.75 
M3 S255
G1 X20.05 Y3.75 
M3 S255
G1 X19.900000000000002 Y3.75 
M3 S0
G0 X19.8 Y3.75 
M3 S255
G1 X19.8 Y3.75 
M3 S255
G1 X19.650000000000002 Y3.75 
M3 S0
G0 X18.85 Y3.75 
M3 S255
G1 X18.85 Y3.75 
M3 S255
G1 X18.650000000000002 Y3.75 
M3 S0
G0 X17.6 Y3.75 
M3 S255
G1 X17.6 Y3.75 
M3 S255
G1 X17.5 Y3.75 
M3 S0
G0 X17.35 Y3.75 
M3 S255
G1 X17.35 Y3.75 
M3 S255
G1 X17.2 Y3.75 
M3 S0
G0 X11.350000000000001 Y3.75 
M3 S255
G1 X11.350000000000001 Y3.75 
M3 S255
G1 X11.15 Y3.75 
M3 S0
G0 X10.950000000000001 Y3.75 
M3 S255
G1 X10.950000000000001 Y3.75 
M3 S255
G1 X10.8 Y3.75 
M3 S0
G0 X9.35 Y3.75 
M3 S255
G1 X9.35 Y3.75 
M3 S255
G1 X8.950000000000001 Y3.75 
M3 S0
G0 X8.6 Y3.75 
M3 S255
G1 X8.6 Y3.75 
M3 S255
G1 X8.25 Y3.75 
M3 S0
M5 S0
G0 X8.15 Y3.8000000000000003 
M3 S255
G1 X8.15 Y3.8000000000000003 
M3 S255
G1 X8.5 Y3.8000000000000003 
M3 S0
G0 X8.75 Y3.8000000000000003 
M3 S255
G1 X8.75 Y3.8000000000000003 
M3 S255
G1 X9.1 Y3.8000000000000003 
M3 S0
G0 X10.55 Y3.8000000000000003 
M3 S255
G1 X10.55 Y3.8000000000000003 
M3 S255
G1 X10.65 Y3.8000000000000003 
M3 S0
G0 X10.8 Y3.8000000000000003 
M3 S255
G1 X10.8 Y3.8000000000000003 
M3 S255
G1 X11.05 Y3.8000000000000003 
M3 S0
G0 X11.15 Y3.8000000000000003 
M3 S255
G1 X11.15 Y3.8000000000000003 
M3 S255
G1 X11.350000000000001 Y3.8000000000000003 
M3 S0
G0 X17.150000000000002 Y3.8000000000000003 
M3 S255
G1 X17.150000000000002 Y3.8000000000000003 
M3 S255
G1 X17.35 Y3.8000000000000003 
M3 S0
G0 X17.45 Y3.8000000000000003 
M3 S255
G1 X17.45 Y3.8000000000000003 
M3 S255
G1 X17.55 Y3.8000000000000003 
M3 S0
G0 X18.650000000000002 Y3.8000000000000003 
M3 S255
G1 X18.650000000000002 Y3.8000000000000003 
M3 S255
G1 X18.85 Y3.8000000000000003 
M3 S0
G0 X19.6 Y3.8000000000000003 
M3 S255
G1 X19.6 Y3.8000000000000003 
M3 S255
G1 X19.8 Y3.8000000000000003 
M3 S0
G0 X19.900000000000002 Y3.8000000000000003 
M3 S255
G1 X19.900000000000002 Y3.8000000000000003 
M3 S255
G1 X20.05 Y3.8000000000000003 
M3 S0
G0 X20.55 Y3.8000000000000003 
M3 S255
G1 X20.55 Y3.8000000000000003 
M3 S255
G1 X20.700000000000003 Y3.8000000000000003 
M3 S0
G0 X21.25 Y3.8000000000000003 
M3 S255
G1 X21.25 Y3.8000000000000003 
M3 S255
G1 X21.35 Y3.8000000000000003 
M3 S0
G0 X26.700000000000003 Y3.8000000000000003 
M3 S255
G1 X26.700000000000003 Y3.8000000000000003 
M3 S255
G1 X26.85 Y3.8000000000000003 
M3 S0
G0 X26.950000000000003 Y3.8000000000000003 
M3 S255
G1 X26.950000000000003 Y3.8000000000000003 
M3 S255
G1 X27.05 Y3.8000000000000003 
M3 S0
G0 X28.0 Y3.8000000000000003 
M3 S255
G1 X28.0 Y3.8000000000000003 
M3 S255
G1 X28.1 Y3.8000000000000003 
M3 S0
G0 X28.25 Y3.8000000000000003 
M3 S255
G1 X28.25 Y3.8000000000000003 
M3 S255
G1 X28.55 Y3.8000000000000003 
M3 S0
G0 X29.0 Y3.8000000000000003 
M3 S255
G1 X29.0 Y3.8000000000000003 
M3 S255
G1 X29.900000000000002 Y3.8000000000000003 
M3 S0
G0 X30.450000000000003 Y3.8000000000000003 
M3 S255
G1 X30.450000000000003 Y3.8000000000000003 
M3 S255
G1 X30.8 Y3.8000000000000003 
M3 S0
G0 X31.1 Y3.8000000000000003 
M3 S255
G1 X31.1 Y3.8000000000000003 
M3 S255
G1 X31.200000000000003 Y3.8000000000000003 
M3 S0
G0 X31.400000000000002 Y3.8000000000000003 
M3 S255
G1 X31.400000000000002 Y3.8000000000000003 
M3 S255
G1 X31.75 Y3.8000000000000003 
M3 S0
M5 S0
G0 X31.8 Y3.85 
M3 S255
G1 X31.8 Y3.85 
M3 S255
G1 X31.450000000000003 Y3.85 
M3 S0
G0 X31.25 Y3.85 
M3 S255
G1 X31.25 Y3.85 
M3 S255
G1 X31.1 Y3.85 
M3 S0
G0 X30.85 Y3.85 
M3 S255
G1 X30.85 Y3.85 
M3 S255
G1 X30.55 Y3.85 
M3 S0
G0 X30.150000000000002 Y3.85 
M3 S255
G1 X30.150000000000002 Y3.85 
M3 S255
G1 X29.450000000000003 Y3.85 
M3 S0
G0 X28.450000000000003 Y3.85 
M3 S255
G1 X28.450000000000003 Y3.85 
M3 S255
G1 X28.200000000000003 Y3.85 
M3 S0
G0 X28.05 Y3.85 
M3 S255
G1 X28.05 Y3.85 
M3 S255
G1 X28.0 Y3.85 
M3 S0
G0 X27.05 Y3.85 
M3 S255
G1 X27.05 Y3.85 
M3 S255
G1 X26.950000000000003 Y3.85 
M3 S0
G0 X26.85 Y3.85 
M3 S255
G1 X26.85 Y3.85 
M3 S255
G1 X26.700000000000003 Y3.85 
M3 S0
G0 X21.35 Y3.85 
M3 S255
G1 X21.35 Y3.85 
M3 S255
G1 X21.200000000000003 Y3.85 
M3 S0
G0 X20.700000000000003 Y3.85 
M3 S255
G1 X20.700000000000003 Y3.85 
M3 S255
G1 X20.55 Y3.85 
M3 S0
G0 X20.05 Y3.85 
M3 S255
G1 X20.05 Y3.85 
M3 S255
G1 X19.900000000000002 Y3.85 
M3 S0
G0 X19.75 Y3.85 
M3 S255
G1 X19.75 Y3.85 
M3 S255
G1 X19.6 Y3.85 
M3 S0
G0 X18.85 Y3.85 
M3 S255
G1 X18.85 Y3.85 
M3 S255
G1 X18.650000000000002 Y3.85 
M3 S0
G0 X17.55 Y3.85 
M3 S255
G1 X17.55 Y3.85 
M3 S255
G1 X17.45 Y3.85 
M3 S0
G0 X17.3 Y3.85 
M3 S255
G1 X17.3 Y3.85 
M3 S255
G1 X17.150000000000002 Y3.85 
M3 S0
G0 X11.350000000000001 Y3.85 
M3 S255
G1 X11.350000000000001 Y3.85 
M3 S255
G1 X11.200000000000001 Y3.85 
M3 S0
G0 X11.05 Y3.85 
M3 S255
G1 X11.05 Y3.85 
M3 S255
G1 X10.850000000000001 Y3.85 
M3 S0
G0 X10.65 Y3.85 
M3 S255
G1 X10.65 Y3.85 
M3 S255
G1 X10.55 Y3.85 
M3 S0
G0 X9.1 Y3.85 
M3 S255
G1 X9.1 Y3.85 
M3 S255
G1 X8.65 Y3.85 
M3 S0
G0 X8.450000000000001 Y3.85 
M3 S255
G1 X8.450000000000001 Y3.85 
M3 S255
G1 X8.1 Y3.85 
M3 S0
M5 S0
G0 X8.05 Y3.9000000000000004 
M3 S255
G1 X8.05 Y3.9000000000000004 
M3 S255
G1 X8.4 Y3.9000000000000004 
M3 S0
G0 X8.6 Y3.9000000000000004 
M3 S255
G1 X8.6 Y3.9000000000000004 
M3 S255
G1 X9.1 Y3.9000000000000004 
M3 S0
G0 X10.55 Y3.9000000000000004 
M3 S255
G1 X10.55 Y3.9000000000000004 
M3 S255
G1 X10.65 Y3.9000000000000004 
M3 S0
G0 X10.850000000000001 Y3.9000000000000004 
M3 S255
G1 X10.850000000000001 Y3.9000000000000004 
M3 S255
G1 X11.100000000000001 Y3.9000000000000004 
M3 S0
G0 X11.15 Y3.9000000000000004 
M3 S255
G1 X11.15 Y3.9000000000000004 
M3 S255
G1 X11.350000000000001 Y3.9000000000000004 
M3 S0
G0 X17.1 Y3.9000000000000004 
M3 S255
G1 X17.1 Y3.9000000000000004 
M3 S255
G1 X17.3 Y3.9000000000000004 
M3 S0
G0 X17.45 Y3.9000000000000004 
M3 S255
G1 X17.45 Y3.9000000000000004 
M3 S255
G1 X17.55 Y3.9000000000000004 
M3 S0
G0 X18.650000000000002 Y3.9000000000000004 
M3 S255
G1 X18.650000000000002 Y3.9000000000000004 
M3 S255
G1 X18.85 Y3.9000000000000004 
M3 S0
G0 X19.6 Y3.9000000000000004 
M3 S255
G1 X19.6 Y3.9000000000000004 
M3 S255
G1 X19.75 Y3.9000000000000004 
M3 S0
G0 X19.900000000000002 Y3.9000000000000004 
M3 S255
G1 X19.900000000000002 Y3.9000000000000004 
M3 S255
G1 X20.0 Y3.9000000000000004 
M3 S0
G0 X20.55 Y3.9000000000000004 
M3 S255
G1 X20.55 Y3.9000000000000004 
M3 S255
G1 X20.700000000000003 Y3.9000000000000004 
M3 S0
G0 X21.200000000000003 Y3.9000000000000004 
M3 S255
G1 X21.200000000000003 Y3.9000000000000004 
M3 S255
G1 X21.35 Y3.9000000000000004 
M3 S0
G0 X26.650000000000002 Y3.9000000000000004 
M3 S255
G1 X26.650000000000002 Y3.9000000000000004 
M3 S255
G1 X26.85 Y3.9000000000000004 
M3 S0
G0 X26.900000000000002 Y3.9000000000000004 
M3 S255
G1 X26.900000000000002 Y3.9000000000000004 
M3 S255
G1 X27.05 Y3.9000000000000004 
M3 S0
G0 X28.150000000000002 Y3.9000000000000004 
M3 S255
G1 X28.150000000000002 Y3.9000000000000004 
M3 S255
G1 X28.450000000000003 Y3.9000000000000004 
M3 S0
G0 X29.650000000000002 Y3.9000000000000004 
M3 S255
G1 X29.650000000000002 Y3.9000000000000004 
M3 S255
G1 X30.3 Y3.9000000000000004 
M3 S0
G0 X30.6 Y3.9000000000000004 
M3 S255
G1 X30.6 Y3.9000000000000004 
M3 S255
G1 X31.25 Y3.9000000000000004 
M3 S0
G0 X31.5 Y3.9000000000000004 
M3 S255
G1 X31.5 Y3.9000000000000004 
M3 S255
G1 X31.85 Y3.9000000000000004 
M3 S0
M5 S0
G0 X31.950000000000003 Y3.95 
M3 S255
G1 X31.950000000000003 Y3.95 
M3 S255
G1 X31.6 Y3.95 
M3 S0
G0 X31.35 Y3.95 
M3 S255
G1 X31.35 Y3.95 
M3 S255
G1 X31.25 Y3.95 
M3 S0
G0 X31.1 Y3.95 
M3 S255
G1 X31.1 Y3.95 
M3 S255
G1 X29.950000000000003 Y3.95 
M3 S0
G0 X28.3 Y3.95 
M3 S255
G1 X28.3 Y3.95 
M3 S255
G1 X28.150000000000002 Y3.95 
M3 S0
G0 X27.05 Y3.95 
M3 S255
G1 X27.05 Y3.95 
M3 S255
G1 X26.900000000000002 Y3.95 
M3 S0
G0 X26.8 Y3.95 
M3 S255
G1 X26.8 Y3.95 
M3 S255
G1 X26.55 Y3.95 
M3 S0
G0 X21.35 Y3.95 
M3 S255
G1 X21.35 Y3.95 
M3 S255
G1 X21.200000000000003 Y3.95 
M3 S0
G0 X20.700000000000003 Y3.95 
M3 S255
G1 X20.700000000000003 Y3.95 
M3 S255
G1 X20.6 Y3.95 
M3 S0
G0 X20.0 Y3.95 
M3 S255
G1 X20.0 Y3.95 
M3 S255
G1 X19.900000000000002 Y3.95 
M3 S0
G0 X19.75 Y3.95 
M3 S255
G1 X19.75 Y3.95 
M3 S255
G1 X19.6 Y3.95 
M3 S0
G0 X18.85 Y3.95 
M3 S255
G1 X18.85 Y3.95 
M3 S255
G1 X18.55 Y3.95 
M3 S0
G0 X17.5 Y3.95 
M3 S255
G1 X17.5 Y3.95 
M3 S255
G1 X17.400000000000002 Y3.95 
M3 S0
G0 X17.25 Y3.95 
M3 S255
G1 X17.25 Y3.95 
M3 S255
G1 X17.1 Y3.95 
M3 S0
G0 X11.4 Y3.95 
M3 S255
G1 X11.4 Y3.95 
M3 S255
G1 X10.950000000000001 Y3.95 
M3 S0
G0 X10.65 Y3.95 
M3 S255
G1 X10.65 Y3.95 
M3 S255
G1 X10.600000000000001 Y3.95 
M3 S0
G0 X8.8 Y3.95 
M3 S255
G1 X8.8 Y3.95 
M3 S255
G1 X8.450000000000001 Y3.95 
M3 S0
G0 X8.3 Y3.95 
M3 S255
G1 X8.3 Y3.95 
M3 S255
G1 X7.95 Y3.95 
M3 S0
M5 S0
G0 X7.9 Y4.0 
M3 S255
G1 X7.9 Y4.0 
M3 S255
G1 X8.25 Y4.0 
M3 S0
G0 X8.35 Y4.0 
M3 S255
G1 X8.35 Y4.0 
M3 S255
G1 X8.75 Y4.0 
M3 S0
G0 X10.950000000000001 Y4.0 
M3 S255
G1 X10.950000000000001 Y4.0 
M3 S255
G1 X11.4 Y4.0 
M3 S0
G0 X17.1 Y4.0 
M3 S255
G1 X17.1 Y4.0 
M3 S255
G1 X17.25 Y4.0 
M3 S0
G0 X17.400000000000002 Y4.0 
M3 S255
G1 X17.400000000000002 Y4.0 
M3 S255
G1 X17.5 Y4.0 
M3 S0
G0 X18.55 Y4.0 
M3 S255
G1 X18.55 Y4.0 
M3 S255
G1 X18.85 Y4.0 
M3 S0
G0 X19.6 Y4.0 
M3 S255
G1 X19.6 Y4.0 
M3 S255
G1 X19.75 Y4.0 
M3 S0
G0 X19.900000000000002 Y4.0 
M3 S255
G1 X19.900000000000002 Y4.0 
M3 S255
G1 X20.0 Y4.0 
M3 S0
G0 X20.6 Y4.0 
M3 S255
G1 X20.6 Y4.0 
M3 S255
G1 X20.700000000000003 Y4.0 
M3 S0
G0 X21.200000000000003 Y4.0 
M3 S255
G1 X21.200000000000003 Y4.0 
M3 S255
G1 X21.35 Y4.0 
M3 S0
G0 X26.55 Y4.0 
M3 S255
G1 X26.55 Y4.0 
M3 S255
G1 X26.75 Y4.0 
M3 S0
G0 X26.900000000000002 Y4.0 
M3 S255
G1 X26.900000000000002 Y4.0 
M3 S255
G1 X27.05 Y4.0 
M3 S0
G0 X27.650000000000002 Y4.0 
M3 S255
G1 X27.650000000000002 Y4.0 
M3 S255
G1 X27.700000000000003 Y4.0 
M3 S0
G0 X28.1 Y4.0 
M3 S255
G1 X28.1 Y4.0 
M3 S255
G1 X28.3 Y4.0 
M3 S0
G0 X30.150000000000002 Y4.0 
M3 S255
G1 X30.150000000000002 Y4.0 
M3 S255
G1 X30.700000000000003 Y4.0 
M3 S0
G0 X31.3 Y4.0 
M3 S255
G1 X31.3 Y4.0 
M3 S255
G1 X31.400000000000002 Y4.0 
M3 S0
G0 X31.650000000000002 Y4.0 
M3 S255
G1 X31.650000000000002 Y4.0 
M3 S255
G1 X32.0 Y4.0 
M3 S0
M5 S0
G0 X32.050000000000004 Y4.05 
M3 S255
G1 X32.050000000000004 Y4.05 
M3 S255
G1 X31.700000000000003 Y4.05 
M3 S0
G0 X31.450000000000003 Y4.05 
M3 S255
G1 X31.450000000000003 Y4.05 
M3 S255
G1 X31.35 Y4.05 
M3 S0
G0 X30.8 Y4.05 
M3 S255
G1 X30.8 Y4.05 
M3 S255
G1 X30.3 Y4.05 
M3 S0
G0 X28.25 Y4.05 
M3 S255
G1 X28.25 Y4.05 
M3 S255
G1 X28.05 Y4.05 
M3 S0
G0 X27.05 Y4.05 
M3 S255
G1 X27.05 Y4.05 
M3 S255
G1 X26.900000000000002 Y4.05 
M3 S0
G0 X26.700000000000003 Y4.05 
M3 S255
G1 X26.700000000000003 Y4.05 
M3 S255
G1 X26.55 Y4.05 
M3 S0
G0 X21.35 Y4.05 
M3 S255
G1 X21.35 Y4.05 
M3 S255
G1 X21.200000000000003 Y4.05 
M3 S0
G0 X20.700000000000003 Y4.05 
M3 S255
G1 X20.700000000000003 Y4.05 
M3 S255
G1 X20.6 Y4.05 
M3 S0
G0 X20.0 Y4.05 
M3 S255
G1 X20.0 Y4.05 
M3 S255
G1 X19.900000000000002 Y4.05 
M3 S0
G0 X19.75 Y4.05 
M3 S255
G1 X19.75 Y4.05 
M3 S255
G1 X19.6 Y4.05 
M3 S0
G0 X18.85 Y4.05 
M3 S255
G1 X18.85 Y4.05 
M3 S255
G1 X18.55 Y4.05 
M3 S0
G0 X17.5 Y4.05 
M3 S255
G1 X17.5 Y4.05 
M3 S255
G1 X17.400000000000002 Y4.05 
M3 S0
G0 X17.25 Y4.05 
M3 S255
G1 X17.25 Y4.05 
M3 S255
G1 X17.1 Y4.05 
M3 S0
G0 X11.4 Y4.05 
M3 S255
G1 X11.4 Y4.05 
M3 S255
G1 X11.0 Y4.05 
M3 S0
G0 X8.700000000000001 Y4.05 
M3 S255
G1 X8.700000000000001 Y4.05 
M3 S255
G1 X8.65 Y4.05 
M3 S0
G0 X8.55 Y4.05 
M3 S255
G1 X8.55 Y4.05 
M3 S255
G1 X8.3 Y4.05 
M3 S0
G0 X8.200000000000001 Y4.05 
M3 S255
G1 X8.200000000000001 Y4.05 
M3 S255
G1 X7.8500000000000005 Y4.05 
M3 S0
M5 S0
G0 X7.75 Y4.1000000000000005 
M3 S255
G1 X7.75 Y4.1000000000000005 
M3 S255
G1 X8.1 Y4.1000000000000005 
M3 S0
G0 X8.15 Y4.1000000000000005 
M3 S255
G1 X8.15 Y4.1000000000000005 
M3 S255
G1 X8.450000000000001 Y4.1000000000000005 
M3 S0
G0 X11.100000000000001 Y4.1000000000000005 
M3 S255
G1 X11.100000000000001 Y4.1000000000000005 
M3 S255
G1 X11.4 Y4.1000000000000005 
M3 S0
G0 X17.1 Y4.1000000000000005 
M3 S255
G1 X17.1 Y4.1000000000000005 
M3 S255
G1 X17.25 Y4.1000000000000005 
M3 S0
G0 X17.35 Y4.1000000000000005 
M3 S255
G1 X17.35 Y4.1000000000000005 
M3 S255
G1 X17.45 Y4.1000000000000005 
M3 S0
G0 X18.55 Y4.1000000000000005 
M3 S255
G1 X18.55 Y4.1000000000000005 
M3 S255
G1 X18.85 Y4.1000000000000005 
M3 S0
G0 X19.6 Y4.1000000000000005 
M3 S255
G1 X19.6 Y4.1000000000000005 
M3 S255
G1 X19.8 Y4.1000000000000005 
M3 S0
G0 X19.900000000000002 Y4.1000000000000005 
M3 S255
G1 X19.900000000000002 Y4.1000000000000005 
M3 S255
G1 X20.0 Y4.1000000000000005 
M3 S0
G0 X20.6 Y4.1000000000000005 
M3 S255
G1 X20.6 Y4.1000000000000005 
M3 S255
G1 X20.700000000000003 Y4.1000000000000005 
M3 S0
G0 X21.200000000000003 Y4.1000000000000005 
M3 S255
G1 X21.200000000000003 Y4.1000000000000005 
M3 S255
G1 X21.35 Y4.1000000000000005 
M3 S0
G0 X26.450000000000003 Y4.1000000000000005 
M3 S255
G1 X26.450000000000003 Y4.1000000000000005 
M3 S255
G1 X26.700000000000003 Y4.1000000000000005 
M3 S0
G0 X26.85 Y4.1000000000000005 
M3 S255
G1 X26.85 Y4.1000000000000005 
M3 S255
G1 X27.0 Y4.1000000000000005 
M3 S0
G0 X28.0 Y4.1000000000000005 
M3 S255
G1 X28.0 Y4.1000000000000005 
M3 S255
G1 X28.200000000000003 Y4.1000000000000005 
M3 S0
G0 X30.6 Y4.1000000000000005 
M3 S255
G1 X30.6 Y4.1000000000000005 
M3 S255
G1 X30.900000000000002 Y4.1000000000000005 
M3 S0
G0 X31.150000000000002 Y4.1000000000000005 
M3 S255
G1 X31.150000000000002 Y4.1000000000000005 
M3 S255
G1 X31.25 Y4.1000000000000005 
M3 S0
G0 X31.35 Y4.1000000000000005 
M3 S255
G1 X31.35 Y4.1000000000000005 
M3 S255
G1 X31.450000000000003 Y4.1000000000000005 
M3 S0
G0 X31.8 Y4.1000000000000005 
M3 S255
G1 X31.8 Y4.1000000000000005 
M3 S255
G1 X32.15 Y4.1000000000000005 
M3 S0
M5 S0
G0 X32.2 Y4.15 
M3 S255
G1 X32.2 Y4.15 
M3 S255
G1 X31.85 Y4.15 
M3 S0
G0 X31.450000000000003 Y4.15 
M3 S255
G1 X31.450000000000003 Y4.15 
M3 S255
G1 X30.700000000000003 Y4.15 
M3 S0
G0 X28.150000000000002 Y4.15 
M3 S255
G1 X28.150000000000002 Y4.15 
M3 S255
G1 X28.0 Y4.15 
M3 S0
G0 X27.0 Y4.15 
M3 S255
G1 X27.0 Y4.15 
M3 S255
G1 X26.85 Y4.15 
M3 S0
G0 X26.650000000000002 Y4.15 
M3 S255
G1 X26.650000000000002 Y4.15 
M3 S255
G1 X26.400000000000002 Y4.15 
M3 S0
G0 X21.35 Y4.15 
M3 S255
G1 X21.35 Y4.15 
M3 S255
G1 X21.200000000000003 Y4.15 
M3 S0
G0 X20.700000000000003 Y4.15 
M3 S255
G1 X20.700000000000003 Y4.15 
M3 S255
G1 X20.650000000000002 Y4.15 
M3 S0
G0 X20.0 Y4.15 
M3 S255
G1 X20.0 Y4.15 
M3 S255
G1 X19.900000000000002 Y4.15 
M3 S0
G0 X19.8 Y4.15 
M3 S255
G1 X19.8 Y4.15 
M3 S255
G1 X19.6 Y4.15 
M3 S0
G0 X18.85 Y4.15 
M3 S255
G1 X18.85 Y4.15 
M3 S255
G1 X18.55 Y4.15 
M3 S0
G0 X17.45 Y4.15 
M3 S255
G1 X17.45 Y4.15 
M3 S255
G1 X17.35 Y4.15 
M3 S0
G0 X17.25 Y4.15 
M3 S255
G1 X17.25 Y4.15 
M3 S255
G1 X17.1 Y4.15 
M3 S0
G0 X11.450000000000001 Y4.15 
M3 S255
G1 X11.450000000000001 Y4.15 
M3 S255
G1 X11.15 Y4.15 
M3 S0
G0 X8.4 Y4.15 
M3 S255
G1 X8.4 Y4.15 
M3 S255
G1 X8.1 Y4.15 
M3 S0
G0 X8.0 Y4.15 
M3 S255
G1 X8.0 Y4.15 
M3 S255
G1 X7.65 Y4.15 
M3 S0
M5 S0
G0 X7.65 Y4.2 
M3 S255
G1 X7.65 Y4.2 
M3 S255
G1 X8.35 Y4.2 
M3 S0
G0 X10.600000000000001 Y4.2 
M3 S255
G1 X10.600000000000001 Y4.2 
M3 S255
G1 X10.65 Y4.2 
M3 S0
G0 X11.15 Y4.2 
M3 S255
G1 X11.15 Y4.2 
M3 S255
G1 X11.450000000000001 Y4.2 
M3 S0
G0 X17.05 Y4.2 
M3 S255
G1 X17.05 Y4.2 
M3 S255
G1 X17.25 Y4.2 
M3 S0
G0 X17.35 Y4.2 
M3 S255
G1 X17.35 Y4.2 
M3 S255
G1 X17.45 Y4.2 
M3 S0
G0 X18.55 Y4.2 
M3 S255
G1 X18.55 Y4.2 
M3 S255
G1 X18.85 Y4.2 
M3 S0
G0 X19.6 Y4.2 
M3 S255
G1 X19.6 Y4.2 
M3 S255
G1 X19.8 Y4.2 
M3 S0
G0 X19.900000000000002 Y4.2 
M3 S255
G1 X19.900000000000002 Y4.2 
M3 S255
G1 X20.0 Y4.2 
M3 S0
G0 X20.650000000000002 Y4.2 
M3 S255
G1 X20.650000000000002 Y4.2 
M3 S255
G1 X20.700000000000003 Y4.2 
M3 S0
G0 X21.200000000000003 Y4.2 
M3 S255
G1 X21.200000000000003 Y4.2 
M3 S255
G1 X21.35 Y4.2 
M3 S0
G0 X26.400000000000002 Y4.2 
M3 S255
G1 X26.400000000000002 Y4.2 
M3 S255
G1 X26.6 Y4.2 
M3 S0
G0 X26.85 Y4.2 
M3 S255
G1 X26.85 Y4.2 
M3 S255
G1 X27.0 Y4.2 
M3 S0
G0 X27.950000000000003 Y4.2 
M3 S255
G1 X27.950000000000003 Y4.2 
M3 S255
G1 X28.150000000000002 Y4.2 
M3 S0
G0 X30.8 Y4.2 
M3 S255
G1 X30.8 Y4.2 
M3 S255
G1 X31.450000000000003 Y4.2 
M3 S0
G0 X31.900000000000002 Y4.2 
M3 S255
G1 X31.900000000000002 Y4.2 
M3 S255
G1 X32.25 Y4.2 
M3 S0
M5 S0
G0 X32.35 Y4.25 
M3 S255
G1 X32.35 Y4.25 
M3 S255
G1 X32.0 Y4.25 
M3 S0
G0 X31.35 Y4.25 
M3 S255
G1 X31.35 Y4.25 
M3 S255
G1 X31.05 Y4.25 
M3 S0
G0 X28.05 Y4.25 
M3 S255
G1 X28.05 Y4.25 
M3 S255
G1 X27.900000000000002 Y4.25 
M3 S0
G0 X26.950000000000003 Y4.25 
M3 S255
G1 X26.950000000000003 Y4.25 
M3 S255
G1 X26.85 Y4.25 
M3 S0
G0 X26.55 Y4.25 
M3 S255
G1 X26.55 Y4.25 
M3 S255
G1 X26.35 Y4.25 
M3 S0
G0 X21.35 Y4.25 
M3 S255
G1 X21.35 Y4.25 
M3 S255
G1 X21.200000000000003 Y4.25 
M3 S0
G0 X20.700000000000003 Y4.25 
M3 S255
G1 X20.700000000000003 Y4.25 
M3 S255
G1 X20.650000000000002 Y4.25 
M3 S0
G0 X20.0 Y4.25 
M3 S255
G1 X20.0 Y4.25 
M3 S255
G1 X19.85 Y4.25 
M3 S0
G0 X19.8 Y4.25 
M3 S255
G1 X19.8 Y4.25 
M3 S255
G1 X19.6 Y4.25 
M3 S0
G0 X18.85 Y4.25 
M3 S255
G1 X18.85 Y4.25 
M3 S255
G1 X18.7 Y4.25 
M3 S0
G0 X18.650000000000002 Y4.25 
M3 S255
G1 X18.650000000000002 Y4.25 
M3 S255
G1 X18.55 Y4.25 
M3 S0
G0 X17.45 Y4.25 
M3 S255
G1 X17.45 Y4.25 
M3 S255
G1 X17.3 Y4.25 
M3 S0
G0 X17.25 Y4.25 
M3 S255
G1 X17.25 Y4.25 
M3 S255
G1 X17.05 Y4.25 
M3 S0
G0 X11.450000000000001 Y4.25 
M3 S255
G1 X11.450000000000001 Y4.25 
M3 S255
G1 X11.200000000000001 Y4.25 
M3 S0
G0 X10.65 Y4.25 
M3 S255
G1 X10.65 Y4.25 
M3 S255
G1 X10.600000000000001 Y4.25 
M3 S0
G0 X9.600000000000001 Y4.25 
M3 S255
G1 X9.600000000000001 Y4.25 
M3 S255
G1 X9.450000000000001 Y4.25 
M3 S0
G0 X8.3 Y4.25 
M3 S255
G1 X8.3 Y4.25 
M3 S255
G1 X7.550000000000001 Y4.25 
M3 S0
M5 S0
G0 X7.5 Y4.3 
M3 S255
G1 X7.5 Y4.3 
M3 S255
G1 X8.3 Y4.3 
M3 S0
G0 X9.450000000000001 Y4.3 
M3 S255
G1 X9.450000000000001 Y4.3 
M3 S255
G1 X9.600000000000001 Y4.3 
M3 S0
G0 X10.600000000000001 Y4.3 
M3 S255
G1 X10.600000000000001 Y4.3 
M3 S255
G1 X10.65 Y4.3 
M3 S0
G0 X11.200000000000001 Y4.3 
M3 S255
G1 X11.200000000000001 Y4.3 
M3 S255
G1 X11.450000000000001 Y4.3 
M3 S0
G0 X17.05 Y4.3 
M3 S255
G1 X17.05 Y4.3 
M3 S255
G1 X17.2 Y4.3 
M3 S0
G0 X17.3 Y4.3 
M3 S255
G1 X17.3 Y4.3 
M3 S255
G1 X17.45 Y4.3 
M3 S0
G0 X18.7 Y4.3 
M3 S255
G1 X18.7 Y4.3 
M3 S255
G1 X18.85 Y4.3 
M3 S0
G0 X19.6 Y4.3 
M3 S255
G1 X19.6 Y4.3 
M3 S255
G1 X20.0 Y4.3 
M3 S0
G0 X20.650000000000002 Y4.3 
M3 S255
G1 X20.650000000000002 Y4.3 
M3 S255
G1 X20.700000000000003 Y4.3 
M3 S0
G0 X21.200000000000003 Y4.3 
M3 S255
G1 X21.200000000000003 Y4.3 
M3 S255
G1 X21.35 Y4.3 
M3 S0
G0 X26.3 Y4.3 
M3 S255
G1 X26.3 Y4.3 
M3 S255
G1 X26.55 Y4.3 
M3 S0
G0 X26.85 Y4.3 
M3 S255
G1 X26.85 Y4.3 
M3 S255
G1 X26.950000000000003 Y4.3 
M3 S0
G0 X27.900000000000002 Y4.3 
M3 S255
G1 X27.900000000000002 Y4.3 
M3 S255
G1 X28.05 Y4.3 
M3 S0
G0 X31.200000000000003 Y4.3 
M3 S255
G1 X31.200000000000003 Y4.3 
M3 S255
G1 X31.25 Y4.3 
M3 S0
G0 X32.050000000000004 Y4.3 
M3 S255
G1 X32.050000000000004 Y4.3 
M3 S255
G1 X32.4 Y4.3 
M3 S0
M5 S0
G0 X32.45 Y4.3500000000000005 
M3 S255
G1 X32.45 Y4.3500000000000005 
M3 S255
G1 X32.1 Y4.3500000000000005 
M3 S0
G0 X28.0 Y4.3500000000000005 
M3 S255
G1 X28.0 Y4.3500000000000005 
M3 S255
G1 X27.950000000000003 Y4.3500000000000005 
M3 S0
G0 X27.900000000000002 Y4.3500000000000005 
M3 S255
G1 X27.900000000000002 Y4.3500000000000005 
M3 S255
G1 X27.85 Y4.3500000000000005 
M3 S0
G0 X26.950000000000003 Y4.3500000000000005 
M3 S255
G1 X26.950000000000003 Y4.3500000000000005 
M3 S255
G1 X26.85 Y4.3500000000000005 
M3 S0
G0 X26.5 Y4.3500000000000005 
M3 S255
G1 X26.5 Y4.3500000000000005 
M3 S255
G1 X26.25 Y4.3500000000000005 
M3 S0
G0 X21.35 Y4.3500000000000005 
M3 S255
G1 X21.35 Y4.3500000000000005 
M3 S255
G1 X21.200000000000003 Y4.3500000000000005 
M3 S0
G0 X20.700000000000003 Y4.3500000000000005 
M3 S255
G1 X20.700000000000003 Y4.3500000000000005 
M3 S255
G1 X20.650000000000002 Y4.3500000000000005 
M3 S0
G0 X20.0 Y4.3500000000000005 
M3 S255
G1 X20.0 Y4.3500000000000005 
M3 S255
G1 X19.6 Y4.3500000000000005 
M3 S0
G0 X18.85 Y4.3500000000000005 
M3 S255
G1 X18.85 Y4.3500000000000005 
M3 S255
G1 X18.7 Y4.3500000000000005 
M3 S0
G0 X17.400000000000002 Y4.3500000000000005 
M3 S255
G1 X17.400000000000002 Y4.3500000000000005 
M3 S255
G1 X17.3 Y4.3500000000000005 
M3 S0
G0 X17.2 Y4.3500000000000005 
M3 S255
G1 X17.2 Y4.3500000000000005 
M3 S255
G1 X17.0 Y4.3500000000000005 
M3 S0
G0 X11.450000000000001 Y4.3500000000000005 
M3 S255
G1 X11.450000000000001 Y4.3500000000000005 
M3 S255
G1 X11.25 Y4.3500000000000005 
M3 S0
G0 X10.65 Y4.3500000000000005 
M3 S255
G1 X10.65 Y4.3500000000000005 
M3 S255
G1 X10.600000000000001 Y4.3500000000000005 
M3 S0
G0 X9.55 Y4.3500000000000005 
M3 S255
G1 X9.55 Y4.3500000000000005 
M3 S255
G1 X9.5 Y4.3500000000000005 
M3 S0
G0 X8.65 Y4.3500000000000005 
M3 S255
G1 X8.65 Y4.3500000000000005 
M3 S255
G1 X8.55 Y4.3500000000000005 
M3 S0
G0 X8.3 Y4.3500000000000005 
M3 S255
G1 X8.3 Y4.3500000000000005 
M3 S255
G1 X7.45 Y4.3500000000000005 
M3 S0
M5 S0
G0 X7.4 Y4.4 
M3 S255
G1 X7.4 Y4.4 
M3 S255
G1 X8.05 Y4.4 
M3 S0
G0 X8.15 Y4.4 
M3 S255
G1 X8.15 Y4.4 
M3 S255
G1 X8.3 Y4.4 
M3 S0
G0 X8.55 Y4.4 
M3 S255
G1 X8.55 Y4.4 
M3 S255
G1 X8.65 Y4.4 
M3 S0
G0 X10.600000000000001 Y4.4 
M3 S255
G1 X10.600000000000001 Y4.4 
M3 S255
G1 X10.700000000000001 Y4.4 
M3 S0
G0 X11.25 Y4.4 
M3 S255
G1 X11.25 Y4.4 
M3 S255
G1 X11.5 Y4.4 
M3 S0
G0 X17.0 Y4.4 
M3 S255
G1 X17.0 Y4.4 
M3 S255
G1 X17.2 Y4.4 
M3 S0
G0 X17.3 Y4.4 
M3 S255
G1 X17.3 Y4.4 
M3 S255
G1 X17.400000000000002 Y4.4 
M3 S0
G0 X18.650000000000002 Y4.4 
M3 S255
G1 X18.650000000000002 Y4.4 
M3 S255
G1 X18.85 Y4.4 
M3 S0
G0 X19.6 Y4.4 
M3 S255
G1 X19.6 Y4.4 
M3 S255
G1 X20.0 Y4.4 
M3 S0
G0 X20.650000000000002 Y4.4 
M3 S255
G1 X20.650000000000002 Y4.4 
M3 S255
G1 X20.700000000000003 Y4.4 
M3 S0
