( imgcode generated code )
( developed by M. "Vidmo" Widomski )
(  github.com/vidmo91 )
(  hackaday.io/vidmo91 )
 
H5 S0 
F100
G0 Z0 ( for some grbl senders compatibility )
 
G0 X6.5 Y0.0
M3 S255
G1 X6.5 Y0.0
M3 S255
G1 X7.5 Y0.0
M3 S0
G0 X8.0 Y0.0
M3 S255
G1 X8.0 Y0.0
M3 S255
G1 X8.5 Y0.0
M3 S0
G0 X10.0 Y0.0
M3 S255
G1 X10.0 Y0.0
M3 S255
G1 X11.5 Y0.0
M3 S0
G0 X19.5 Y0.0
M3 S255
G1 X19.5 Y0.0
M3 S255
G1 X21.0 Y0.0
M3 S0
G0 X21.5 Y0.0
M3 S255
G1 X21.5 Y0.0
M3 S255
G1 X22.0 Y0.0
M3 S0
G0 X29.5 Y0.0
M3 S255
G1 X29.5 Y0.0
M3 S255
G1 X30.5 Y0.0
M3 S0
G0 X31.0 Y0.0
M3 S255
G1 X31.0 Y0.0
M3 S255
G1 X33.0 Y0.0
M3 S0
G0 X36.5 Y0.0
M3 S255
G1 X36.5 Y0.0
M3 S255
G1 X37.0 Y0.0
M3 S0
G0 X38.5 Y0.0
M3 S255
G1 X38.5 Y0.0
M3 S255
G1 X39.0 Y0.0
M3 S0
G0 X40.5 Y0.0
M3 S255
G1 X40.5 Y0.0
M3 S255
G1 X41.0 Y0.0
M3 S0
G0 X46.0 Y0.0
M3 S255
G1 X46.0 Y0.0
M3 S255
G1 X47.0 Y0.0
M3 S0
G0 X47.5 Y0.0
M3 S255
G1 X47.5 Y0.0
M3 S255
G1 X48.0 Y0.0
M3 S0
G0 X56.0 Y0.0
M3 S255
G1 X56.0 Y0.0
M3 S255
G1 X57.5 Y0.0
M3 S0
G0 X58.5 Y0.0
M3 S255
G1 X58.5 Y0.0
M3 S255
G1 X59.5 Y0.0
M3 S0
G0 X66.5 Y0.0
M3 S255
G1 X66.5 Y0.0
M3 S255
G1 X69.0 Y0.0
M3 S0
G0 X71.5 Y0.0
M3 S255
G1 X71.5 Y0.0
M3 S255
G1 X72.5 Y0.0
M3 S0
G0 X75.0 Y0.0
M3 S255
G1 X75.0 Y0.0
M3 S255
G1 X75.5 Y0.0
M3 S0
G0 X79.5 Y0.0
M3 S255
G1 X79.5 Y0.0
M3 S255
G1 X81.0 Y0.0
M3 S0
G0 X82.0 Y0.0
M3 S255
G1 X82.0 Y0.0
M3 S255
G1 X82.5 Y0.0
M3 S0
G0 X84.0 Y0.0
M3 S255
G1 X84.0 Y0.0
M3 S255
G1 X84.5 Y0.0
M3 S0
G0 X88.5 Y0.0
M3 S255
G1 X88.5 Y0.0
M3 S255
G1 X89.0 Y0.0
M3 S0
G0 X90.0 Y0.0
M3 S255
G1 X90.0 Y0.0
M3 S255
G1 X92.5 Y0.0
M3 S0
M5 S0
G0 X92.5 Y0.5
M3 S255
G1 X92.5 Y0.5
M3 S255
G1 X92.0 Y0.5
M3 S0
G0 X89.0 Y0.5
M3 S255
G1 X89.0 Y0.5
M3 S255
G1 X88.5 Y0.5
M3 S0
G0 X87.5 Y0.5
M3 S255
G1 X87.5 Y0.5
M3 S255
G1 X85.0 Y0.5
M3 S0
G0 X84.5 Y0.5
M3 S255
G1 X84.5 Y0.5
M3 S255
G1 X84.0 Y0.5
M3 S0
G0 X83.5 Y0.5
M3 S255
G1 X83.5 Y0.5
M3 S255
G1 X81.5 Y0.5
M3 S0
G0 X75.5 Y0.5
M3 S255
G1 X75.5 Y0.5
M3 S255
G1 X75.0 Y0.5
M3 S0
G0 X71.5 Y0.5
M3 S255
G1 X71.5 Y0.5
M3 S255
G1 X71.0 Y0.5
M3 S0
G0 X70.0 Y0.5
M3 S255
G1 X70.0 Y0.5
M3 S255
G1 X68.5 Y0.5
M3 S0
G0 X67.5 Y0.5
M3 S255
G1 X67.5 Y0.5
M3 S255
G1 X64.0 Y0.5
M3 S0
G0 X62.5 Y0.5
M3 S255
G1 X62.5 Y0.5
M3 S255
G1 X62.0 Y0.5
M3 S0
G0 X61.5 Y0.5
M3 S255
G1 X61.5 Y0.5
M3 S255
G1 X61.0 Y0.5
M3 S0
G0 X60.5 Y0.5
M3 S255
G1 X60.5 Y0.5
M3 S255
G1 X60.0 Y0.5
M3 S0
G0 X59.5 Y0.5
M3 S255
G1 X59.5 Y0.5
M3 S255
G1 X59.0 Y0.5
M3 S0
G0 X52.0 Y0.5
M3 S255
G1 X52.0 Y0.5
M3 S255
G1 X49.5 Y0.5
M3 S0
G0 X42.5 Y0.5
M3 S255
G1 X42.5 Y0.5
M3 S255
G1 X42.0 Y0.5
M3 S0
G0 X24.5 Y0.5
M3 S255
G1 X24.5 Y0.5
M3 S255
G1 X24.0 Y0.5
M3 S0
G0 X22.0 Y0.5
M3 S255
G1 X22.0 Y0.5
M3 S255
G1 X18.0 Y0.5
M3 S0
G0 X15.0 Y0.5
M3 S255
G1 X15.0 Y0.5
M3 S255
G1 X13.5 Y0.5
M3 S0
G0 X2.0 Y0.5
M3 S255
G1 X2.0 Y0.5
M3 S255
G1 X1.0 Y0.5
M3 S0
M5 S0
G0 X0.0 Y1.0
M3 S255
G1 X1.0 Y1.0
M3 S0
G0 X11.5 Y1.0
M3 S255
G1 X11.5 Y1.0
M3 S255
G1 X12.0 Y1.0
M3 S0
G0 X18.0 Y1.0
M3 S255
G1 X18.0 Y1.0
M3 S255
G1 X18.5 Y1.0
M3 S0
G0 X20.0 Y1.0
M3 S255
G1 X20.0 Y1.0
M3 S255
G1 X24.5 Y1.0
M3 S0
G0 X25.5 Y1.0
M3 S255
G1 X25.5 Y1.0
M3 S255
G1 X31.5 Y1.0
M3 S0
G0 X34.5 Y1.0
M3 S255
G1 X34.5 Y1.0
M3 S255
G1 X36.0 Y1.0
M3 S0
G0 X36.5 Y1.0
M3 S255
G1 X36.5 Y1.0
M3 S255
G1 X37.5 Y1.0
M3 S0
G0 X38.0 Y1.0
M3 S255
G1 X38.0 Y1.0
M3 S255
G1 X40.0 Y1.0
M3 S0
G0 X40.5 Y1.0
M3 S255
G1 X40.5 Y1.0
M3 S255
G1 X41.5 Y1.0
M3 S0
G0 X42.5 Y1.0
M3 S255
G1 X42.5 Y1.0
M3 S255
G1 X43.5 Y1.0
M3 S0
G0 X45.0 Y1.0
M3 S255
G1 X45.0 Y1.0
M3 S255
G1 X46.5 Y1.0
M3 S0
G0 X48.0 Y1.0
M3 S255
G1 X48.0 Y1.0
M3 S255
G1 X54.0 Y1.0
M3 S0
G0 X54.5 Y1.0
M3 S255
G1 X54.5 Y1.0
M3 S255
G1 X55.0 Y1.0
M3 S0
G0 X55.5 Y1.0
M3 S255
G1 X55.5 Y1.0
M3 S255
G1 X56.0 Y1.0
M3 S0
G0 X56.5 Y1.0
M3 S255
G1 X56.5 Y1.0
M3 S255
G1 X57.0 Y1.0
M3 S0
G0 X58.5 Y1.0
M3 S255
G1 X58.5 Y1.0
M3 S255
G1 X63.5 Y1.0
M3 S0
G0 X67.5 Y1.0
M3 S255
G1 X67.5 Y1.0
M3 S255
G1 X68.0 Y1.0
M3 S0
G0 X70.0 Y1.0
M3 S255
G1 X70.0 Y1.0
M3 S255
G1 X71.5 Y1.0
M3 S0
G0 X72.5 Y1.0
M3 S255
G1 X72.5 Y1.0
M3 S255
G1 X73.0 Y1.0
M3 S0
G0 X73.5 Y1.0
M3 S255
G1 X73.5 Y1.0
M3 S255
G1 X74.0 Y1.0
M3 S0
G0 X76.0 Y1.0
M3 S255
G1 X76.0 Y1.0
M3 S255
G1 X76.5 Y1.0
M3 S0
G0 X78.0 Y1.0
M3 S255
G1 X78.0 Y1.0
M3 S255
G1 X78.5 Y1.0
M3 S0
G0 X79.0 Y1.0
M3 S255
G1 X79.0 Y1.0
M3 S255
G1 X79.5 Y1.0
M3 S0
G0 X85.5 Y1.0
M3 S255
G1 X85.5 Y1.0
M3 S255
G1 X87.0 Y1.0
M3 S0
G0 X87.5 Y1.0
M3 S255
G1 X87.5 Y1.0
M3 S255
G1 X88.5 Y1.0
M3 S0
G0 X97.0 Y1.0
M3 S255
G1 X97.0 Y1.0
M3 S255
G1 X98.0 Y1.0
M3 S0
M5 S0
G0 X97.0 Y1.5
M3 S255
G1 X97.0 Y1.5
M3 S255
G1 X96.5 Y1.5
M3 S0
G0 X93.5 Y1.5
M3 S255
G1 X93.5 Y1.5
M3 S255
G1 X93.0 Y1.5
M3 S0
G0 X91.5 Y1.5
M3 S255
G1 X91.5 Y1.5
M3 S255
G1 X89.0 Y1.5
M3 S0
G0 X83.5 Y1.5
M3 S255
G1 X83.5 Y1.5
M3 S255
G1 X83.0 Y1.5
M3 S0
G0 X82.5 Y1.5
M3 S255
G1 X82.5 Y1.5
M3 S255
G1 X80.5 Y1.5
M3 S0
G0 X79.5 Y1.5
M3 S255
G1 X79.5 Y1.5
M3 S255
G1 X79.0 Y1.5
M3 S0
G0 X78.5 Y1.5
M3 S255
G1 X78.5 Y1.5
M3 S255
G1 X78.0 Y1.5
M3 S0
G0 X76.5 Y1.5
M3 S255
G1 X76.5 Y1.5
M3 S255
G1 X76.0 Y1.5
M3 S0
G0 X74.5 Y1.5
M3 S255
G1 X74.5 Y1.5
M3 S255
G1 X71.5 Y1.5
M3 S0
G0 X66.5 Y1.5
M3 S255
G1 X66.5 Y1.5
M3 S255
G1 X65.5 Y1.5
M3 S0
G0 X65.0 Y1.5
M3 S255
G1 X65.0 Y1.5
M3 S255
G1 X60.0 Y1.5
M3 S0
G0 X55.0 Y1.5
M3 S255
G1 X55.0 Y1.5
M3 S255
G1 X52.5 Y1.5
M3 S0
G0 X50.0 Y1.5
M3 S255
G1 X50.0 Y1.5
M3 S255
G1 X45.5 Y1.5
M3 S0
G0 X45.0 Y1.5
M3 S255
G1 X45.0 Y1.5
M3 S255
G1 X40.0 Y1.5
M3 S0
G0 X39.0 Y1.5
M3 S255
G1 X39.0 Y1.5
M3 S255
G1 X38.0 Y1.5
M3 S0
G0 X37.5 Y1.5
M3 S255
G1 X37.5 Y1.5
M3 S255
G1 X32.0 Y1.5
M3 S0
G0 X26.0 Y1.5
M3 S255
G1 X26.0 Y1.5
M3 S255
G1 X25.5 Y1.5
M3 S0
G0 X25.0 Y1.5
M3 S255
G1 X25.0 Y1.5
M3 S255
G1 X24.5 Y1.5
M3 S0
G0 X18.5 Y1.5
M3 S255
G1 X18.5 Y1.5
M3 S255
G1 X10.0 Y1.5
M3 S0
G0 X8.5 Y1.5
M3 S255
G1 X8.5 Y1.5
M3 S255
G1 X6.0 Y1.5
M3 S0
G0 X5.5 Y1.5
M3 S255
G1 X5.5 Y1.5
M3 S255
G1 X3.0 Y1.5
M3 S0
G0 X2.5 Y1.5
M3 S255
G1 X2.5 Y1.5
M3 S255
G1 X1.5 Y1.5
M3 S0
M5 S0
G0 X5.0 Y2.0
M3 S255
G1 X5.0 Y2.0
M3 S255
G1 X6.0 Y2.0
M3 S0
G0 X15.0 Y2.0
M3 S255
G1 X15.0 Y2.0
M3 S255
G1 X15.5 Y2.0
M3 S0
G0 X31.0 Y2.0
M3 S255
G1 X31.0 Y2.0
M3 S255
G1 X31.5 Y2.0
M3 S0
G0 X36.5 Y2.0
M3 S255
G1 X36.5 Y2.0
M3 S255
G1 X37.0 Y2.0
M3 S0
G0 X37.5 Y2.0
M3 S255
G1 X37.5 Y2.0
M3 S255
G1 X40.0 Y2.0
M3 S0
G0 X41.0 Y2.0
M3 S255
G1 X41.0 Y2.0
M3 S255
G1 X42.0 Y2.0
M3 S0
G0 X43.0 Y2.0
M3 S255
G1 X43.0 Y2.0
M3 S255
G1 X48.0 Y2.0
M3 S0
G0 X50.5 Y2.0
M3 S255
G1 X50.5 Y2.0
M3 S255
G1 X52.5 Y2.0
M3 S0
G0 X53.5 Y2.0
M3 S255
G1 X53.5 Y2.0
M3 S255
G1 X58.5 Y2.0
M3 S0
G0 X59.0 Y2.0
M3 S255
G1 X59.0 Y2.0
M3 S255
G1 X60.5 Y2.0
M3 S0
G0 X63.0 Y2.0
M3 S255
G1 X63.0 Y2.0
M3 S255
G1 X64.0 Y2.0
M3 S0
G0 X66.5 Y2.0
M3 S255
G1 X66.5 Y2.0
M3 S255
G1 X68.0 Y2.0
M3 S0
G0 X68.5 Y2.0
M3 S255
G1 X68.5 Y2.0
M3 S255
G1 X72.0 Y2.0
M3 S0
G0 X73.0 Y2.0
M3 S255
G1 X73.0 Y2.0
M3 S255
G1 X73.5 Y2.0
M3 S0
G0 X74.0 Y2.0
M3 S255
G1 X74.0 Y2.0
M3 S255
G1 X75.5 Y2.0
M3 S0
G0 X76.0 Y2.0
M3 S255
G1 X76.0 Y2.0
M3 S255
G1 X79.5 Y2.0
M3 S0
G0 X80.5 Y2.0
M3 S255
G1 X80.5 Y2.0
M3 S255
G1 X81.0 Y2.0
M3 S0
G0 X82.0 Y2.0
M3 S255
G1 X82.0 Y2.0
M3 S255
G1 X82.5 Y2.0
M3 S0
G0 X83.0 Y2.0
M3 S255
G1 X83.0 Y2.0
M3 S255
G1 X83.5 Y2.0
M3 S0
G0 X84.5 Y2.0
M3 S255
G1 X84.5 Y2.0
M3 S255
G1 X85.0 Y2.0
M3 S0
G0 X85.5 Y2.0
M3 S255
G1 X85.5 Y2.0
M3 S255
G1 X86.0 Y2.0
M3 S0
G0 X86.5 Y2.0
M3 S255
G1 X86.5 Y2.0
M3 S255
G1 X87.0 Y2.0
M3 S0
M5 S0
G0 X91.0 Y2.5
M3 S255
G1 X91.0 Y2.5
M3 S255
G1 X90.5 Y2.5
M3 S0
G0 X90.0 Y2.5
M3 S255
G1 X90.0 Y2.5
M3 S255
G1 X89.5 Y2.5
M3 S0
G0 X88.5 Y2.5
M3 S255
G1 X88.5 Y2.5
M3 S255
G1 X88.0 Y2.5
M3 S0
G0 X87.5 Y2.5
M3 S255
G1 X87.5 Y2.5
M3 S255
G1 X87.0 Y2.5
M3 S0
G0 X86.5 Y2.5
M3 S255
G1 X86.5 Y2.5
M3 S255
G1 X86.0 Y2.5
M3 S0
G0 X85.0 Y2.5
M3 S255
G1 X85.0 Y2.5
M3 S255
G1 X84.5 Y2.5
M3 S0
G0 X84.0 Y2.5
M3 S255
G1 X84.0 Y2.5
M3 S255
G1 X80.5 Y2.5
M3 S0
G0 X76.5 Y2.5
M3 S255
G1 X76.5 Y2.5
M3 S255
G1 X76.0 Y2.5
M3 S0
G0 X75.5 Y2.5
M3 S255
G1 X75.5 Y2.5
M3 S255
G1 X75.0 Y2.5
M3 S0
G0 X71.5 Y2.5
M3 S255
G1 X71.5 Y2.5
M3 S255
G1 X71.0 Y2.5
M3 S0
G0 X66.5 Y2.5
M3 S255
G1 X66.5 Y2.5
M3 S255
G1 X60.0 Y2.5
M3 S0
G0 X53.5 Y2.5
M3 S255
G1 X53.5 Y2.5
M3 S255
G1 X47.5 Y2.5
M3 S0
G0 X46.0 Y2.5
M3 S255
G1 X46.0 Y2.5
M3 S255
G1 X45.0 Y2.5
M3 S0
G0 X43.5 Y2.5
M3 S255
G1 X43.5 Y2.5
M3 S255
G1 X40.0 Y2.5
M3 S0
G0 X39.5 Y2.5
M3 S255
G1 X39.5 Y2.5
M3 S255
G1 X38.0 Y2.5
M3 S0
M5 S0
G0 X38.0 Y3.0
M3 S255
G1 X38.0 Y3.0
M3 S255
G1 X40.0 Y3.0
M3 S0
G0 X41.0 Y3.0
M3 S255
G1 X41.0 Y3.0
M3 S255
G1 X43.5 Y3.0
M3 S0
G0 X45.0 Y3.0
M3 S255
G1 X45.0 Y3.0
M3 S255
G1 X46.5 Y3.0
M3 S0
G0 X48.5 Y3.0
M3 S255
G1 X48.5 Y3.0
M3 S255
G1 X50.0 Y3.0
M3 S0
G0 X50.5 Y3.0
M3 S255
G1 X50.5 Y3.0
M3 S255
G1 X51.0 Y3.0
M3 S0
G0 X55.0 Y3.0
M3 S255
G1 X55.0 Y3.0
M3 S255
G1 X60.5 Y3.0
M3 S0
G0 X64.5 Y3.0
M3 S255
G1 X64.5 Y3.0
M3 S255
G1 X71.5 Y3.0
M3 S0
G0 X73.0 Y3.0
M3 S255
G1 X73.0 Y3.0
M3 S255
G1 X73.5 Y3.0
M3 S0
G0 X76.0 Y3.0
M3 S255
G1 X76.0 Y3.0
M3 S255
G1 X77.0 Y3.0
M3 S0
G0 X84.5 Y3.0
M3 S255
G1 X84.5 Y3.0
M3 S255
G1 X86.5 Y3.0
M3 S0
G0 X87.5 Y3.0
M3 S255
G1 X87.5 Y3.0
M3 S255
G1 X88.0 Y3.0
M3 S0
G0 X88.5 Y3.0
M3 S255
G1 X88.5 Y3.0
M3 S255
G1 X90.0 Y3.0
M3 S0
G0 X91.0 Y3.0
M3 S255
G1 X91.0 Y3.0
M3 S255
G1 X91.5 Y3.0
M3 S0
G0 X92.5 Y3.0
M3 S255
G1 X92.5 Y3.0
M3 S255
G1 X93.0 Y3.0
M3 S0
G0 X96.0 Y3.0
M3 S255
G1 X96.0 Y3.0
M3 S255
G1 X96.5 Y3.0
M3 S0
G0 X97.5 Y3.0
M3 S255
G1 X97.5 Y3.0
M3 S255
G1 X98.5 Y3.0
M3 S0
M5 S0
G0 X99.5 Y3.5
M3 S255
G1 X95.5 Y3.5
M3 S0
G0 X93.0 Y3.5
M3 S255
G1 X93.0 Y3.5
M3 S255
G1 X91.5 Y3.5
M3 S0
G0 X91.0 Y3.5
M3 S255
G1 X91.0 Y3.5
M3 S255
G1 X90.5 Y3.5
M3 S0
G0 X90.0 Y3.5
M3 S255
G1 X90.0 Y3.5
M3 S255
G1 X89.5 Y3.5
M3 S0
G0 X89.0 Y3.5
M3 S255
G1 X89.0 Y3.5
M3 S255
G1 X88.5 Y3.5
M3 S0
G0 X83.5 Y3.5
M3 S255
G1 X83.5 Y3.5
M3 S255
G1 X81.5 Y3.5
M3 S0
G0 X79.0 Y3.5
M3 S255
G1 X79.0 Y3.5
M3 S255
G1 X75.5 Y3.5
M3 S0
G0 X71.5 Y3.5
M3 S255
G1 X71.5 Y3.5
M3 S255
G1 X70.5 Y3.5
M3 S0
G0 X70.0 Y3.5
M3 S255
G1 X70.0 Y3.5
M3 S255
G1 X69.5 Y3.5
M3 S0
G0 X69.0 Y3.5
M3 S255
G1 X69.0 Y3.5
M3 S255
G1 X61.5 Y3.5
M3 S0
G0 X53.0 Y3.5
M3 S255
G1 X53.0 Y3.5
M3 S255
G1 X52.5 Y3.5
M3 S0
G0 X51.0 Y3.5
M3 S255
G1 X51.0 Y3.5
M3 S255
G1 X50.5 Y3.5
M3 S0
G0 X49.0 Y3.5
M3 S255
G1 X49.0 Y3.5
M3 S255
G1 X48.5 Y3.5
M3 S0
G0 X45.0 Y3.5
M3 S255
G1 X45.0 Y3.5
M3 S255
G1 X44.0 Y3.5
M3 S0
G0 X43.5 Y3.5
M3 S255
G1 X43.5 Y3.5
M3 S255
G1 X42.5 Y3.5
M3 S0
G0 X42.0 Y3.5
M3 S255
G1 X42.0 Y3.5
M3 S255
G1 X41.5 Y3.5
M3 S0
M5 S0
G0 X45.5 Y4.0
M3 S255
G1 X45.5 Y4.0
M3 S255
G1 X51.5 Y4.0
M3 S0
G0 X56.0 Y4.0
M3 S255
G1 X56.0 Y4.0
M3 S255
G1 X56.5 Y4.0
M3 S0
G0 X60.0 Y4.0
M3 S255
G1 X60.0 Y4.0
M3 S255
G1 X63.0 Y4.0
M3 S0
G0 X63.5 Y4.0
M3 S255
G1 X63.5 Y4.0
M3 S255
G1 X69.5 Y4.0
M3 S0
G0 X71.0 Y4.0
M3 S255
G1 X71.0 Y4.0
M3 S255
G1 X72.0 Y4.0
M3 S0
G0 X72.5 Y4.0
M3 S255
G1 X72.5 Y4.0
M3 S255
G1 X75.5 Y4.0
M3 S0
G0 X76.0 Y4.0
M3 S255
G1 X76.0 Y4.0
M3 S255
G1 X76.5 Y4.0
M3 S0
G0 X78.0 Y4.0
M3 S255
G1 X78.0 Y4.0
M3 S255
G1 X78.5 Y4.0
M3 S0
G0 X89.5 Y4.0
M3 S255
G1 X89.5 Y4.0
M3 S255
G1 X90.5 Y4.0
M3 S0
G0 X93.0 Y4.0
M3 S255
G1 X93.0 Y4.0
M3 S255
G1 X94.0 Y4.0
M3 S0
G0 X95.5 Y4.0
M3 S255
G1 X95.5 Y4.0
M3 S255
G1 X99.5 Y4.0
M5 S0
G0 X99.5 Y4.5
M3 S255
G1 X99.0 Y4.5
M3 S0
G0 X96.5 Y4.5
M3 S255
G1 X96.5 Y4.5
M3 S255
G1 X96.0 Y4.5
M3 S0
G0 X90.5 Y4.5
M3 S255
G1 X90.5 Y4.5
M3 S255
G1 X89.0 Y4.5
M3 S0
G0 X80.5 Y4.5
M3 S255
G1 X80.5 Y4.5
M3 S255
G1 X80.0 Y4.5
M3 S0
G0 X79.0 Y4.5
M3 S255
G1 X79.0 Y4.5
M3 S255
G1 X77.0 Y4.5
M3 S0
G0 X74.0 Y4.5
M3 S255
G1 X74.0 Y4.5
M3 S255
G1 X72.5 Y4.5
M3 S0
G0 X70.0 Y4.5
M3 S255
G1 X70.0 Y4.5
M3 S255
G1 X69.0 Y4.5
M3 S0
G0 X68.0 Y4.5
M3 S255
G1 X68.0 Y4.5
M3 S255
G1 X67.5 Y4.5
M3 S0
G0 X67.0 Y4.5
M3 S255
G1 X67.0 Y4.5
M3 S255
G1 X64.0 Y4.5
M3 S0
G0 X63.5 Y4.5
M3 S255
G1 X63.5 Y4.5
M3 S255
G1 X53.0 Y4.5
M3 S0
G0 X14.0 Y4.5
M3 S255
G1 X14.0 Y4.5
M3 S255
G1 X13.5 Y4.5
M3 S0
G0 X12.5 Y4.5
M3 S255
G1 X12.5 Y4.5
M3 S255
G1 X11.5 Y4.5
M3 S0
M5 S0
G0 X0.0 Y5.0
M3 S255
G1 X0.0 Y5.0
M3 S0
G0 X61.0 Y5.0
M3 S255
G1 X61.0 Y5.0
M3 S255
G1 X64.0 Y5.0
M3 S0
G0 X70.0 Y5.0
M3 S255
G1 X70.0 Y5.0
M3 S255
G1 X73.5 Y5.0
M3 S0
G0 X74.0 Y5.0
M3 S255
G1 X74.0 Y5.0
M3 S255
G1 X81.0 Y5.0
M3 S0
G0 X98.0 Y5.0
M3 S255
G1 X98.0 Y5.0
M3 S255
G1 X98.5 Y5.0
M3 S0
M5 S0
G0 X99.5 Y5.5
M3 S255
G1 X99.0 Y5.5
M3 S0
G0 X87.5 Y5.5
M3 S255
G1 X87.5 Y5.5
M3 S255
G1 X81.5 Y5.5
M3 S0
G0 X77.0 Y5.5
M3 S255
G1 X77.0 Y5.5
M3 S255
G1 X76.0 Y5.5
M3 S0
G0 X75.5 Y5.5
M3 S255
G1 X75.5 Y5.5
M3 S255
G1 X73.5 Y5.5
M3 S0
G0 X73.0 Y5.5
M3 S255
G1 X73.0 Y5.5
M3 S255
G1 X71.0 Y5.5
M3 S0
G0 X70.5 Y5.5
M3 S255
G1 X70.5 Y5.5
M3 S255
G1 X70.0 Y5.5
M3 S0
G0 X7.0 Y5.5
M3 S255
G1 X7.0 Y5.5
M3 S255
G1 X3.5 Y5.5
M3 S0
G0 X1.0 Y5.5
M3 S255
G1 X1.0 Y5.5
M3 S255
G1 X0.0 Y5.5
M5 S0
G0 X0.5 Y6.0
M3 S255
G1 X0.5 Y6.0
M3 S255
G1 X4.0 Y6.0
M3 S0
G0 X5.0 Y6.0
M3 S255
G1 X5.0 Y6.0
M3 S255
G1 X5.5 Y6.0
M3 S0
G0 X6.0 Y6.0
M3 S255
G1 X6.0 Y6.0
M3 S255
G1 X6.5 Y6.0
M3 S0
G0 X8.5 Y6.0
M3 S255
G1 X8.5 Y6.0
M3 S255
G1 X9.0 Y6.0
M3 S0
G0 X10.5 Y6.0
M3 S255
G1 X10.5 Y6.0
M3 S255
G1 X34.5 Y6.0
M3 S0
G0 X70.0 Y6.0
M3 S255
G1 X70.0 Y6.0
M3 S255
G1 X72.0 Y6.0
M3 S0
G0 X72.5 Y6.0
M3 S255
G1 X72.5 Y6.0
M3 S255
G1 X75.5 Y6.0
M3 S0
G0 X76.0 Y6.0
M3 S255
G1 X76.0 Y6.0
M3 S255
G1 X77.0 Y6.0
M3 S0
G0 X89.0 Y6.0
M3 S255
G1 X89.0 Y6.0
M3 S255
G1 X93.5 Y6.0
M3 S0
G0 X98.5 Y6.0
M3 S255
G1 X98.5 Y6.0
M3 S255
G1 X99.5 Y6.0
M5 S0
G0 X99.5 Y6.5
M3 S255
G1 X96.5 Y6.5
M3 S0
G0 X96.0 Y6.5
M3 S255
G1 X96.0 Y6.5
M3 S255
G1 X93.5 Y6.5
M3 S0
G0 X93.0 Y6.5
M3 S255
G1 X93.0 Y6.5
M3 S255
G1 X92.0 Y6.5
M3 S0
G0 X77.0 Y6.5
M3 S255
G1 X77.0 Y6.5
M3 S255
G1 X73.5 Y6.5
M3 S0
G0 X72.5 Y6.5
M3 S255
G1 X72.5 Y6.5
M3 S255
G1 X71.0 Y6.5
M3 S0
G0 X70.5 Y6.5
M3 S255
G1 X70.5 Y6.5
M3 S255
G1 X70.0 Y6.5
M3 S0
G0 X54.0 Y6.5
M3 S255
G1 X54.0 Y6.5
M3 S255
G1 X53.5 Y6.5
M3 S0
G0 X35.0 Y6.5
M3 S255
G1 X35.0 Y6.5
M3 S255
G1 X32.0 Y6.5
M3 S0
G0 X31.0 Y6.5
M3 S255
G1 X31.0 Y6.5
M3 S255
G1 X30.5 Y6.5
M3 S0
G0 X29.0 Y6.5
M3 S255
G1 X29.0 Y6.5
M3 S255
G1 X28.5 Y6.5
M3 S0
G0 X28.0 Y6.5
M3 S255
G1 X28.0 Y6.5
M3 S255
G1 X26.0 Y6.5
M3 S0
G0 X25.5 Y6.5
M3 S255
G1 X25.5 Y6.5
M3 S255
G1 X21.5 Y6.5
M3 S0
G0 X21.0 Y6.5
M3 S255
G1 X21.0 Y6.5
M3 S255
G1 X19.5 Y6.5
M3 S0
G0 X16.0 Y6.5
M3 S255
G1 X16.0 Y6.5
M3 S255
G1 X15.5 Y6.5
M3 S0
G0 X10.5 Y6.5
M3 S255
G1 X10.5 Y6.5
M3 S255
G1 X9.0 Y6.5
M3 S0
G0 X8.5 Y6.5
M3 S255
G1 X8.5 Y6.5
M3 S255
G1 X7.5 Y6.5
M3 S0
G0 X4.0 Y6.5
M3 S255
G1 X4.0 Y6.5
M3 S255
G1 X3.5 Y6.5
M3 S0
M5 S0
G0 X0.5 Y7.0
M3 S255
G1 X0.5 Y7.0
M3 S255
G1 X2.5 Y7.0
M3 S0
G0 X3.5 Y7.0
M3 S255
G1 X3.5 Y7.0
M3 S255
G1 X4.5 Y7.0
M3 S0
G0 X5.0 Y7.0
M3 S255
G1 X5.0 Y7.0
M3 S255
G1 X5.5 Y7.0
M3 S0
G0 X9.5 Y7.0
M3 S255
G1 X9.5 Y7.0
M3 S255
G1 X10.5 Y7.0
M3 S0
G0 X11.0 Y7.0
M3 S255
G1 X11.0 Y7.0
M3 S255
G1 X11.5 Y7.0
M3 S0
G0 X13.0 Y7.0
M3 S255
G1 X13.0 Y7.0
M3 S255
G1 X13.5 Y7.0
M3 S0
G0 X17.0 Y7.0
M3 S255
G1 X17.0 Y7.0
M3 S255
G1 X19.0 Y7.0
M3 S0
G0 X20.5 Y7.0
M3 S255
G1 X20.5 Y7.0
M3 S255
G1 X28.0 Y7.0
M3 S0
G0 X28.5 Y7.0
M3 S255
G1 X28.5 Y7.0
M3 S255
G1 X29.5 Y7.0
M3 S0
G0 X30.0 Y7.0
M3 S255
G1 X30.0 Y7.0
M3 S255
G1 X32.0 Y7.0
M3 S0
G0 X32.5 Y7.0
M3 S255
G1 X32.5 Y7.0
M3 S255
G1 X39.5 Y7.0
M3 S0
G0 X40.0 Y7.0
M3 S255
G1 X40.0 Y7.0
M3 S255
G1 X43.5 Y7.0
M3 S0
G0 X44.0 Y7.0
M3 S255
G1 X44.0 Y7.0
M3 S255
G1 X50.5 Y7.0
M3 S0
G0 X53.5 Y7.0
M3 S255
G1 X53.5 Y7.0
M3 S255
G1 X54.0 Y7.0
M3 S0
G0 X70.0 Y7.0
M3 S255
G1 X70.0 Y7.0
M3 S255
G1 X77.0 Y7.0
M3 S0
G0 X93.5 Y7.0
M3 S255
G1 X93.5 Y7.0
M3 S255
G1 X94.5 Y7.0
M3 S0
G0 X95.0 Y7.0
M3 S255
G1 X95.0 Y7.0
M3 S255
G1 X95.5 Y7.0
M3 S0
G0 X96.5 Y7.0
M3 S255
G1 X96.5 Y7.0
M3 S255
G1 X98.0 Y7.0
M3 S0
G0 X98.5 Y7.0
M3 S255
G1 X98.5 Y7.0
M3 S255
G1 X99.5 Y7.0
M5 S0
G0 X99.5 Y7.5
M3 S255
G1 X96.5 Y7.5
M3 S0
G0 X96.0 Y7.5
M3 S255
G1 X96.0 Y7.5
M3 S255
G1 X93.5 Y7.5
M3 S0
G0 X77.0 Y7.5
M3 S255
G1 X77.0 Y7.5
M3 S255
G1 X75.5 Y7.5
M3 S0
G0 X75.0 Y7.5
M3 S255
G1 X75.0 Y7.5
M3 S255
G1 X71.0 Y7.5
M3 S0
G0 X70.5 Y7.5
M3 S255
G1 X70.5 Y7.5
M3 S255
G1 X70.0 Y7.5
M3 S0
G0 X53.5 Y7.5
M3 S255
G1 X53.5 Y7.5
M3 S255
G1 X50.5 Y7.5
M3 S0
G0 X43.0 Y7.5
M3 S255
G1 X43.0 Y7.5
M3 S255
G1 X40.5 Y7.5
M3 S0
G0 X40.0 Y7.5
M3 S255
G1 X40.0 Y7.5
M3 S255
G1 X39.0 Y7.5
M3 S0
G0 X32.0 Y7.5
M3 S255
G1 X32.0 Y7.5
M3 S255
G1 X31.5 Y7.5
M3 S0
G0 X28.0 Y7.5
M3 S255
G1 X28.0 Y7.5
M3 S255
G1 X27.5 Y7.5
M3 S0
G0 X24.0 Y7.5
M3 S255
G1 X24.0 Y7.5
M3 S255
G1 X23.5 Y7.5
M3 S0
G0 X22.0 Y7.5
M3 S255
G1 X22.0 Y7.5
M3 S255
G1 X21.5 Y7.5
M3 S0
G0 X15.0 Y7.5
M3 S255
G1 X15.0 Y7.5
M3 S255
G1 X13.0 Y7.5
M3 S0
G0 X6.5 Y7.5
M3 S255
G1 X6.5 Y7.5
M3 S255
G1 X5.5 Y7.5
M3 S0
M5 S0
G0 X17.5 Y8.0
M3 S255
G1 X17.5 Y8.0
M3 S255
G1 X18.0 Y8.0
M3 S0
G0 X19.0 Y8.0
M3 S255
G1 X19.0 Y8.0
M3 S255
G1 X22.0 Y8.0
M3 S0
G0 X24.5 Y8.0
M3 S255
G1 X24.5 Y8.0
M3 S255
G1 X25.0 Y8.0
M3 S0
G0 X29.0 Y8.0
M3 S255
G1 X29.0 Y8.0
M3 S255
G1 X31.5 Y8.0
M3 S0
G0 X32.0 Y8.0
M3 S255
G1 X32.0 Y8.0
M3 S255
G1 X33.0 Y8.0
M3 S0
G0 X33.5 Y8.0
M3 S255
G1 X33.5 Y8.0
M3 S255
G1 X34.5 Y8.0
M3 S0
G0 X40.0 Y8.0
M3 S255
G1 X40.0 Y8.0
M3 S255
G1 X43.0 Y8.0
M3 S0
G0 X43.5 Y8.0
M3 S255
G1 X43.5 Y8.0
M3 S255
G1 X44.5 Y8.0
M3 S0
G0 X45.0 Y8.0
M3 S255
G1 X45.0 Y8.0
M3 S255
G1 X45.5 Y8.0
M3 S0
G0 X51.0 Y8.0
M3 S255
G1 X51.0 Y8.0
M3 S255
G1 X51.5 Y8.0
M3 S0
G0 X54.0 Y8.0
M3 S255
G1 X54.0 Y8.0
M3 S255
G1 X56.5 Y8.0
M3 S0
G0 X63.0 Y8.0
M3 S255
G1 X63.0 Y8.0
M3 S255
G1 X63.5 Y8.0
M3 S0
G0 X64.0 Y8.0
M3 S255
G1 X64.0 Y8.0
M3 S255
G1 X65.0 Y8.0
M3 S0
G0 X70.0 Y8.0
M3 S255
G1 X70.0 Y8.0
M3 S255
G1 X71.5 Y8.0
M3 S0
G0 X72.0 Y8.0
M3 S255
G1 X72.0 Y8.0
M3 S255
G1 X72.5 Y8.0
M3 S0
G0 X73.5 Y8.0
M3 S255
G1 X73.5 Y8.0
M3 S255
G1 X78.0 Y8.0
M3 S0
G0 X93.5 Y8.0
M3 S255
G1 X93.5 Y8.0
M3 S255
G1 X96.0 Y8.0
M3 S0
G0 X97.0 Y8.0
M3 S255
G1 X97.0 Y8.0
M3 S255
G1 X99.5 Y8.0
M5 S0
G0 X99.5 Y8.5
M3 S255
G1 X96.5 Y8.5
M3 S0
G0 X96.0 Y8.5
M3 S255
G1 X96.0 Y8.5
M3 S255
G1 X95.0 Y8.5
M3 S0
G0 X94.5 Y8.5
M3 S255
G1 X94.5 Y8.5
M3 S255
G1 X93.5 Y8.5
M3 S0
G0 X78.5 Y8.5
M3 S255
G1 X78.5 Y8.5
M3 S255
G1 X70.0 Y8.5
M3 S0
G0 X65.5 Y8.5
M3 S255
G1 X65.5 Y8.5
M3 S255
G1 X65.0 Y8.5
M3 S0
G0 X57.0 Y8.5
M3 S255
G1 X57.0 Y8.5
M3 S255
G1 X56.0 Y8.5
M3 S0
G0 X55.0 Y8.5
M3 S255
G1 X55.0 Y8.5
M3 S255
G1 X54.0 Y8.5
M3 S0
G0 X52.0 Y8.5
M3 S255
G1 X52.0 Y8.5
M3 S255
G1 X50.5 Y8.5
M3 S0
G0 X47.0 Y8.5
M3 S255
G1 X47.0 Y8.5
M3 S255
G1 X46.0 Y8.5
M3 S0
G0 X42.0 Y8.5
M3 S255
G1 X42.0 Y8.5
M3 S255
G1 X41.0 Y8.5
M3 S0
G0 X39.5 Y8.5
M3 S255
G1 X39.5 Y8.5
M3 S255
G1 X39.0 Y8.5
M3 S0
G0 X38.5 Y8.5
M3 S255
G1 X38.5 Y8.5
M3 S255
G1 X37.5 Y8.5
M3 S0
G0 X35.0 Y8.5
M3 S255
G1 X35.0 Y8.5
M3 S255
G1 X34.5 Y8.5
M3 S0
G0 X31.5 Y8.5
M3 S255
G1 X31.5 Y8.5
M3 S255
G1 X31.0 Y8.5
M3 S0
G0 X30.5 Y8.5
M3 S255
G1 X30.5 Y8.5
M3 S255
G1 X30.0 Y8.5
M3 S0
G0 X24.0 Y8.5
M3 S255
G1 X24.0 Y8.5
M3 S255
G1 X22.0 Y8.5
M3 S0
M5 S0
G0 X4.0 Y9.0
M3 S255
G1 X4.0 Y9.0
M3 S255
G1 X4.5 Y9.0
M3 S0
G0 X23.5 Y9.0
M3 S255
G1 X23.5 Y9.0
M3 S255
G1 X24.0 Y9.0
M3 S0
G0 X29.5 Y9.0
M3 S255
G1 X29.5 Y9.0
M3 S255
G1 X30.0 Y9.0
M3 S0
G0 X33.0 Y9.0
M3 S255
G1 X33.0 Y9.0
M3 S255
G1 X34.0 Y9.0
M3 S0
G0 X37.5 Y9.0
M3 S255
G1 X37.5 Y9.0
M3 S255
G1 X39.5 Y9.0
M3 S0
G0 X41.0 Y9.0
M3 S255
G1 X41.0 Y9.0
M3 S255
G1 X43.0 Y9.0
M3 S0
G0 X52.0 Y9.0
M3 S255
G1 X52.0 Y9.0
M3 S255
G1 X54.0 Y9.0
M3 S0
G0 X54.5 Y9.0
M3 S255
G1 X54.5 Y9.0
M3 S255
G1 X55.0 Y9.0
M3 S0
G0 X55.5 Y9.0
M3 S255
G1 X55.5 Y9.0
M3 S255
G1 X57.0 Y9.0
M3 S0
G0 X70.5 Y9.0
M3 S255
G1 X70.5 Y9.0
M3 S255
G1 X75.0 Y9.0
M3 S0
G0 X75.5 Y9.0
M3 S255
G1 X75.5 Y9.0
M3 S255
G1 X78.0 Y9.0
M3 S0
G0 X93.5 Y9.0
M3 S255
G1 X93.5 Y9.0
M3 S255
G1 X94.5 Y9.0
M3 S0
G0 X95.0 Y9.0
M3 S255
G1 X95.0 Y9.0
M3 S255
G1 X95.5 Y9.0
M3 S0
G0 X96.5 Y9.0
M3 S255
G1 X96.5 Y9.0
M3 S255
G1 X98.0 Y9.0
M3 S0
G0 X98.5 Y9.0
M3 S255
G1 X98.5 Y9.0
M3 S255
G1 X99.5 Y9.0
M5 S0
G0 X99.5 Y9.5
M3 S255
G1 X99.0 Y9.5
M3 S0
G0 X98.5 Y9.5
M3 S255
G1 X98.5 Y9.5
M3 S255
G1 X96.5 Y9.5
M3 S0
G0 X96.0 Y9.5
M3 S255
G1 X96.0 Y9.5
M3 S255
G1 X95.0 Y9.5
M3 S0
G0 X94.5 Y9.5
M3 S255
G1 X94.5 Y9.5
M3 S255
G1 X93.5 Y9.5
M3 S0
G0 X76.0 Y9.5
M3 S255
G1 X76.0 Y9.5
M3 S255
G1 X73.5 Y9.5
M3 S0
G0 X73.0 Y9.5
M3 S255
G1 X73.0 Y9.5
M3 S255
G1 X72.5 Y9.5
M3 S0
G0 X72.0 Y9.5
M3 S255
G1 X72.0 Y9.5
M3 S255
G1 X69.5 Y9.5
M3 S0
G0 X58.0 Y9.5
M3 S255
G1 X58.0 Y9.5
M3 S255
G1 X56.5 Y9.5
M3 S0
G0 X55.5 Y9.5
M3 S255
G1 X55.5 Y9.5
M3 S255
G1 X55.0 Y9.5
M3 S0
G0 X54.5 Y9.5
M3 S255
G1 X54.5 Y9.5
M3 S255
G1 X54.0 Y9.5
M3 S0
G0 X53.5 Y9.5
M3 S255
G1 X53.5 Y9.5
M3 S255
G1 X53.0 Y9.5
M3 S0
G0 X42.5 Y9.5
M3 S255
G1 X42.5 Y9.5
M3 S255
G1 X41.0 Y9.5
M3 S0
G0 X39.5 Y9.5
M3 S255
G1 X39.5 Y9.5
M3 S255
G1 X39.0 Y9.5
M3 S0
G0 X38.5 Y9.5
M3 S255
G1 X38.5 Y9.5
M3 S255
G1 X37.5 Y9.5
M3 S0
G0 X30.0 Y9.5
M3 S255
G1 X30.0 Y9.5
M3 S255
G1 X29.5 Y9.5
M3 S0
G0 X10.5 Y9.5
M3 S255
G1 X10.5 Y9.5
M3 S255
G1 X10.0 Y9.5
M3 S0
G0 X4.0 Y9.5
M3 S255
G1 X4.0 Y9.5
M3 S255
G1 X2.0 Y9.5
M3 S0
M5 S0
G0 X2.0 Y10.0
M3 S255
G1 X2.0 Y10.0
M3 S255
G1 X3.5 Y10.0
M3 S0
G0 X35.5 Y10.0
M3 S255
G1 X35.5 Y10.0
M3 S255
G1 X36.0 Y10.0
M3 S0
G0 X38.0 Y10.0
M3 S255
G1 X38.0 Y10.0
M3 S255
G1 X38.5 Y10.0
M3 S0
G0 X53.5 Y10.0
M3 S255
G1 X53.5 Y10.0
M3 S255
G1 X54.0 Y10.0
M3 S0
G0 X57.5 Y10.0
M3 S255
G1 X57.5 Y10.0
M3 S255
G1 X59.0 Y10.0
M3 S0
G0 X69.5 Y10.0
M3 S255
G1 X69.5 Y10.0
M3 S255
G1 X72.5 Y10.0
M3 S0
G0 X73.0 Y10.0
M3 S255
G1 X73.0 Y10.0
M3 S255
G1 X74.5 Y10.0
M3 S0
G0 X94.0 Y10.0
M3 S255
G1 X94.0 Y10.0
M3 S255
G1 X96.0 Y10.0
M3 S0
M5 S0
G0 X99.5 Y10.5
M3 S255
G1 X97.0 Y10.5
M3 S0
G0 X94.5 Y10.5
M3 S255
G1 X94.5 Y10.5
M3 S255
G1 X94.0 Y10.5
M3 S0
G0 X73.5 Y10.5
M3 S255
G1 X73.5 Y10.5
M3 S255
G1 X72.5 Y10.5
M3 S0
G0 X72.0 Y10.5
M3 S255
G1 X72.0 Y10.5
M3 S255
G1 X70.5 Y10.5
M3 S0
G0 X70.0 Y10.5
M3 S255
G1 X70.0 Y10.5
M3 S255
G1 X69.5 Y10.5
M3 S0
G0 X59.0 Y10.5
M3 S255
G1 X59.0 Y10.5
M3 S255
G1 X56.5 Y10.5
M3 S0
G0 X50.5 Y10.5
M3 S255
G1 X50.5 Y10.5
M3 S255
G1 X50.0 Y10.5
M3 S0
G0 X36.5 Y10.5
M3 S255
G1 X36.5 Y10.5
M3 S255
G1 X35.5 Y10.5
M3 S0
G0 X6.5 Y10.5
M3 S255
G1 X6.5 Y10.5
M3 S255
G1 X6.0 Y10.5
M3 S0
M5 S0
G0 X6.0 Y11.0
M3 S255
G1 X6.0 Y11.0
M3 S255
G1 X6.5 Y11.0
M3 S0
G0 X12.0 Y11.0
M3 S255
G1 X12.0 Y11.0
M3 S255
G1 X12.5 Y11.0
M3 S0
G0 X56.5 Y11.0
M3 S255
G1 X56.5 Y11.0
M3 S255
G1 X58.5 Y11.0
M3 S0
G0 X69.5 Y11.0
M3 S255
G1 X69.5 Y11.0
M3 S255
G1 X71.5 Y11.0
M3 S0
G0 X72.5 Y11.0
M3 S255
G1 X72.5 Y11.0
M3 S255
G1 X73.5 Y11.0
M3 S0
G0 X94.0 Y11.0
M3 S255
G1 X94.0 Y11.0
M3 S255
G1 X97.5 Y11.0
M3 S0
G0 X98.0 Y11.0
M3 S255
G1 X98.0 Y11.0
M3 S255
G1 X99.5 Y11.0
M5 S0
G0 X99.5 Y11.5
M3 S255
G1 X98.0 Y11.5
M3 S0
G0 X97.5 Y11.5
M3 S255
G1 X97.5 Y11.5
M3 S255
G1 X96.0 Y11.5
M3 S0
G0 X95.0 Y11.5
M3 S255
G1 X95.0 Y11.5
M3 S255
G1 X94.0 Y11.5
M3 S0
G0 X73.5 Y11.5
M3 S255
G1 X73.5 Y11.5
M3 S255
G1 X72.5 Y11.5
M3 S0
G0 X70.5 Y11.5
M3 S255
G1 X70.5 Y11.5
M3 S255
G1 X69.0 Y11.5
M3 S0
G0 X57.5 Y11.5
M3 S255
G1 X57.5 Y11.5
M3 S255
G1 X56.0 Y11.5
M3 S0
G0 X55.0 Y11.5
M3 S255
G1 X55.0 Y11.5
M3 S255
G1 X53.0 Y11.5
M3 S0
G0 X12.5 Y11.5
M3 S255
G1 X12.5 Y11.5
M3 S255
G1 X12.0 Y11.5
M3 S0
G0 X4.5 Y11.5
M3 S255
G1 X4.5 Y11.5
M3 S255
G1 X3.5 Y11.5
M3 S0
G0 X1.0 Y11.5
M3 S255
G1 X1.0 Y11.5
M3 S255
G1 X0.5 Y11.5
M3 S0
M5 S0
G0 X1.5 Y12.0
M3 S255
G1 X1.5 Y12.0
M3 S255
G1 X2.5 Y12.0
M3 S0
G0 X8.5 Y12.0
M3 S255
G1 X8.5 Y12.0
M3 S255
G1 X9.0 Y12.0
M3 S0
G0 X20.0 Y12.0
M3 S255
G1 X20.0 Y12.0
M3 S255
G1 X21.5 Y12.0
M3 S0
G0 X23.0 Y12.0
M3 S255
G1 X23.0 Y12.0
M3 S255
G1 X26.0 Y12.0
M3 S0
G0 X52.0 Y12.0
M3 S255
G1 X52.0 Y12.0
M3 S255
G1 X55.5 Y12.0
M3 S0
G0 X69.0 Y12.0
M3 S255
G1 X69.0 Y12.0
M3 S255
G1 X70.5 Y12.0
M3 S0
G0 X73.0 Y12.0
M3 S255
G1 X73.0 Y12.0
M3 S255
G1 X74.0 Y12.0
M3 S0
G0 X94.0 Y12.0
M3 S255
G1 X94.0 Y12.0
M3 S255
G1 X94.5 Y12.0
M3 S0
G0 X96.5 Y12.0
M3 S255
G1 X96.5 Y12.0
M3 S255
G1 X98.5 Y12.0
M3 S0
M5 S0
G0 X99.5 Y12.5
M3 S255
G1 X99.0 Y12.5
M3 S0
G0 X97.5 Y12.5
M3 S255
G1 X97.5 Y12.5
M3 S255
G1 X96.5 Y12.5
M3 S0
G0 X96.0 Y12.5
M3 S255
G1 X96.0 Y12.5
M3 S255
G1 X95.5 Y12.5
M3 S0
G0 X95.0 Y12.5
M3 S255
G1 X95.0 Y12.5
M3 S255
G1 X94.5 Y12.5
M3 S0
G0 X73.0 Y12.5
M3 S255
G1 X73.0 Y12.5
M3 S255
G1 X72.5 Y12.5
M3 S0
G0 X70.5 Y12.5
M3 S255
G1 X70.5 Y12.5
M3 S255
G1 X69.0 Y12.5
M3 S0
G0 X62.5 Y12.5
M3 S255
G1 X62.5 Y12.5
M3 S255
G1 X60.0 Y12.5
M3 S0
G0 X59.5 Y12.5
M3 S255
G1 X59.5 Y12.5
M3 S255
G1 X59.0 Y12.5
M3 S0
G0 X55.5 Y12.5
M3 S255
G1 X55.5 Y12.5
M3 S255
G1 X54.0 Y12.5
M3 S0
G0 X53.5 Y12.5
M3 S255
G1 X53.5 Y12.5
M3 S255
G1 X52.5 Y12.5
M3 S0
G0 X52.0 Y12.5
M3 S255
G1 X52.0 Y12.5
M3 S255
G1 X51.0 Y12.5
M3 S0
G0 X50.0 Y12.5
M3 S255
G1 X50.0 Y12.5
M3 S255
G1 X48.0 Y12.5
M3 S0
G0 X29.5 Y12.5
M3 S255
G1 X29.5 Y12.5
M3 S255
G1 X28.5 Y12.5
M3 S0
G0 X22.0 Y12.5
M3 S255
G1 X22.0 Y12.5
M3 S255
G1 X21.5 Y12.5
M3 S0
G0 X16.0 Y12.5
M3 S255
G1 X16.0 Y12.5
M3 S255
G1 X14.5 Y12.5
M3 S0
G0 X12.5 Y12.5
M3 S255
G1 X12.5 Y12.5
M3 S255
G1 X12.0 Y12.5
M3 S0
G0 X11.0 Y12.5
M3 S255
G1 X11.0 Y12.5
M3 S255
G1 X10.0 Y12.5
M3 S0
G0 X2.5 Y12.5
M3 S255
G1 X2.5 Y12.5
M3 S255
G1 X1.5 Y12.5
M3 S0
G0 X0.5 Y12.5
M3 S255
G1 X0.5 Y12.5
M3 S255
G1 X0.0 Y12.5
M5 S0
G0 X1.5 Y13.0
M3 S255
G1 X1.5 Y13.0
M3 S255
G1 X2.5 Y13.0
M3 S0
G0 X8.5 Y13.0
M3 S255
G1 X8.5 Y13.0
M3 S255
G1 X9.0 Y13.0
M3 S0
G0 X11.0 Y13.0
M3 S255
G1 X11.0 Y13.0
M3 S255
G1 X13.5 Y13.0
M3 S0
G0 X14.5 Y13.0
M3 S255
G1 X14.5 Y13.0
M3 S255
G1 X15.5 Y13.0
M3 S0
G0 X20.0 Y13.0
M3 S255
G1 X20.0 Y13.0
M3 S255
G1 X24.0 Y13.0
M3 S0
G0 X24.5 Y13.0
M3 S255
G1 X24.5 Y13.0
M3 S255
G1 X26.5 Y13.0
M3 S0
G0 X28.5 Y13.0
M3 S255
G1 X28.5 Y13.0
M3 S255
G1 X29.5 Y13.0
M3 S0
G0 X47.0 Y13.0
M3 S255
G1 X47.0 Y13.0
M3 S255
G1 X48.0 Y13.0
M3 S0
G0 X50.0 Y13.0
M3 S255
G1 X50.0 Y13.0
M3 S255
G1 X51.0 Y13.0
M3 S0
G0 X52.5 Y13.0
M3 S255
G1 X52.5 Y13.0
M3 S255
G1 X53.5 Y13.0
M3 S0
G0 X54.0 Y13.0
M3 S255
G1 X54.0 Y13.0
M3 S255
G1 X55.5 Y13.0
M3 S0
G0 X57.5 Y13.0
M3 S255
G1 X57.5 Y13.0
M3 S255
G1 X59.0 Y13.0
M3 S0
G0 X61.5 Y13.0
M3 S255
G1 X61.5 Y13.0
M3 S255
G1 X63.0 Y13.0
M3 S0
G0 X69.0 Y13.0
M3 S255
G1 X69.0 Y13.0
M3 S255
G1 X70.0 Y13.0
M3 S0
G0 X72.0 Y13.0
M3 S255
G1 X72.0 Y13.0
M3 S255
G1 X73.0 Y13.0
M3 S0
G0 X93.0 Y13.0
M3 S255
G1 X93.0 Y13.0
M3 S255
G1 X95.0 Y13.0
M3 S0
G0 X95.5 Y13.0
M3 S255
G1 X95.5 Y13.0
M3 S255
G1 X96.0 Y13.0
M3 S0
G0 X96.5 Y13.0
M3 S255
G1 X96.5 Y13.0
M3 S255
G1 X97.0 Y13.0
M3 S0
M5 S0
G0 X99.5 Y13.5
M3 S255
G1 X99.0 Y13.5
M3 S0
G0 X97.0 Y13.5
M3 S255
G1 X97.0 Y13.5
M3 S255
G1 X95.5 Y13.5
M3 S0
G0 X94.5 Y13.5
M3 S255
G1 X94.5 Y13.5
M3 S255
G1 X93.5 Y13.5
M3 S0
G0 X73.0 Y13.5
M3 S255
G1 X73.0 Y13.5
M3 S255
G1 X72.0 Y13.5
M3 S0
G0 X70.0 Y13.5
M3 S255
G1 X70.0 Y13.5
M3 S255
G1 X69.0 Y13.5
M3 S0
G0 X64.0 Y13.5
M3 S255
G1 X64.0 Y13.5
M3 S255
G1 X62.0 Y13.5
M3 S0
G0 X57.5 Y13.5
M3 S255
G1 X57.5 Y13.5
M3 S255
G1 X56.0 Y13.5
M3 S0
G0 X55.5 Y13.5
M3 S255
G1 X55.5 Y13.5
M3 S255
G1 X52.5 Y13.5
M3 S0
G0 X47.5 Y13.5
M3 S255
G1 X47.5 Y13.5
M3 S255
G1 X45.0 Y13.5
M3 S0
G0 X44.0 Y13.5
M3 S255
G1 X44.0 Y13.5
M3 S255
G1 X38.0 Y13.5
M3 S0
G0 X37.5 Y13.5
M3 S255
G1 X37.5 Y13.5
M3 S255
G1 X29.5 Y13.5
M3 S0
G0 X28.5 Y13.5
M3 S255
G1 X28.5 Y13.5
M3 S255
G1 X23.5 Y13.5
M3 S0
G0 X20.5 Y13.5
M3 S255
G1 X20.5 Y13.5
M3 S255
G1 X19.5 Y13.5
M3 S0
G0 X18.0 Y13.5
M3 S255
G1 X18.0 Y13.5
M3 S255
G1 X17.5 Y13.5
M3 S0
G0 X14.0 Y13.5
M3 S255
G1 X14.0 Y13.5
M3 S255
G1 X12.5 Y13.5
M3 S0
G0 X11.0 Y13.5
M3 S255
G1 X11.0 Y13.5
M3 S255
G1 X10.0 Y13.5
M3 S0
G0 X9.0 Y13.5
M3 S255
G1 X9.0 Y13.5
M3 S255
G1 X5.5 Y13.5
M3 S0
G0 X5.0 Y13.5
M3 S255
G1 X5.0 Y13.5
M3 S255
G1 X4.0 Y13.5
M3 S0
G0 X3.0 Y13.5
M3 S255
G1 X3.0 Y13.5
M3 S255
G1 X2.0 Y13.5
M3 S0
G0 X1.5 Y13.5
M3 S255
G1 X1.5 Y13.5
M3 S255
G1 X0.0 Y13.5
M5 S0
G0 X3.0 Y14.0
M3 S255
G1 X3.0 Y14.0
M3 S255
G1 X4.0 Y14.0
M3 S0
G0 X11.5 Y14.0
M3 S255
G1 X11.5 Y14.0
M3 S255
G1 X12.5 Y14.0
M3 S0
G0 X14.0 Y14.0
M3 S255
G1 X14.0 Y14.0
M3 S255
G1 X19.5 Y14.0
M3 S0
G0 X27.0 Y14.0
M3 S255
G1 X27.0 Y14.0
M3 S255
G1 X28.0 Y14.0
M3 S0
G0 X34.5 Y14.0
M3 S255
G1 X34.5 Y14.0
M3 S255
G1 X35.0 Y14.0
M3 S0
G0 X37.5 Y14.0
M3 S255
G1 X37.5 Y14.0
M3 S255
G1 X38.0 Y14.0
M3 S0
G0 X41.0 Y14.0
M3 S255
G1 X41.0 Y14.0
M3 S255
G1 X48.0 Y14.0
M3 S0
G0 X52.5 Y14.0
M3 S255
G1 X52.5 Y14.0
M3 S255
G1 X54.5 Y14.0
M3 S0
G0 X55.0 Y14.0
M3 S255
G1 X55.0 Y14.0
M3 S255
G1 X55.5 Y14.0
M3 S0
G0 X56.5 Y14.0
M3 S255
G1 X56.5 Y14.0
M3 S255
G1 X57.5 Y14.0
M3 S0
G0 X61.5 Y14.0
M3 S255
G1 X61.5 Y14.0
M3 S255
G1 X65.0 Y14.0
M3 S0
G0 X65.5 Y14.0
M3 S255
G1 X65.5 Y14.0
M3 S255
G1 X67.0 Y14.0
M3 S0
G0 X68.5 Y14.0
M3 S255
G1 X68.5 Y14.0
M3 S255
G1 X69.5 Y14.0
M3 S0
G0 X72.0 Y14.0
M3 S255
G1 X72.0 Y14.0
M3 S255
G1 X73.0 Y14.0
M3 S0
G0 X93.5 Y14.0
M3 S255
G1 X93.5 Y14.0
M3 S255
G1 X94.5 Y14.0
M3 S0
G0 X95.5 Y14.0
M3 S255
G1 X95.5 Y14.0
M3 S255
G1 X96.5 Y14.0
M3 S0
M5 S0
G0 X99.5 Y14.5
M3 S255
G1 X99.0 Y14.5
M3 S0
G0 X96.5 Y14.5
M3 S255
G1 X96.5 Y14.5
M3 S255
G1 X95.5 Y14.5
M3 S0
G0 X94.5 Y14.5
M3 S255
G1 X94.5 Y14.5
M3 S255
G1 X94.0 Y14.5
M3 S0
G0 X81.0 Y14.5
M3 S255
G1 X81.0 Y14.5
M3 S255
G1 X80.5 Y14.5
M3 S0
G0 X73.0 Y14.5
M3 S255
G1 X73.0 Y14.5
M3 S255
G1 X72.5 Y14.5
M3 S0
G0 X71.0 Y14.5
M3 S255
G1 X71.0 Y14.5
M3 S255
G1 X69.5 Y14.5
M3 S0
G0 X69.0 Y14.5
M3 S255
G1 X69.0 Y14.5
M3 S255
G1 X68.5 Y14.5
M3 S0
G0 X67.5 Y14.5
M3 S255
G1 X67.5 Y14.5
M3 S255
G1 X67.0 Y14.5
M3 S0
G0 X66.5 Y14.5
M3 S255
G1 X66.5 Y14.5
M3 S255
G1 X66.0 Y14.5
M3 S0
G0 X56.5 Y14.5
M3 S255
G1 X56.5 Y14.5
M3 S255
G1 X55.0 Y14.5
M3 S0
G0 X54.5 Y14.5
M3 S255
G1 X54.5 Y14.5
M3 S255
G1 X52.5 Y14.5
M3 S0
G0 X51.5 Y14.5
M3 S255
G1 X51.5 Y14.5
M3 S255
G1 X47.5 Y14.5
M3 S0
G0 X41.5 Y14.5
M3 S255
G1 X41.5 Y14.5
M3 S255
G1 X39.5 Y14.5
M3 S0
G0 X38.0 Y14.5
M3 S255
G1 X38.0 Y14.5
M3 S255
G1 X33.0 Y14.5
M3 S0
M5 S0
G0 X31.0 Y15.0
M3 S255
G1 X31.0 Y15.0
M3 S255
G1 X32.0 Y15.0
M3 S0
G0 X32.5 Y15.0
M3 S255
G1 X32.5 Y15.0
M3 S255
G1 X33.0 Y15.0
M3 S0
G0 X38.0 Y15.0
M3 S255
G1 X38.0 Y15.0
M3 S255
G1 X39.0 Y15.0
M3 S0
G0 X45.0 Y15.0
M3 S255
G1 X45.0 Y15.0
M3 S255
G1 X50.0 Y15.0
M3 S0
G0 X54.5 Y15.0
M3 S255
G1 X54.5 Y15.0
M3 S255
G1 X55.0 Y15.0
M3 S0
G0 X71.5 Y15.0
M3 S255
G1 X71.5 Y15.0
M3 S255
G1 X74.5 Y15.0
M3 S0
G0 X75.5 Y15.0
M3 S255
G1 X75.5 Y15.0
M3 S255
G1 X78.5 Y15.0
M3 S0
G0 X79.5 Y15.0
M3 S255
G1 X79.5 Y15.0
M3 S255
G1 X83.5 Y15.0
M3 S0
G0 X93.0 Y15.0
M3 S255
G1 X93.0 Y15.0
M3 S255
G1 X93.5 Y15.0
M3 S0
G0 X94.0 Y15.0
M3 S255
G1 X94.0 Y15.0
M3 S255
G1 X94.5 Y15.0
M3 S0
G0 X95.5 Y15.0
M3 S255
G1 X95.5 Y15.0
M3 S255
G1 X96.5 Y15.0
M3 S0
M5 S0
G0 X99.5 Y15.5
M3 S255
G1 X99.0 Y15.5
M3 S0
G0 X94.0 Y15.5
M3 S255
G1 X94.0 Y15.5
M3 S255
G1 X93.0 Y15.5
M3 S0
G0 X85.5 Y15.5
M3 S255
G1 X85.5 Y15.5
M3 S255
G1 X82.5 Y15.5
M3 S0
G0 X82.0 Y15.5
M3 S255
G1 X82.0 Y15.5
M3 S255
G1 X81.5 Y15.5
M3 S0
G0 X81.0 Y15.5
M3 S255
G1 X81.0 Y15.5
M3 S255
G1 X78.5 Y15.5
M3 S0
G0 X75.5 Y15.5
M3 S255
G1 X75.5 Y15.5
M3 S255
G1 X75.0 Y15.5
M3 S0
G0 X41.0 Y15.5
M3 S255
G1 X41.0 Y15.5
M3 S255
G1 X40.5 Y15.5
M3 S0
G0 X36.5 Y15.5
M3 S255
G1 X36.5 Y15.5
M3 S255
G1 X36.0 Y15.5
M3 S0
G0 X32.5 Y15.5
M3 S255
G1 X32.5 Y15.5
M3 S255
G1 X32.0 Y15.5
M3 S0
G0 X31.5 Y15.5
M3 S255
G1 X31.5 Y15.5
M3 S255
G1 X26.0 Y15.5
M3 S0
G0 X19.5 Y15.5
M3 S255
G1 X19.5 Y15.5
M3 S255
G1 X18.0 Y15.5
M3 S0
M5 S0
G0 X9.0 Y16.0
M3 S255
G1 X9.0 Y16.0
M3 S255
G1 X11.0 Y16.0
M3 S0
G0 X16.5 Y16.0
M3 S255
G1 X16.5 Y16.0
M3 S255
G1 X17.5 Y16.0
M3 S0
G0 X19.5 Y16.0
M3 S255
G1 X19.5 Y16.0
M3 S255
G1 X24.0 Y16.0
M3 S0
G0 X27.0 Y16.0
M3 S255
G1 X27.0 Y16.0
M3 S255
G1 X33.0 Y16.0
M3 S0
G0 X36.0 Y16.0
M3 S255
G1 X36.0 Y16.0
M3 S255
G1 X37.0 Y16.0
M3 S0
G0 X38.0 Y16.0
M3 S255
G1 X38.0 Y16.0
M3 S255
G1 X39.0 Y16.0
M3 S0
G0 X40.0 Y16.0
M3 S255
G1 X40.0 Y16.0
M3 S255
G1 X42.0 Y16.0
M3 S0
G0 X44.5 Y16.0
M3 S255
G1 X44.5 Y16.0
M3 S255
G1 X46.5 Y16.0
M3 S0
G0 X47.5 Y16.0
M3 S255
G1 X47.5 Y16.0
M3 S255
G1 X48.0 Y16.0
M3 S0
G0 X48.5 Y16.0
M3 S255
G1 X48.5 Y16.0
M3 S255
G1 X49.0 Y16.0
M3 S0
G0 X49.5 Y16.0
M3 S255
G1 X49.5 Y16.0
M3 S255
G1 X50.5 Y16.0
M3 S0
G0 X51.5 Y16.0
M3 S255
G1 X51.5 Y16.0
M3 S255
G1 X56.5 Y16.0
M3 S0
G0 X63.0 Y16.0
M3 S255
G1 X63.0 Y16.0
M3 S255
G1 X63.5 Y16.0
M3 S0
G0 X64.0 Y16.0
M3 S255
G1 X64.0 Y16.0
M3 S255
G1 X65.0 Y16.0
M3 S0
G0 X70.5 Y16.0
M3 S255
G1 X70.5 Y16.0
M3 S255
G1 X73.5 Y16.0
M3 S0
G0 X85.5 Y16.0
M3 S255
G1 X85.5 Y16.0
M3 S255
G1 X87.5 Y16.0
M3 S0
G0 X93.0 Y16.0
M3 S255
G1 X93.0 Y16.0
M3 S255
G1 X94.0 Y16.0
M3 S0
M5 S0
G0 X99.5 Y16.5
M3 S255
G1 X94.0 Y16.5
M3 S0
G0 X88.0 Y16.5
M3 S255
G1 X88.0 Y16.5
M3 S255
G1 X86.0 Y16.5
M3 S0
G0 X84.0 Y16.5
M3 S255
G1 X84.0 Y16.5
M3 S255
G1 X83.0 Y16.5
M3 S0
G0 X72.0 Y16.5
M3 S255
G1 X72.0 Y16.5
M3 S255
G1 X63.5 Y16.5
M3 S0
G0 X63.0 Y16.5
M3 S255
G1 X63.0 Y16.5
M3 S255
G1 X60.0 Y16.5
M3 S0
G0 X59.5 Y16.5
M3 S255
G1 X59.5 Y16.5
M3 S255
G1 X57.5 Y16.5
M3 S0
G0 X56.5 Y16.5
M3 S255
G1 X56.5 Y16.5
M3 S255
G1 X51.5 Y16.5
M3 S0
G0 X50.0 Y16.5
M3 S255
G1 X50.0 Y16.5
M3 S255
G1 X49.5 Y16.5
M3 S0
G0 X48.0 Y16.5
M3 S255
G1 X48.0 Y16.5
M3 S255
G1 X47.5 Y16.5
M3 S0
G0 X45.5 Y16.5
M3 S255
G1 X45.5 Y16.5
M3 S255
G1 X42.0 Y16.5
M3 S0
G0 X41.5 Y16.5
M3 S255
G1 X41.5 Y16.5
M3 S255
G1 X40.0 Y16.5
M3 S0
G0 X39.5 Y16.5
M3 S255
G1 X39.5 Y16.5
M3 S255
G1 X38.5 Y16.5
M3 S0
G0 X38.0 Y16.5
M3 S255
G1 X38.0 Y16.5
M3 S255
G1 X37.5 Y16.5
M3 S0
G0 X36.5 Y16.5
M3 S255
G1 X36.5 Y16.5
M3 S255
G1 X36.0 Y16.5
M3 S0
G0 X34.0 Y16.5
M3 S255
G1 X34.0 Y16.5
M3 S255
G1 X33.5 Y16.5
M3 S0
G0 X33.0 Y16.5
M3 S255
G1 X33.0 Y16.5
M3 S255
G1 X26.5 Y16.5
M3 S0
G0 X26.0 Y16.5
M3 S255
G1 X26.0 Y16.5
M3 S255
G1 X25.0 Y16.5
M3 S0
G0 X22.5 Y16.5
M3 S255
G1 X22.5 Y16.5
M3 S255
G1 X22.0 Y16.5
M3 S0
G0 X19.5 Y16.5
M3 S255
G1 X19.5 Y16.5
M3 S255
G1 X17.5 Y16.5
M3 S0
G0 X15.5 Y16.5
M3 S255
G1 X15.5 Y16.5
M3 S255
G1 X11.0 Y16.5
M3 S0
G0 X9.0 Y16.5
M3 S255
G1 X9.0 Y16.5
M3 S255
G1 X8.5 Y16.5
M3 S0
M5 S0
G0 X3.5 Y17.0
M3 S255
G1 X3.5 Y17.0
M3 S255
G1 X8.5 Y17.0
M3 S0
G0 X10.5 Y17.0
M3 S255
G1 X10.5 Y17.0
M3 S255
G1 X12.5 Y17.0
M3 S0
G0 X17.5 Y17.0
M3 S255
G1 X17.5 Y17.0
M3 S255
G1 X19.5 Y17.0
M3 S0
G0 X25.5 Y17.0
M3 S255
G1 X25.5 Y17.0
M3 S255
G1 X26.5 Y17.0
M3 S0
G0 X27.0 Y17.0
M3 S255
G1 X27.0 Y17.0
M3 S255
G1 X33.5 Y17.0
M3 S0
G0 X34.0 Y17.0
M3 S255
G1 X34.0 Y17.0
M3 S255
G1 X35.0 Y17.0
M3 S0
G0 X36.0 Y17.0
M3 S255
G1 X36.0 Y17.0
M3 S255
G1 X44.0 Y17.0
M3 S0
G0 X52.0 Y17.0
M3 S255
G1 X52.0 Y17.0
M3 S255
G1 X57.0 Y17.0
M3 S0
G0 X62.0 Y17.0
M3 S255
G1 X62.0 Y17.0
M3 S255
G1 X64.0 Y17.0
M3 S0
G0 X65.0 Y17.0
M3 S255
G1 X65.0 Y17.0
M3 S255
G1 X66.0 Y17.0
M3 S0
G0 X66.5 Y17.0
M3 S255
G1 X66.5 Y17.0
M3 S255
G1 X73.0 Y17.0
M3 S0
G0 X77.0 Y17.0
M3 S255
G1 X77.0 Y17.0
M3 S255
G1 X77.5 Y17.0
M3 S0
G0 X78.0 Y17.0
M3 S255
G1 X78.0 Y17.0
M3 S255
G1 X80.0 Y17.0
M3 S0
G0 X81.5 Y17.0
M3 S255
G1 X81.5 Y17.0
M3 S255
G1 X84.5 Y17.0
M3 S0
G0 X85.0 Y17.0
M3 S255
G1 X85.0 Y17.0
M3 S255
G1 X85.5 Y17.0
M3 S0
G0 X87.0 Y17.0
M3 S255
G1 X87.0 Y17.0
M3 S255
G1 X92.5 Y17.0
M3 S0
M5 S0
G0 X98.5 Y17.5
M3 S255
G1 X98.5 Y17.5
M3 S255
G1 X98.0 Y17.5
M3 S0
G0 X97.5 Y17.5
M3 S255
G1 X97.5 Y17.5
M3 S255
G1 X95.5 Y17.5
M3 S0
G0 X95.0 Y17.5
M3 S255
G1 X95.0 Y17.5
M3 S255
G1 X94.5 Y17.5
M3 S0
G0 X83.0 Y17.5
M3 S255
G1 X83.0 Y17.5
M3 S255
G1 X68.5 Y17.5
M3 S0
G0 X68.0 Y17.5
M3 S255
G1 X68.0 Y17.5
M3 S255
G1 X62.0 Y17.5
M3 S0
G0 X57.0 Y17.5
M3 S255
G1 X57.0 Y17.5
M3 S255
G1 X52.0 Y17.5
M3 S0
G0 X51.5 Y17.5
M3 S255
G1 X51.5 Y17.5
M3 S255
G1 X50.0 Y17.5
M3 S0
G0 X49.5 Y17.5
M3 S255
G1 X49.5 Y17.5
M3 S255
G1 X45.5 Y17.5
M3 S0
G0 X44.5 Y17.5
M3 S255
G1 X44.5 Y17.5
M3 S255
G1 X40.0 Y17.5
M3 S0
G0 X39.5 Y17.5
M3 S255
G1 X39.5 Y17.5
M3 S255
G1 X35.5 Y17.5
M3 S0
G0 X35.0 Y17.5
M3 S255
G1 X35.0 Y17.5
M3 S255
G1 X34.0 Y17.5
M3 S0
G0 X33.0 Y17.5
M3 S255
G1 X33.0 Y17.5
M3 S255
G1 X32.5 Y17.5
M3 S0
G0 X26.5 Y17.5
M3 S255
G1 X26.5 Y17.5
M3 S255
G1 X26.0 Y17.5
M3 S0
G0 X12.0 Y17.5
M3 S255
G1 X12.0 Y17.5
M3 S255
G1 X8.5 Y17.5
M3 S0
G0 X3.0 Y17.5
M3 S255
G1 X3.0 Y17.5
M3 S255
G1 X0.0 Y17.5
M5 S0
G0 X3.5 Y18.0
M3 S255
G1 X3.5 Y18.0
M3 S255
G1 X10.5 Y18.0
M3 S0
G0 X26.0 Y18.0
M3 S255
G1 X26.0 Y18.0
M3 S255
G1 X26.5 Y18.0
M3 S0
G0 X32.5 Y18.0
M3 S255
G1 X32.5 Y18.0
M3 S255
G1 X35.0 Y18.0
M3 S0
G0 X36.0 Y18.0
M3 S255
G1 X36.0 Y18.0
M3 S255
G1 X37.0 Y18.0
M3 S0
G0 X37.5 Y18.0
M3 S255
G1 X37.5 Y18.0
M3 S255
G1 X38.5 Y18.0
M3 S0
G0 X40.0 Y18.0
M3 S255
G1 X40.0 Y18.0
M3 S255
G1 X41.0 Y18.0
M3 S0
G0 X41.5 Y18.0
M3 S255
G1 X41.5 Y18.0
M3 S255
G1 X42.5 Y18.0
M3 S0
G0 X43.0 Y18.0
M3 S255
G1 X43.0 Y18.0
M3 S255
G1 X44.0 Y18.0
M3 S0
G0 X45.5 Y18.0
M3 S255
G1 X45.5 Y18.0
M3 S255
G1 X51.0 Y18.0
M3 S0
G0 X51.5 Y18.0
M3 S255
G1 X51.5 Y18.0
M3 S255
G1 X57.0 Y18.0
M3 S0
G0 X62.0 Y18.0
M3 S255
G1 X62.0 Y18.0
M3 S255
G1 X65.0 Y18.0
M3 S0
G0 X67.5 Y18.0
M3 S255
G1 X67.5 Y18.0
M3 S255
G1 X68.0 Y18.0
M3 S0
G0 X68.5 Y18.0
M3 S255
G1 X68.5 Y18.0
M3 S255
G1 X72.5 Y18.0
M3 S0
G0 X73.0 Y18.0
M3 S255
G1 X73.0 Y18.0
M3 S255
G1 X73.5 Y18.0
M3 S0
G0 X78.5 Y18.0
M3 S255
G1 X78.5 Y18.0
M3 S255
G1 X79.5 Y18.0
M3 S0
G0 X80.0 Y18.0
M3 S255
G1 X80.0 Y18.0
M3 S255
G1 X81.5 Y18.0
M3 S0
G0 X82.5 Y18.0
M3 S255
G1 X82.5 Y18.0
M3 S255
G1 X95.0 Y18.0
M3 S0
G0 X95.5 Y18.0
M3 S255
G1 X95.5 Y18.0
M3 S255
G1 X98.5 Y18.0
M3 S0
M5 S0
G0 X99.0 Y18.5
M3 S255
G1 X99.0 Y18.5
M3 S255
G1 X98.5 Y18.5
M3 S0
G0 X97.0 Y18.5
M3 S255
G1 X97.0 Y18.5
M3 S255
G1 X96.5 Y18.5
M3 S0
G0 X96.0 Y18.5
M3 S255
G1 X96.0 Y18.5
M3 S255
G1 X93.0 Y18.5
M3 S0
G0 X91.5 Y18.5
M3 S255
G1 X91.5 Y18.5
M3 S255
G1 X91.0 Y18.5
M3 S0
G0 X89.0 Y18.5
M3 S255
G1 X89.0 Y18.5
M3 S255
G1 X88.0 Y18.5
M3 S0
G0 X81.5 Y18.5
M3 S255
G1 X81.5 Y18.5
M3 S255
G1 X80.0 Y18.5
M3 S0
G0 X73.5 Y18.5
M3 S255
G1 X73.5 Y18.5
M3 S255
G1 X73.0 Y18.5
M3 S0
G0 X72.5 Y18.5
M3 S255
G1 X72.5 Y18.5
M3 S255
G1 X70.5 Y18.5
M3 S0
G0 X68.0 Y18.5
M3 S255
G1 X68.0 Y18.5
M3 S255
G1 X67.5 Y18.5
M3 S0
G0 X65.0 Y18.5
M3 S255
G1 X65.0 Y18.5
M3 S255
G1 X62.0 Y18.5
M3 S0
G0 X61.5 Y18.5
M3 S255
G1 X61.5 Y18.5
M3 S255
G1 X61.0 Y18.5
M3 S0
G0 X57.0 Y18.5
M3 S255
G1 X57.0 Y18.5
M3 S255
G1 X52.0 Y18.5
M3 S0
G0 X48.5 Y18.5
M3 S255
G1 X48.5 Y18.5
M3 S255
G1 X47.0 Y18.5
M3 S0
G0 X46.5 Y18.5
M3 S255
G1 X46.5 Y18.5
M3 S255
G1 X45.0 Y18.5
M3 S0
G0 X44.5 Y18.5
M3 S255
G1 X44.5 Y18.5
M3 S255
G1 X43.0 Y18.5
M3 S0
G0 X42.5 Y18.5
M3 S255
G1 X42.5 Y18.5
M3 S255
G1 X42.0 Y18.5
M3 S0
G0 X33.5 Y18.5
M3 S255
G1 X33.5 Y18.5
M3 S255
G1 X32.5 Y18.5
M3 S0
G0 X10.5 Y18.5
M3 S255
G1 X10.5 Y18.5
M3 S255
G1 X8.5 Y18.5
M3 S0
G0 X7.5 Y18.5
M3 S255
G1 X7.5 Y18.5
M3 S255
G1 X7.0 Y18.5
M3 S0
G0 X6.0 Y18.5
M3 S255
G1 X6.0 Y18.5
M3 S255
G1 X5.5 Y18.5
M3 S0
G0 X5.0 Y18.5
M3 S255
G1 X5.0 Y18.5
M3 S255
G1 X4.5 Y18.5
M3 S0
G0 X4.0 Y18.5
M3 S255
G1 X4.0 Y18.5
M3 S255
G1 X3.5 Y18.5
M3 S0
M5 S0
G0 X1.5 Y19.0
M3 S255
G1 X1.5 Y19.0
M3 S255
G1 X2.0 Y19.0
M3 S0
G0 X3.5 Y19.0
M3 S255
G1 X3.5 Y19.0
M3 S255
G1 X4.0 Y19.0
M3 S0
G0 X22.5 Y19.0
M3 S255
G1 X22.5 Y19.0
M3 S255
G1 X23.0 Y19.0
M3 S0
G0 X23.5 Y19.0
M3 S255
G1 X23.5 Y19.0
M3 S255
G1 X25.5 Y19.0
M3 S0
G0 X27.0 Y19.0
M3 S255
G1 X27.0 Y19.0
M3 S255
G1 X29.5 Y19.0
M3 S0
G0 X32.5 Y19.0
M3 S255
G1 X32.5 Y19.0
M3 S255
G1 X33.5 Y19.0
M3 S0
G0 X42.0 Y19.0
M3 S255
G1 X42.0 Y19.0
M3 S255
G1 X42.5 Y19.0
M3 S0
G0 X43.0 Y19.0
M3 S255
G1 X43.0 Y19.0
M3 S255
G1 X44.5 Y19.0
M3 S0
G0 X45.0 Y19.0
M3 S255
G1 X45.0 Y19.0
M3 S255
G1 X48.5 Y19.0
M3 S0
G0 X52.0 Y19.0
M3 S255
G1 X52.0 Y19.0
M3 S255
G1 X57.0 Y19.0
M3 S0
G0 X62.0 Y19.0
M3 S255
G1 X62.0 Y19.0
M3 S255
G1 X65.0 Y19.0
M3 S0
G0 X70.5 Y19.0
M3 S255
G1 X70.5 Y19.0
M3 S255
G1 X72.5 Y19.0
M3 S0
G0 X73.0 Y19.0
M3 S255
G1 X73.0 Y19.0
M3 S255
G1 X73.5 Y19.0
M3 S0
G0 X78.5 Y19.0
M3 S255
G1 X78.5 Y19.0
M3 S255
G1 X79.0 Y19.0
M3 S0
G0 X81.0 Y19.0
M3 S255
G1 X81.0 Y19.0
M3 S255
G1 X81.5 Y19.0
M3 S0
G0 X86.0 Y19.0
M3 S255
G1 X86.0 Y19.0
M3 S255
G1 X87.5 Y19.0
M3 S0
G0 X88.0 Y19.0
M3 S255
G1 X88.0 Y19.0
M3 S255
G1 X89.5 Y19.0
M3 S0
G0 X90.5 Y19.0
M3 S255
G1 X90.5 Y19.0
M3 S255
G1 X92.0 Y19.0
M3 S0
G0 X93.0 Y19.0
M3 S255
G1 X93.0 Y19.0
M3 S255
G1 X96.0 Y19.0
M3 S0
G0 X96.5 Y19.0
M3 S255
G1 X96.5 Y19.0
M3 S255
G1 X98.5 Y19.0
M3 S0
M5 S0
G0 X97.5 Y19.5
M3 S255
G1 X97.5 Y19.5
M3 S255
G1 X96.0 Y19.5
M3 S0
G0 X95.5 Y19.5
M3 S255
G1 X95.5 Y19.5
M3 S255
G1 X92.5 Y19.5
M3 S0
G0 X90.0 Y19.5
M3 S255
G1 X90.0 Y19.5
M3 S255
G1 X89.0 Y19.5
M3 S0
G0 X87.5 Y19.5
M3 S255
G1 X87.5 Y19.5
M3 S255
G1 X87.0 Y19.5
M3 S0
G0 X86.5 Y19.5
M3 S255
G1 X86.5 Y19.5
M3 S255
G1 X85.5 Y19.5
M3 S0
G0 X81.5 Y19.5
M3 S255
G1 X81.5 Y19.5
M3 S255
G1 X81.0 Y19.5
M3 S0
G0 X79.0 Y19.5
M3 S255
G1 X79.0 Y19.5
M3 S255
G1 X78.5 Y19.5
M3 S0
G0 X76.0 Y19.5
M3 S255
G1 X76.0 Y19.5
M3 S255
G1 X75.0 Y19.5
M3 S0
G0 X73.5 Y19.5
M3 S255
G1 X73.5 Y19.5
M3 S255
G1 X73.0 Y19.5
M3 S0
G0 X72.0 Y19.5
M3 S255
G1 X72.0 Y19.5
M3 S255
G1 X70.5 Y19.5
M3 S0
G0 X64.5 Y19.5
M3 S255
G1 X64.5 Y19.5
M3 S255
G1 X61.0 Y19.5
M3 S0
G0 X57.0 Y19.5
M3 S255
G1 X57.0 Y19.5
M3 S255
G1 X52.0 Y19.5
M3 S0
G0 X48.5 Y19.5
M3 S255
G1 X48.5 Y19.5
M3 S255
G1 X43.0 Y19.5
M3 S0
G0 X42.5 Y19.5
M3 S255
G1 X42.5 Y19.5
M3 S255
G1 X42.0 Y19.5
M3 S0
G0 X33.5 Y19.5
M3 S255
G1 X33.5 Y19.5
M3 S255
G1 X32.5 Y19.5
M3 S0
G0 X30.0 Y19.5
M3 S255
G1 X30.0 Y19.5
M3 S255
G1 X26.0 Y19.5
M3 S0
G0 X23.0 Y19.5
M3 S255
G1 X23.0 Y19.5
M3 S255
G1 X22.5 Y19.5
M3 S0
G0 X3.5 Y19.5
M3 S255
G1 X3.5 Y19.5
M3 S255
G1 X2.0 Y19.5
M3 S0
G0 X1.5 Y19.5
M3 S255
G1 X1.5 Y19.5
M3 S255
G1 X0.0 Y19.5
M5 S0
G0 X1.0 Y20.0
M3 S255
G1 X1.0 Y20.0
M3 S255
G1 X1.5 Y20.0
M3 S0
G0 X2.0 Y20.0
M3 S255
G1 X2.0 Y20.0
M3 S255
G1 X3.0 Y20.0
M3 S0
G0 X3.5 Y20.0
M3 S255
G1 X3.5 Y20.0
M3 S255
G1 X4.0 Y20.0
M3 S0
G0 X26.0 Y20.0
M3 S255
G1 X26.0 Y20.0
M3 S255
G1 X29.5 Y20.0
M3 S0
G0 X32.5 Y20.0
M3 S255
G1 X32.5 Y20.0
M3 S255
G1 X33.5 Y20.0
M3 S0
G0 X42.0 Y20.0
M3 S255
G1 X42.0 Y20.0
M3 S255
G1 X42.5 Y20.0
M3 S0
G0 X43.0 Y20.0
M3 S255
G1 X43.0 Y20.0
M3 S255
G1 X47.0 Y20.0
M3 S0
G0 X47.5 Y20.0
M3 S255
G1 X47.5 Y20.0
M3 S255
G1 X48.5 Y20.0
M3 S0
G0 X52.0 Y20.0
M3 S255
G1 X52.0 Y20.0
M3 S255
G1 X57.0 Y20.0
M3 S0
G0 X60.0 Y20.0
M3 S255
G1 X60.0 Y20.0
M3 S255
G1 X61.0 Y20.0
M3 S0
G0 X62.0 Y20.0
M3 S255
G1 X62.0 Y20.0
M3 S255
G1 X64.5 Y20.0
M3 S0
G0 X70.5 Y20.0
M3 S255
G1 X70.5 Y20.0
M3 S255
G1 X72.5 Y20.0
M3 S0
G0 X73.0 Y20.0
M3 S255
G1 X73.0 Y20.0
M3 S255
G1 X73.5 Y20.0
M3 S0
G0 X74.0 Y20.0
M3 S255
G1 X74.0 Y20.0
M3 S255
G1 X74.5 Y20.0
M3 S0
G0 X76.0 Y20.0
M3 S255
G1 X76.0 Y20.0
M3 S255
G1 X76.5 Y20.0
M3 S0
G0 X78.5 Y20.0
M3 S255
G1 X78.5 Y20.0
M3 S255
G1 X79.0 Y20.0
M3 S0
G0 X81.0 Y20.0
M3 S255
G1 X81.0 Y20.0
M3 S255
G1 X81.5 Y20.0
M3 S0
G0 X85.0 Y20.0
M3 S255
G1 X85.0 Y20.0
M3 S255
G1 X87.5 Y20.0
M3 S0
G0 X89.0 Y20.0
M3 S255
G1 X89.0 Y20.0
M3 S255
G1 X92.0 Y20.0
M3 S0
G0 X93.5 Y20.0
M3 S255
G1 X93.5 Y20.0
M3 S255
G1 X94.5 Y20.0
M3 S0
G0 X96.5 Y20.0
M3 S255
G1 X96.5 Y20.0
M3 S255
G1 X99.5 Y20.0
M5 S0
G0 X99.0 Y20.5
M3 S255
G1 X99.0 Y20.5
M3 S255
G1 X98.5 Y20.5
M3 S0
G0 X98.0 Y20.5
M3 S255
G1 X98.0 Y20.5
M3 S255
G1 X95.5 Y20.5
M3 S0
G0 X95.0 Y20.5
M3 S255
G1 X95.0 Y20.5
M3 S255
G1 X93.5 Y20.5
M3 S0
G0 X93.0 Y20.5
M3 S255
G1 X93.0 Y20.5
M3 S255
G1 X92.5 Y20.5
M3 S0
G0 X91.5 Y20.5
M3 S255
G1 X91.5 Y20.5
M3 S255
G1 X91.0 Y20.5
M3 S0
G0 X87.5 Y20.5
M3 S255
G1 X87.5 Y20.5
M3 S255
G1 X85.0 Y20.5
M3 S0
G0 X81.5 Y20.5
M3 S255
G1 X81.5 Y20.5
M3 S255
G1 X81.0 Y20.5
M3 S0
G0 X79.0 Y20.5
M3 S255
G1 X79.0 Y20.5
M3 S255
G1 X78.5 Y20.5
M3 S0
G0 X75.0 Y20.5
M3 S255
G1 X75.0 Y20.5
M3 S255
G1 X73.0 Y20.5
M3 S0
G0 X72.5 Y20.5
M3 S255
G1 X72.5 Y20.5
M3 S255
G1 X70.5 Y20.5
M3 S0
G0 X70.0 Y20.5
M3 S255
G1 X70.0 Y20.5
M3 S255
G1 X69.5 Y20.5
M3 S0
G0 X64.5 Y20.5
M3 S255
G1 X64.5 Y20.5
M3 S255
G1 X59.5 Y20.5
M3 S0
G0 X58.5 Y20.5
M3 S255
G1 X58.5 Y20.5
M3 S255
G1 X58.0 Y20.5
M3 S0
G0 X57.0 Y20.5
M3 S255
G1 X57.0 Y20.5
M3 S255
G1 X52.0 Y20.5
M3 S0
G0 X48.5 Y20.5
M3 S255
G1 X48.5 Y20.5
M3 S255
G1 X43.0 Y20.5
M3 S0
G0 X42.5 Y20.5
M3 S255
G1 X42.5 Y20.5
M3 S255
G1 X42.0 Y20.5
M3 S0
G0 X33.5 Y20.5
M3 S255
G1 X33.5 Y20.5
M3 S255
G1 X32.5 Y20.5
M3 S0
G0 X29.5 Y20.5
M3 S255
G1 X29.5 Y20.5
M3 S255
G1 X27.0 Y20.5
M3 S0
G0 X26.5 Y20.5
M3 S255
G1 X26.5 Y20.5
M3 S255
G1 X26.0 Y20.5
M3 S0
G0 X25.5 Y20.5
M3 S255
G1 X25.5 Y20.5
M3 S255
G1 X23.0 Y20.5
M3 S0
G0 X17.5 Y20.5
M3 S255
G1 X17.5 Y20.5
M3 S255
G1 X16.5 Y20.5
M3 S0
G0 X8.0 Y20.5
M3 S255
G1 X8.0 Y20.5
M3 S255
G1 X7.5 Y20.5
M3 S0
G0 X6.5 Y20.5
M3 S255
G1 X6.5 Y20.5
M3 S255
G1 X5.0 Y20.5
M3 S0
G0 X3.5 Y20.5
M3 S255
G1 X3.5 Y20.5
M3 S255
G1 X3.0 Y20.5
M3 S0
M5 S0
G0 X3.5 Y21.0
M3 S255
G1 X3.5 Y21.0
M3 S255
G1 X7.0 Y21.0
M3 S0
G0 X7.5 Y21.0
M3 S255
G1 X7.5 Y21.0
M3 S255
G1 X8.5 Y21.0
M3 S0
G0 X17.0 Y21.0
M3 S255
G1 X17.0 Y21.0
M3 S255
G1 X17.5 Y21.0
M3 S0
G0 X25.0 Y21.0
M3 S255
G1 X25.0 Y21.0
M3 S255
G1 X25.5 Y21.0
M3 S0
G0 X26.0 Y21.0
M3 S255
G1 X26.0 Y21.0
M3 S255
G1 X26.5 Y21.0
M3 S0
G0 X27.0 Y21.0
M3 S255
G1 X27.0 Y21.0
M3 S255
G1 X27.5 Y21.0
M3 S0
G0 X32.5 Y21.0
M3 S255
G1 X32.5 Y21.0
M3 S255
G1 X33.5 Y21.0
M3 S0
G0 X42.0 Y21.0
M3 S255
G1 X42.0 Y21.0
M3 S255
G1 X42.5 Y21.0
M3 S0
G0 X43.0 Y21.0
M3 S255
G1 X43.0 Y21.0
M3 S255
G1 X48.5 Y21.0
M3 S0
G0 X52.0 Y21.0
M3 S255
G1 X52.0 Y21.0
M3 S255
G1 X57.0 Y21.0
M3 S0
G0 X61.5 Y21.0
M3 S255
G1 X61.5 Y21.0
M3 S255
G1 X64.5 Y21.0
M3 S0
G0 X70.5 Y21.0
M3 S255
G1 X70.5 Y21.0
M3 S255
G1 X72.0 Y21.0
M3 S0
G0 X74.0 Y21.0
M3 S255
G1 X74.0 Y21.0
M3 S255
G1 X75.0 Y21.0
M3 S0
G0 X78.5 Y21.0
M3 S255
G1 X78.5 Y21.0
M3 S255
G1 X79.0 Y21.0
M3 S0
G0 X81.0 Y21.0
M3 S255
G1 X81.0 Y21.0
M3 S255
G1 X81.5 Y21.0
M3 S0
G0 X85.0 Y21.0
M3 S255
G1 X85.0 Y21.0
M3 S255
G1 X87.5 Y21.0
M3 S0
G0 X92.5 Y21.0
M3 S255
G1 X92.5 Y21.0
M3 S255
G1 X93.0 Y21.0
M3 S0
G0 X94.0 Y21.0
M3 S255
G1 X94.0 Y21.0
M3 S255
G1 X94.5 Y21.0
M3 S0
G0 X96.0 Y21.0
M3 S255
G1 X96.0 Y21.0
M3 S255
G1 X96.5 Y21.0
M3 S0
G0 X97.0 Y21.0
M3 S255
G1 X97.0 Y21.0
M3 S255
G1 X98.0 Y21.0
M3 S0
M5 S0
G0 X98.0 Y21.5
M3 S255
G1 X98.0 Y21.5
M3 S255
G1 X96.0 Y21.5
M3 S0
G0 X93.0 Y21.5
M3 S255
G1 X93.0 Y21.5
M3 S255
G1 X92.5 Y21.5
M3 S0
G0 X89.5 Y21.5
M3 S255
G1 X89.5 Y21.5
M3 S255
G1 X89.0 Y21.5
M3 S0
G0 X87.5 Y21.5
M3 S255
G1 X87.5 Y21.5
M3 S255
G1 X85.0 Y21.5
M3 S0
G0 X81.5 Y21.5
M3 S255
G1 X81.5 Y21.5
M3 S255
G1 X81.0 Y21.5
M3 S0
G0 X80.5 Y21.5
M3 S255
G1 X80.5 Y21.5
M3 S255
G1 X80.0 Y21.5
M3 S0
G0 X79.5 Y21.5
M3 S255
G1 X79.5 Y21.5
M3 S255
G1 X79.0 Y21.5
M3 S0
G0 X75.0 Y21.5
M3 S255
G1 X75.0 Y21.5
M3 S255
G1 X74.5 Y21.5
M3 S0
G0 X72.5 Y21.5
M3 S255
G1 X72.5 Y21.5
M3 S255
G1 X70.5 Y21.5
M3 S0
G0 X70.0 Y21.5
M3 S255
G1 X70.0 Y21.5
M3 S255
G1 X69.5 Y21.5
M3 S0
G0 X64.5 Y21.5
M3 S255
G1 X64.5 Y21.5
M3 S255
G1 X62.0 Y21.5
M3 S0
G0 X57.0 Y21.5
M3 S255
G1 X57.0 Y21.5
M3 S255
G1 X52.0 Y21.5
M3 S0
G0 X48.5 Y21.5
M3 S255
G1 X48.5 Y21.5
M3 S255
G1 X43.0 Y21.5
M3 S0
G0 X42.5 Y21.5
M3 S255
G1 X42.5 Y21.5
M3 S255
G1 X41.5 Y21.5
M3 S0
G0 X33.5 Y21.5
M3 S255
G1 X33.5 Y21.5
M3 S255
G1 X32.5 Y21.5
M3 S0
G0 X30.0 Y21.5
M3 S255
G1 X30.0 Y21.5
M3 S255
G1 X25.0 Y21.5
M3 S0
G0 X5.0 Y21.5
M3 S255
G1 X5.0 Y21.5
M3 S255
G1 X4.0 Y21.5
M3 S0
M5 S0
G0 X4.5 Y22.0
M3 S255
G1 X4.5 Y22.0
M3 S255
G1 X5.0 Y22.0
M3 S0
G0 X18.0 Y22.0
M3 S255
G1 X18.0 Y22.0
M3 S255
G1 X18.5 Y22.0
M3 S0
G0 X27.5 Y22.0
M3 S255
G1 X27.5 Y22.0
M3 S255
G1 X28.5 Y22.0
M3 S0
G0 X29.0 Y22.0
M3 S255
G1 X29.0 Y22.0
M3 S255
G1 X30.0 Y22.0
M3 S0
G0 X32.5 Y22.0
M3 S255
G1 X32.5 Y22.0
M3 S255
G1 X33.5 Y22.0
M3 S0
G0 X42.0 Y22.0
M3 S255
G1 X42.0 Y22.0
M3 S255
G1 X43.5 Y22.0
M3 S0
G0 X48.0 Y22.0
M3 S255
G1 X48.0 Y22.0
M3 S255
G1 X48.5 Y22.0
M3 S0
G0 X52.0 Y22.0
M3 S255
G1 X52.0 Y22.0
M3 S255
G1 X57.0 Y22.0
M3 S0
G0 X62.0 Y22.0
M3 S255
G1 X62.0 Y22.0
M3 S255
G1 X64.5 Y22.0
M3 S0
G0 X70.5 Y22.0
M3 S255
G1 X70.5 Y22.0
M3 S255
G1 X72.0 Y22.0
M3 S0
G0 X79.0 Y22.0
M3 S255
G1 X79.0 Y22.0
M3 S255
G1 X79.5 Y22.0
M3 S0
G0 X80.0 Y22.0
M3 S255
G1 X80.0 Y22.0
M3 S255
G1 X80.5 Y22.0
M3 S0
G0 X81.0 Y22.0
M3 S255
G1 X81.0 Y22.0
M3 S255
G1 X81.5 Y22.0
M3 S0
G0 X85.5 Y22.0
M3 S255
G1 X85.5 Y22.0
M3 S255
G1 X87.0 Y22.0
M3 S0
G0 X92.5 Y22.0
M3 S255
G1 X92.5 Y22.0
M3 S255
G1 X93.0 Y22.0
M3 S0
G0 X96.0 Y22.0
M3 S255
G1 X96.0 Y22.0
M3 S255
G1 X98.0 Y22.0
M3 S0
G0 X98.5 Y22.0
M3 S255
G1 X98.5 Y22.0
M3 S255
G1 X99.5 Y22.0
M5 S0
G0 X99.0 Y22.5
M3 S255
G1 X99.0 Y22.5
M3 S255
G1 X98.5 Y22.5
M3 S0
G0 X98.0 Y22.5
M3 S255
G1 X98.0 Y22.5
M3 S255
G1 X97.0 Y22.5
M3 S0
G0 X96.5 Y22.5
M3 S255
G1 X96.5 Y22.5
M3 S255
G1 X96.0 Y22.5
M3 S0
G0 X93.0 Y22.5
M3 S255
G1 X93.0 Y22.5
M3 S255
G1 X92.5 Y22.5
M3 S0
G0 X91.5 Y22.5
M3 S255
G1 X91.5 Y22.5
M3 S255
G1 X91.0 Y22.5
M3 S0
G0 X87.5 Y22.5
M3 S255
G1 X87.5 Y22.5
M3 S255
G1 X85.0 Y22.5
M3 S0
G0 X81.0 Y22.5
M3 S255
G1 X81.0 Y22.5
M3 S255
G1 X80.5 Y22.5
M3 S0
G0 X79.5 Y22.5
M3 S255
G1 X79.5 Y22.5
M3 S255
G1 X79.0 Y22.5
M3 S0
G0 X72.5 Y22.5
M3 S255
G1 X72.5 Y22.5
M3 S255
G1 X70.5 Y22.5
M3 S0
G0 X70.0 Y22.5
M3 S255
G1 X70.0 Y22.5
M3 S255
G1 X69.5 Y22.5
M3 S0
G0 X64.5 Y22.5
M3 S255
G1 X64.5 Y22.5
M3 S255
G1 X62.0 Y22.5
M3 S0
G0 X57.0 Y22.5
M3 S255
G1 X57.0 Y22.5
M3 S255
G1 X52.0 Y22.5
M3 S0
G0 X48.5 Y22.5
M3 S255
G1 X48.5 Y22.5
M3 S255
G1 X41.5 Y22.5
M3 S0
G0 X33.5 Y22.5
M3 S255
G1 X33.5 Y22.5
M3 S255
G1 X32.5 Y22.5
M3 S0
G0 X30.0 Y22.5
M3 S255
G1 X30.0 Y22.5
M3 S255
G1 X29.0 Y22.5
M3 S0
G0 X28.0 Y22.5
M3 S255
G1 X28.0 Y22.5
M3 S255
G1 X26.5 Y22.5
M3 S0
G0 X25.5 Y22.5
M3 S255
G1 X25.5 Y22.5
M3 S255
G1 X25.0 Y22.5
M3 S0
G0 X21.0 Y22.5
M3 S255
G1 X21.0 Y22.5
M3 S255
G1 X20.5 Y22.5
M3 S0
G0 X10.0 Y22.5
M3 S255
G1 X10.0 Y22.5
M3 S255
G1 X9.0 Y22.5
M3 S0
G0 X5.0 Y22.5
M3 S255
G1 X5.0 Y22.5
M3 S255
G1 X4.5 Y22.5
M3 S0
M5 S0
G0 X4.5 Y23.0
M3 S255
G1 X4.5 Y23.0
M3 S255
G1 X5.0 Y23.0
M3 S0
G0 X7.5 Y23.0
M3 S255
G1 X7.5 Y23.0
M3 S255
G1 X8.5 Y23.0
M3 S0
G0 X20.5 Y23.0
M3 S255
G1 X20.5 Y23.0
M3 S255
G1 X21.0 Y23.0
M3 S0
G0 X22.0 Y23.0
M3 S255
G1 X22.0 Y23.0
M3 S255
G1 X22.5 Y23.0
M3 S0
G0 X25.0 Y23.0
M3 S255
G1 X25.0 Y23.0
M3 S255
G1 X25.5 Y23.0
M3 S0
G0 X27.0 Y23.0
M3 S255
G1 X27.0 Y23.0
M3 S255
G1 X27.5 Y23.0
M3 S0
G0 X29.0 Y23.0
M3 S255
G1 X29.0 Y23.0
M3 S255
G1 X30.0 Y23.0
M3 S0
G0 X32.5 Y23.0
M3 S255
G1 X32.5 Y23.0
M3 S255
G1 X33.5 Y23.0
M3 S0
G0 X42.0 Y23.0
M3 S255
G1 X42.0 Y23.0
M3 S255
G1 X48.5 Y23.0
M3 S0
G0 X52.0 Y23.0
M3 S255
G1 X52.0 Y23.0
M3 S255
G1 X57.0 Y23.0
M3 S0
G0 X62.0 Y23.0
M3 S255
G1 X62.0 Y23.0
M3 S255
G1 X64.5 Y23.0
M3 S0
G0 X70.5 Y23.0
M3 S255
G1 X70.5 Y23.0
M3 S255
G1 X72.5 Y23.0
M3 S0
G0 X78.5 Y23.0
M3 S255
G1 X78.5 Y23.0
M3 S255
G1 X81.0 Y23.0
M3 S0
G0 X85.0 Y23.0
M3 S255
G1 X85.0 Y23.0
M3 S255
G1 X87.5 Y23.0
M3 S0
G0 X92.5 Y23.0
M3 S255
G1 X92.5 Y23.0
M3 S255
G1 X93.0 Y23.0
M3 S0
G0 X96.0 Y23.0
M3 S255
G1 X96.0 Y23.0
M3 S255
G1 X96.5 Y23.0
M3 S0
G0 X97.0 Y23.0
M3 S255
G1 X97.0 Y23.0
M3 S255
G1 X98.0 Y23.0
M3 S0
G0 X98.5 Y23.0
M3 S255
G1 X98.5 Y23.0
M3 S255
G1 X99.5 Y23.0
M5 S0
G0 X99.0 Y23.5
M3 S255
G1 X99.0 Y23.5
M3 S255
G1 X97.0 Y23.5
M3 S0
G0 X96.5 Y23.5
M3 S255
G1 X96.5 Y23.5
M3 S255
G1 X96.0 Y23.5
M3 S0
G0 X93.0 Y23.5
M3 S255
G1 X93.0 Y23.5
M3 S255
G1 X92.0 Y23.5
M3 S0
G0 X91.5 Y23.5
M3 S255
G1 X91.5 Y23.5
M3 S255
G1 X91.0 Y23.5
M3 S0
G0 X89.5 Y23.5
M3 S255
G1 X89.5 Y23.5
M3 S255
G1 X88.0 Y23.5
M3 S0
G0 X87.5 Y23.5
M3 S255
G1 X87.5 Y23.5
M3 S255
G1 X85.0 Y23.5
M3 S0
G0 X80.5 Y23.5
M3 S255
G1 X80.5 Y23.5
M3 S255
G1 X80.0 Y23.5
M3 S0
G0 X79.5 Y23.5
M3 S255
G1 X79.5 Y23.5
M3 S255
G1 X78.0 Y23.5
M3 S0
G0 X72.0 Y23.5
M3 S255
G1 X72.0 Y23.5
M3 S255
G1 X70.5 Y23.5
M3 S0
G0 X64.5 Y23.5
M3 S255
G1 X64.5 Y23.5
M3 S255
G1 X62.0 Y23.5
M3 S0
G0 X57.5 Y23.5
M3 S255
G1 X57.5 Y23.5
M3 S255
G1 X52.0 Y23.5
M3 S0
G0 X48.5 Y23.5
M3 S255
G1 X48.5 Y23.5
M3 S255
G1 X42.0 Y23.5
M3 S0
G0 X33.5 Y23.5
M3 S255
G1 X33.5 Y23.5
M3 S255
G1 X32.5 Y23.5
M3 S0
G0 X30.0 Y23.5
M3 S255
G1 X30.0 Y23.5
M3 S255
G1 X29.5 Y23.5
M3 S0
G0 X25.5 Y23.5
M3 S255
G1 X25.5 Y23.5
M3 S255
G1 X25.0 Y23.5
M3 S0
G0 X22.5 Y23.5
M3 S255
G1 X22.5 Y23.5
M3 S255
G1 X22.0 Y23.5
M3 S0
G0 X21.0 Y23.5
M3 S255
G1 X21.0 Y23.5
M3 S255
G1 X20.0 Y23.5
M3 S0
G0 X5.0 Y23.5
M3 S255
G1 X5.0 Y23.5
M3 S255
G1 X4.5 Y23.5
M3 S0
M5 S0
G0 X4.5 Y24.0
M3 S255
G1 X4.5 Y24.0
M3 S255
G1 X5.0 Y24.0
M3 S0
G0 X9.0 Y24.0
M3 S255
G1 X9.0 Y24.0
M3 S255
G1 X9.5 Y24.0
M3 S0
G0 X14.5 Y24.0
M3 S255
G1 X14.5 Y24.0
M3 S255
G1 X15.0 Y24.0
M3 S0
G0 X16.5 Y24.0
M3 S255
G1 X16.5 Y24.0
M3 S255
G1 X17.0 Y24.0
M3 S0
G0 X22.0 Y24.0
M3 S255
G1 X22.0 Y24.0
M3 S255
G1 X22.5 Y24.0
M3 S0
G0 X25.0 Y24.0
M3 S255
G1 X25.0 Y24.0
M3 S255
G1 X25.5 Y24.0
M3 S0
G0 X29.5 Y24.0
M3 S255
G1 X29.5 Y24.0
M3 S255
G1 X30.0 Y24.0
M3 S0
G0 X32.5 Y24.0
M3 S255
G1 X32.5 Y24.0
M3 S255
G1 X33.5 Y24.0
M3 S0
G0 X42.0 Y24.0
M3 S255
G1 X42.0 Y24.0
M3 S255
G1 X48.5 Y24.0
M3 S0
G0 X52.0 Y24.0
M3 S255
G1 X52.0 Y24.0
M3 S255
G1 X57.5 Y24.0
M3 S0
G0 X62.0 Y24.0
M3 S255
G1 X62.0 Y24.0
M3 S255
G1 X64.5 Y24.0
M3 S0
G0 X69.5 Y24.0
M3 S255
G1 X69.5 Y24.0
M3 S255
G1 X70.0 Y24.0
M3 S0
G0 X70.5 Y24.0
M3 S255
G1 X70.5 Y24.0
M3 S255
G1 X72.5 Y24.0
M3 S0
G0 X73.5 Y24.0
M3 S255
G1 X73.5 Y24.0
M3 S255
G1 X76.5 Y24.0
M3 S0
G0 X77.5 Y24.0
M3 S255
G1 X77.5 Y24.0
M3 S255
G1 X80.5 Y24.0
M3 S0
G0 X85.5 Y24.0
M3 S255
G1 X85.5 Y24.0
M3 S255
G1 X88.0 Y24.0
M3 S0
G0 X89.0 Y24.0
M3 S255
G1 X89.0 Y24.0
M3 S255
G1 X89.5 Y24.0
M3 S0
G0 X91.0 Y24.0
M3 S255
G1 X91.0 Y24.0
M3 S255
G1 X92.0 Y24.0
M3 S0
G0 X96.0 Y24.0
M3 S255
G1 X96.0 Y24.0
M3 S255
G1 X96.5 Y24.0
M3 S0
G0 X97.0 Y24.0
M3 S255
G1 X97.0 Y24.0
M3 S255
G1 X98.0 Y24.0
M3 S0
M5 S0
G0 X98.0 Y24.5
M3 S255
G1 X98.0 Y24.5
M3 S255
G1 X97.0 Y24.5
M3 S0
G0 X96.5 Y24.5
M3 S255
G1 X96.5 Y24.5
M3 S255
G1 X96.0 Y24.5
M3 S0
G0 X91.5 Y24.5
M3 S255
G1 X91.5 Y24.5
M3 S255
G1 X90.5 Y24.5
M3 S0
G0 X90.0 Y24.5
M3 S255
G1 X90.0 Y24.5
M3 S255
G1 X89.5 Y24.5
M3 S0
G0 X87.0 Y24.5
M3 S255
G1 X87.0 Y24.5
M3 S255
G1 X85.5 Y24.5
M3 S0
G0 X84.0 Y24.5
M3 S255
G1 X84.0 Y24.5
M3 S255
G1 X83.0 Y24.5
M3 S0
G0 X80.5 Y24.5
M3 S255
G1 X80.5 Y24.5
M3 S255
G1 X79.5 Y24.5
M3 S0
G0 X79.0 Y24.5
M3 S255
G1 X79.0 Y24.5
M3 S255
G1 X77.5 Y24.5
M3 S0
G0 X76.5 Y24.5
M3 S255
G1 X76.5 Y24.5
M3 S255
G1 X73.0 Y24.5
M3 S0
G0 X72.5 Y24.5
M3 S255
G1 X72.5 Y24.5
M3 S255
G1 X70.5 Y24.5
M3 S0
G0 X70.0 Y24.5
M3 S255
G1 X70.0 Y24.5
M3 S255
G1 X69.5 Y24.5
M3 S0
G0 X67.5 Y24.5
M3 S255
G1 X67.5 Y24.5
M3 S255
G1 X67.0 Y24.5
M3 S0
G0 X64.5 Y24.5
M3 S255
G1 X64.5 Y24.5
M3 S255
G1 X62.0 Y24.5
M3 S0
G0 X57.5 Y24.5
M3 S255
G1 X57.5 Y24.5
M3 S255
G1 X52.0 Y24.5
M3 S0
G0 X48.5 Y24.5
M3 S255
G1 X48.5 Y24.5
M3 S255
G1 X42.0 Y24.5
M3 S0
G0 X38.0 Y24.5
M3 S255
G1 X38.0 Y24.5
M3 S255
G1 X37.5 Y24.5
M3 S0
G0 X33.5 Y24.5
M3 S255
G1 X33.5 Y24.5
M3 S255
G1 X32.5 Y24.5
M3 S0
G0 X30.0 Y24.5
M3 S255
G1 X30.0 Y24.5
M3 S255
G1 X29.0 Y24.5
M3 S0
G0 X28.5 Y24.5
M3 S255
G1 X28.5 Y24.5
M3 S255
G1 X28.0 Y24.5
M3 S0
G0 X25.5 Y24.5
M3 S255
G1 X25.5 Y24.5
M3 S255
G1 X25.0 Y24.5
M3 S0
G0 X22.5 Y24.5
M3 S255
G1 X22.5 Y24.5
M3 S255
G1 X22.0 Y24.5
M3 S0
G0 X20.0 Y24.5
M3 S255
G1 X20.0 Y24.5
M3 S255
G1 X19.0 Y24.5
M3 S0
G0 X17.0 Y24.5
M3 S255
G1 X17.0 Y24.5
M3 S255
G1 X16.5 Y24.5
M3 S0
G0 X15.0 Y24.5
M3 S255
G1 X15.0 Y24.5
M3 S255
G1 X14.5 Y24.5
M3 S0
G0 X8.5 Y24.5
M3 S255
G1 X8.5 Y24.5
M3 S255
G1 X8.0 Y24.5
M3 S0
G0 X5.5 Y24.5
M3 S255
G1 X5.5 Y24.5
M3 S255
G1 X5.0 Y24.5
M3 S0
M5 S0
G0 X5.5 Y25.0
M3 S255
G1 X5.5 Y25.0
M3 S255
G1 X6.5 Y25.0
M3 S0
G0 X8.0 Y25.0
M3 S255
G1 X8.0 Y25.0
M3 S255
G1 X8.5 Y25.0
M3 S0
G0 X14.5 Y25.0
M3 S255
G1 X14.5 Y25.0
M3 S255
G1 X15.0 Y25.0
M3 S0
G0 X16.5 Y25.0
M3 S255
G1 X16.5 Y25.0
M3 S255
G1 X17.0 Y25.0
M3 S0
G0 X19.5 Y25.0
M3 S255
G1 X19.5 Y25.0
M3 S255
G1 X20.0 Y25.0
M3 S0
G0 X22.0 Y25.0
M3 S255
G1 X22.0 Y25.0
M3 S255
G1 X22.5 Y25.0
M3 S0
G0 X25.0 Y25.0
M3 S255
G1 X25.0 Y25.0
M3 S255
G1 X25.5 Y25.0
M3 S0
G0 X28.5 Y25.0
M3 S255
G1 X28.5 Y25.0
M3 S255
G1 X30.0 Y25.0
M3 S0
G0 X32.5 Y25.0
M3 S255
G1 X32.5 Y25.0
M3 S255
G1 X33.5 Y25.0
M3 S0
G0 X37.5 Y25.0
M3 S255
G1 X37.5 Y25.0
M3 S255
G1 X38.0 Y25.0
M3 S0
G0 X42.0 Y25.0
M3 S255
G1 X42.0 Y25.0
M3 S255
G1 X48.5 Y25.0
M3 S0
G0 X52.0 Y25.0
M3 S255
G1 X52.0 Y25.0
M3 S255
G1 X57.5 Y25.0
M3 S0
G0 X62.0 Y25.0
M3 S255
G1 X62.0 Y25.0
M3 S255
G1 X64.5 Y25.0
M3 S0
G0 X67.0 Y25.0
M3 S255
G1 X67.0 Y25.0
M3 S255
G1 X67.5 Y25.0
M3 S0
G0 X69.5 Y25.0
M3 S255
G1 X69.5 Y25.0
M3 S255
G1 X70.0 Y25.0
M3 S0
G0 X70.5 Y25.0
M3 S255
G1 X70.5 Y25.0
M3 S255
G1 X72.5 Y25.0
M3 S0
G0 X73.0 Y25.0
M3 S255
G1 X73.0 Y25.0
M3 S255
G1 X74.0 Y25.0
M3 S0
G0 X75.0 Y25.0
M3 S255
G1 X75.0 Y25.0
M3 S255
G1 X77.5 Y25.0
M3 S0
G0 X78.0 Y25.0
M3 S255
G1 X78.0 Y25.0
M3 S255
G1 X79.0 Y25.0
M3 S0
G0 X79.5 Y25.0
M3 S255
G1 X79.5 Y25.0
M3 S255
G1 X80.0 Y25.0
M3 S0
G0 X84.5 Y25.0
M3 S255
G1 X84.5 Y25.0
M3 S255
G1 X85.0 Y25.0
M3 S0
G0 X85.5 Y25.0
M3 S255
G1 X85.5 Y25.0
M3 S255
G1 X86.0 Y25.0
M3 S0
G0 X86.5 Y25.0
M3 S255
G1 X86.5 Y25.0
M3 S255
G1 X87.0 Y25.0
M3 S0
G0 X89.5 Y25.0
M3 S255
G1 X89.5 Y25.0
M3 S255
G1 X91.5 Y25.0
M3 S0
G0 X96.5 Y25.0
M3 S255
G1 X96.5 Y25.0
M3 S255
G1 X98.0 Y25.0
M3 S0
M5 S0
G0 X99.5 Y25.5
M3 S255
G1 X99.0 Y25.5
M3 S0
G0 X98.0 Y25.5
M3 S255
G1 X98.0 Y25.5
M3 S255
G1 X97.0 Y25.5
M3 S0
G0 X91.5 Y25.5
M3 S255
G1 X91.5 Y25.5
M3 S255
G1 X91.0 Y25.5
M3 S0
G0 X90.5 Y25.5
M3 S255
G1 X90.5 Y25.5
M3 S255
G1 X90.0 Y25.5
M3 S0
G0 X87.5 Y25.5
M3 S255
G1 X87.5 Y25.5
M3 S255
G1 X87.0 Y25.5
M3 S0
G0 X85.0 Y25.5
M3 S255
G1 X85.0 Y25.5
M3 S255
G1 X84.5 Y25.5
M3 S0
G0 X80.0 Y25.5
M3 S255
G1 X80.0 Y25.5
M3 S255
G1 X78.0 Y25.5
M3 S0
G0 X77.5 Y25.5
M3 S255
G1 X77.5 Y25.5
M3 S255
G1 X72.5 Y25.5
M3 S0
G0 X72.0 Y25.5
M3 S255
G1 X72.0 Y25.5
M3 S255
G1 X70.5 Y25.5
M3 S0
G0 X69.5 Y25.5
M3 S255
G1 X69.5 Y25.5
M3 S255
G1 X69.0 Y25.5
M3 S0
G0 X64.5 Y25.5
M3 S255
G1 X64.5 Y25.5
M3 S255
G1 X62.0 Y25.5
M3 S0
G0 X57.5 Y25.5
M3 S255
G1 X57.5 Y25.5
M3 S255
G1 X52.0 Y25.5
M3 S0
G0 X48.5 Y25.5
M3 S255
G1 X48.5 Y25.5
M3 S255
G1 X42.0 Y25.5
M3 S0
G0 X38.0 Y25.5
M3 S255
G1 X38.0 Y25.5
M3 S255
G1 X37.5 Y25.5
M3 S0
G0 X33.5 Y25.5
M3 S255
G1 X33.5 Y25.5
M3 S255
G1 X32.5 Y25.5
M3 S0
G0 X30.5 Y25.5
M3 S255
G1 X30.5 Y25.5
M3 S255
G1 X29.5 Y25.5
M3 S0
G0 X25.5 Y25.5
M3 S255
G1 X25.5 Y25.5
M3 S255
G1 X25.0 Y25.5
M3 S0
G0 X22.5 Y25.5
M3 S255
G1 X22.5 Y25.5
M3 S255
G1 X21.5 Y25.5
M3 S0
G0 X20.0 Y25.5
M3 S255
G1 X20.0 Y25.5
M3 S255
G1 X19.5 Y25.5
M3 S0
G0 X17.0 Y25.5
M3 S255
G1 X17.0 Y25.5
M3 S255
G1 X16.5 Y25.5
M3 S0
G0 X8.5 Y25.5
M3 S255
G1 X8.5 Y25.5
M3 S255
G1 X8.0 Y25.5
M3 S0
G0 X7.0 Y25.5
M3 S255
G1 X7.0 Y25.5
M3 S255
G1 X6.5 Y25.5
M3 S0
G0 X6.0 Y25.5
M3 S255
G1 X6.0 Y25.5
M3 S255
G1 X5.5 Y25.5
M3 S0
G0 X5.0 Y25.5
M3 S255
G1 X5.0 Y25.5
M3 S255
G1 X4.5 Y25.5
M3 S0
M5 S0
G0 X6.5 Y26.0
M3 S255
G1 X6.5 Y26.0
M3 S255
G1 X8.5 Y26.0
M3 S0
G0 X19.5 Y26.0
M3 S255
G1 X19.5 Y26.0
M3 S255
G1 X20.0 Y26.0
M3 S0
G0 X21.5 Y26.0
M3 S255
G1 X21.5 Y26.0
M3 S255
G1 X22.5 Y26.0
M3 S0
G0 X27.0 Y26.0
M3 S255
G1 X27.0 Y26.0
M3 S255
G1 X27.5 Y26.0
M3 S0
G0 X29.0 Y26.0
M3 S255
G1 X29.0 Y26.0
M3 S255
G1 X31.0 Y26.0
M3 S0
G0 X32.5 Y26.0
M3 S255
G1 X32.5 Y26.0
M3 S255
G1 X33.5 Y26.0
M3 S0
G0 X37.5 Y26.0
M3 S255
G1 X37.5 Y26.0
M3 S255
G1 X38.0 Y26.0
M3 S0
G0 X42.0 Y26.0
M3 S255
G1 X42.0 Y26.0
M3 S255
G1 X48.5 Y26.0
M3 S0
G0 X52.0 Y26.0
M3 S255
G1 X52.0 Y26.0
M3 S255
G1 X57.5 Y26.0
M3 S0
G0 X62.0 Y26.0
M3 S255
G1 X62.0 Y26.0
M3 S255
G1 X65.0 Y26.0
M3 S0
G0 X69.0 Y26.0
M3 S255
G1 X69.0 Y26.0
M3 S255
G1 X69.5 Y26.0
M3 S0
G0 X70.5 Y26.0
M3 S255
G1 X70.5 Y26.0
M3 S255
G1 X72.0 Y26.0
M3 S0
G0 X74.0 Y26.0
M3 S255
G1 X74.0 Y26.0
M3 S255
G1 X76.5 Y26.0
M3 S0
G0 X77.0 Y26.0
M3 S255
G1 X77.0 Y26.0
M3 S255
G1 X79.0 Y26.0
M3 S0
G0 X79.5 Y26.0
M3 S255
G1 X79.5 Y26.0
M3 S255
G1 X80.0 Y26.0
M3 S0
G0 X84.5 Y26.0
M3 S255
G1 X84.5 Y26.0
M3 S255
G1 X85.0 Y26.0
M3 S0
G0 X86.5 Y26.0
M3 S255
G1 X86.5 Y26.0
M3 S255
G1 X88.5 Y26.0
M3 S0
G0 X89.0 Y26.0
M3 S255
G1 X89.0 Y26.0
M3 S255
G1 X89.5 Y26.0
M3 S0
G0 X90.0 Y26.0
M3 S255
G1 X90.0 Y26.0
M3 S255
G1 X91.5 Y26.0
M3 S0
G0 X97.0 Y26.0
M3 S255
G1 X97.0 Y26.0
M3 S255
G1 X98.0 Y26.0
M3 S0
M5 S0
G0 X98.0 Y26.5
M3 S255
G1 X98.0 Y26.5
M3 S255
G1 X97.0 Y26.5
M3 S0
G0 X91.5 Y26.5
M3 S255
G1 X91.5 Y26.5
M3 S255
G1 X91.0 Y26.5
M3 S0
G0 X90.5 Y26.5
M3 S255
G1 X90.5 Y26.5
M3 S255
G1 X90.0 Y26.5
M3 S0
G0 X89.5 Y26.5
M3 S255
G1 X89.5 Y26.5
M3 S255
G1 X89.0 Y26.5
M3 S0
G0 X88.5 Y26.5
M3 S255
G1 X88.5 Y26.5
M3 S255
G1 X86.5 Y26.5
M3 S0
G0 X85.0 Y26.5
M3 S255
G1 X85.0 Y26.5
M3 S255
G1 X84.5 Y26.5
M3 S0
G0 X80.0 Y26.5
M3 S255
G1 X80.0 Y26.5
M3 S255
G1 X75.0 Y26.5
M3 S0
G0 X74.5 Y26.5
M3 S255
G1 X74.5 Y26.5
M3 S255
G1 X73.0 Y26.5
M3 S0
G0 X72.0 Y26.5
M3 S255
G1 X72.0 Y26.5
M3 S255
G1 X71.0 Y26.5
M3 S0
G0 X69.5 Y26.5
M3 S255
G1 X69.5 Y26.5
M3 S255
G1 X69.0 Y26.5
M3 S0
G0 X65.0 Y26.5
M3 S255
G1 X65.0 Y26.5
M3 S255
G1 X62.0 Y26.5
M3 S0
G0 X57.5 Y26.5
M3 S255
G1 X57.5 Y26.5
M3 S255
G1 X52.0 Y26.5
M3 S0
G0 X48.5 Y26.5
M3 S255
G1 X48.5 Y26.5
M3 S255
G1 X42.0 Y26.5
M3 S0
G0 X39.5 Y26.5
M3 S255
G1 X39.5 Y26.5
M3 S255
G1 X37.5 Y26.5
M3 S0
G0 X33.5 Y26.5
M3 S255
G1 X33.5 Y26.5
M3 S255
G1 X32.5 Y26.5
M3 S0
G0 X30.5 Y26.5
M3 S255
G1 X30.5 Y26.5
M3 S255
G1 X29.5 Y26.5
M3 S0
G0 X28.0 Y26.5
M3 S255
G1 X28.0 Y26.5
M3 S255
G1 X26.5 Y26.5
M3 S0
G0 X24.5 Y26.5
M3 S255
G1 X24.5 Y26.5
M3 S255
G1 X24.0 Y26.5
M3 S0
G0 X22.5 Y26.5
M3 S255
G1 X22.5 Y26.5
M3 S255
G1 X21.5 Y26.5
M3 S0
G0 X20.0 Y26.5
M3 S255
G1 X20.0 Y26.5
M3 S255
G1 X19.5 Y26.5
M3 S0
G0 X12.5 Y26.5
M3 S255
G1 X12.5 Y26.5
M3 S255
G1 X10.5 Y26.5
M3 S0
G0 X10.0 Y26.5
M3 S255
G1 X10.0 Y26.5
M3 S255
G1 X9.0 Y26.5
M3 S0
G0 X8.5 Y26.5
M3 S255
G1 X8.5 Y26.5
M3 S255
G1 X8.0 Y26.5
M3 S0
M5 S0
G0 X1.0 Y27.0
M3 S255
G1 X1.0 Y27.0
M3 S255
G1 X2.0 Y27.0
M3 S0
G0 X8.0 Y27.0
M3 S255
G1 X8.0 Y27.0
M3 S255
G1 X8.5 Y27.0
M3 S0
G0 X10.5 Y27.0
M3 S255
G1 X10.5 Y27.0
M3 S255
G1 X11.0 Y27.0
M3 S0
G0 X12.5 Y27.0
M3 S255
G1 X12.5 Y27.0
M3 S255
G1 X14.0 Y27.0
M3 S0
G0 X18.5 Y27.0
M3 S255
G1 X18.5 Y27.0
M3 S255
G1 X19.0 Y27.0
M3 S0
G0 X26.5 Y27.0
M3 S255
G1 X26.5 Y27.0
M3 S255
G1 X27.0 Y27.0
M3 S0
G0 X27.5 Y27.0
M3 S255
G1 X27.5 Y27.0
M3 S255
G1 X28.0 Y27.0
M3 S0
G0 X29.5 Y27.0
M3 S255
G1 X29.5 Y27.0
M3 S255
G1 X30.5 Y27.0
M3 S0
G0 X32.5 Y27.0
M3 S255
G1 X32.5 Y27.0
M3 S255
G1 X33.5 Y27.0
M3 S0
G0 X36.5 Y27.0
M3 S255
G1 X36.5 Y27.0
M3 S255
G1 X40.5 Y27.0
M3 S0
G0 X42.0 Y27.0
M3 S255
G1 X42.0 Y27.0
M3 S255
G1 X43.5 Y27.0
M3 S0
G0 X44.0 Y27.0
M3 S255
G1 X44.0 Y27.0
M3 S255
G1 X51.5 Y27.0
M3 S0
G0 X52.0 Y27.0
M3 S255
G1 X52.0 Y27.0
M3 S255
G1 X57.5 Y27.0
M3 S0
G0 X62.0 Y27.0
M3 S255
G1 X62.0 Y27.0
M3 S255
G1 X65.0 Y27.0
M3 S0
G0 X69.0 Y27.0
M3 S255
G1 X69.0 Y27.0
M3 S255
G1 X69.5 Y27.0
M3 S0
G0 X71.0 Y27.0
M3 S255
G1 X71.0 Y27.0
M3 S255
G1 X72.0 Y27.0
M3 S0
G0 X73.0 Y27.0
M3 S255
G1 X73.0 Y27.0
M3 S255
G1 X77.5 Y27.0
M3 S0
G0 X78.0 Y27.0
M3 S255
G1 X78.0 Y27.0
M3 S255
G1 X79.5 Y27.0
M3 S0
G0 X83.0 Y27.0
M3 S255
G1 X83.0 Y27.0
M3 S255
G1 X84.0 Y27.0
M3 S0
G0 X86.0 Y27.0
M3 S255
G1 X86.0 Y27.0
M3 S255
G1 X86.5 Y27.0
M3 S0
G0 X87.0 Y27.0
M3 S255
G1 X87.0 Y27.0
M3 S255
G1 X88.0 Y27.0
M3 S0
G0 X89.0 Y27.0
M3 S255
G1 X89.0 Y27.0
M3 S255
G1 X89.5 Y27.0
M3 S0
G0 X90.0 Y27.0
M3 S255
G1 X90.0 Y27.0
M3 S255
G1 X91.0 Y27.0
M3 S0
G0 X97.0 Y27.0
M3 S255
G1 X97.0 Y27.0
M3 S255
G1 X98.5 Y27.0
M3 S0
M5 S0
G0 X99.5 Y27.5
M3 S255
G1 X99.0 Y27.5
M3 S0
G0 X98.0 Y27.5
M3 S255
G1 X98.0 Y27.5
M3 S255
G1 X97.0 Y27.5
M3 S0
G0 X91.0 Y27.5
M3 S255
G1 X91.0 Y27.5
M3 S255
G1 X90.5 Y27.5
M3 S0
G0 X89.5 Y27.5
M3 S255
G1 X89.5 Y27.5
M3 S255
G1 X87.0 Y27.5
M3 S0
G0 X86.5 Y27.5
M3 S255
G1 X86.5 Y27.5
M3 S255
G1 X85.0 Y27.5
M3 S0
G0 X84.0 Y27.5
M3 S255
G1 X84.0 Y27.5
M3 S255
G1 X83.0 Y27.5
M3 S0
G0 X79.0 Y27.5
M3 S255
G1 X79.0 Y27.5
M3 S255
G1 X78.5 Y27.5
M3 S0
G0 X78.0 Y27.5
M3 S255
G1 X78.0 Y27.5
M3 S255
G1 X75.0 Y27.5
M3 S0
G0 X74.5 Y27.5
M3 S255
G1 X74.5 Y27.5
M3 S255
G1 X73.0 Y27.5
M3 S0
G0 X72.0 Y27.5
M3 S255
G1 X72.0 Y27.5
M3 S255
G1 X71.0 Y27.5
M3 S0
G0 X69.5 Y27.5
M3 S255
G1 X69.5 Y27.5
M3 S255
G1 X69.0 Y27.5
M3 S0
G0 X65.0 Y27.5
M3 S255
G1 X65.0 Y27.5
M3 S255
G1 X62.0 Y27.5
M3 S0
G0 X57.5 Y27.5
M3 S255
G1 X57.5 Y27.5
M3 S255
G1 X52.0 Y27.5
M3 S0
G0 X51.5 Y27.5
M3 S255
G1 X51.5 Y27.5
M3 S255
G1 X44.5 Y27.5
M3 S0
G0 X44.0 Y27.5
M3 S255
G1 X44.0 Y27.5
M3 S255
G1 X43.5 Y27.5
M3 S0
G0 X43.0 Y27.5
M3 S255
G1 X43.0 Y27.5
M3 S255
G1 X42.0 Y27.5
M3 S0
G0 X40.5 Y27.5
M3 S255
G1 X40.5 Y27.5
M3 S255
G1 X38.5 Y27.5
M3 S0
G0 X37.5 Y27.5
M3 S255
G1 X37.5 Y27.5
M3 S255
G1 X36.5 Y27.5
M3 S0
G0 X36.0 Y27.5
M3 S255
G1 X36.0 Y27.5
M3 S255
G1 X35.5 Y27.5
M3 S0
G0 X33.5 Y27.5
M3 S255
G1 X33.5 Y27.5
M3 S255
G1 X33.0 Y27.5
M3 S0
G0 X30.5 Y27.5
M3 S255
G1 X30.5 Y27.5
M3 S255
G1 X29.5 Y27.5
M3 S0
G0 X28.0 Y27.5
M3 S255
G1 X28.0 Y27.5
M3 S255
G1 X27.5 Y27.5
M3 S0
G0 X27.0 Y27.5
M3 S255
G1 X27.0 Y27.5
M3 S255
G1 X26.5 Y27.5
M3 S0
G0 X24.5 Y27.5
M3 S255
G1 X24.5 Y27.5
M3 S255
G1 X24.0 Y27.5
M3 S0
G0 X14.5 Y27.5
M3 S255
G1 X14.5 Y27.5
M3 S255
G1 X13.5 Y27.5
M3 S0
G0 X10.5 Y27.5
M3 S255
G1 X10.5 Y27.5
M3 S255
G1 X9.0 Y27.5
M3 S0
G0 X8.0 Y27.5
M3 S255
G1 X8.0 Y27.5
M3 S255
G1 X1.0 Y27.5
M3 S0
G0 X0.5 Y27.5
M3 S255
G1 X0.5 Y27.5
M3 S255
G1 X0.0 Y27.5
M5 S0
G0 X1.5 Y28.0
M3 S255
G1 X1.5 Y28.0
M3 S255
G1 X2.0 Y28.0
M3 S0
G0 X3.5 Y28.0
M3 S255
G1 X3.5 Y28.0
M3 S255
G1 X4.0 Y28.0
M3 S0
G0 X4.5 Y28.0
M3 S255
G1 X4.5 Y28.0
M3 S255
G1 X5.5 Y28.0
M3 S0
G0 X9.0 Y28.0
M3 S255
G1 X9.0 Y28.0
M3 S255
G1 X14.5 Y28.0
M3 S0
G0 X24.0 Y28.0
M3 S255
G1 X24.0 Y28.0
M3 S255
G1 X24.5 Y28.0
M3 S0
G0 X26.5 Y28.0
M3 S255
G1 X26.5 Y28.0
M3 S255
G1 X27.0 Y28.0
M3 S0
G0 X27.5 Y28.0
M3 S255
G1 X27.5 Y28.0
M3 S255
G1 X28.0 Y28.0
M3 S0
G0 X29.0 Y28.0
M3 S255
G1 X29.0 Y28.0
M3 S255
G1 X30.5 Y28.0
M3 S0
G0 X32.5 Y28.0
M3 S255
G1 X32.5 Y28.0
M3 S255
G1 X33.5 Y28.0
M3 S0
G0 X34.0 Y28.0
M3 S255
G1 X34.0 Y28.0
M3 S255
G1 X36.5 Y28.0
M3 S0
G0 X37.0 Y28.0
M3 S255
G1 X37.0 Y28.0
M3 S255
G1 X39.0 Y28.0
M3 S0
G0 X39.5 Y28.0
M3 S255
G1 X39.5 Y28.0
M3 S255
G1 X40.0 Y28.0
M3 S0
G0 X42.0 Y28.0
M3 S255
G1 X42.0 Y28.0
M3 S255
G1 X43.5 Y28.0
M3 S0
G0 X44.0 Y28.0
M3 S255
G1 X44.0 Y28.0
M3 S255
G1 X44.5 Y28.0
M3 S0
G0 X45.0 Y28.0
M3 S255
G1 X45.0 Y28.0
M3 S255
G1 X46.5 Y28.0
M3 S0
G0 X47.5 Y28.0
M3 S255
G1 X47.5 Y28.0
M3 S255
G1 X51.5 Y28.0
M3 S0
G0 X52.0 Y28.0
M3 S255
G1 X52.0 Y28.0
M3 S255
G1 X57.5 Y28.0
M3 S0
G0 X62.0 Y28.0
M3 S255
G1 X62.0 Y28.0
M3 S255
G1 X65.0 Y28.0
M3 S0
G0 X66.5 Y28.0
M3 S255
G1 X66.5 Y28.0
M3 S255
G1 X68.0 Y28.0
M3 S0
G0 X68.5 Y28.0
M3 S255
G1 X68.5 Y28.0
M3 S255
G1 X69.0 Y28.0
M3 S0
G0 X71.0 Y28.0
M3 S255
G1 X71.0 Y28.0
M3 S255
G1 X72.0 Y28.0
M3 S0
G0 X73.0 Y28.0
M3 S255
G1 X73.0 Y28.0
M3 S255
G1 X74.5 Y28.0
M3 S0
G0 X75.0 Y28.0
M3 S255
G1 X75.0 Y28.0
M3 S255
G1 X78.0 Y28.0
M3 S0
G0 X78.5 Y28.0
M3 S255
G1 X78.5 Y28.0
M3 S255
G1 X79.5 Y28.0
M3 S0
G0 X85.0 Y28.0
M3 S255
G1 X85.0 Y28.0
M3 S255
G1 X86.5 Y28.0
M3 S0
G0 X90.5 Y28.0
M3 S255
G1 X90.5 Y28.0
M3 S255
G1 X91.0 Y28.0
M3 S0
G0 X97.0 Y28.0
M3 S255
G1 X97.0 Y28.0
M3 S255
G1 X98.0 Y28.0
M3 S0
M5 S0
G0 X98.0 Y28.5
M3 S255
G1 X98.0 Y28.5
M3 S255
G1 X97.0 Y28.5
M3 S0
G0 X94.0 Y28.5
M3 S255
G1 X94.0 Y28.5
M3 S255
G1 X93.5 Y28.5
M3 S0
G0 X93.0 Y28.5
M3 S255
G1 X93.0 Y28.5
M3 S255
G1 X92.0 Y28.5
M3 S0
G0 X91.0 Y28.5
M3 S255
G1 X91.0 Y28.5
M3 S255
G1 X90.5 Y28.5
M3 S0
G0 X86.5 Y28.5
M3 S255
G1 X86.5 Y28.5
M3 S255
G1 X85.0 Y28.5
M3 S0
G0 X84.0 Y28.5
M3 S255
G1 X84.0 Y28.5
M3 S255
G1 X83.5 Y28.5
M3 S0
G0 X79.5 Y28.5
M3 S255
G1 X79.5 Y28.5
M3 S255
G1 X78.5 Y28.5
M3 S0
G0 X77.5 Y28.5
M3 S255
G1 X77.5 Y28.5
M3 S255
G1 X75.0 Y28.5
M3 S0
G0 X74.0 Y28.5
M3 S255
G1 X74.0 Y28.5
M3 S255
G1 X72.5 Y28.5
M3 S0
G0 X71.5 Y28.5
M3 S255
G1 X71.5 Y28.5
M3 S255
G1 X71.0 Y28.5
M3 S0
G0 X67.0 Y28.5
M3 S255
G1 X67.0 Y28.5
M3 S255
G1 X66.0 Y28.5
M3 S0
G0 X65.0 Y28.5
M3 S255
G1 X65.0 Y28.5
M3 S255
G1 X62.0 Y28.5
M3 S0
G0 X57.0 Y28.5
M3 S255
G1 X57.0 Y28.5
M3 S255
G1 X55.0 Y28.5
M3 S0
G0 X54.0 Y28.5
M3 S255
G1 X54.0 Y28.5
M3 S255
G1 X49.0 Y28.5
M3 S0
G0 X48.5 Y28.5
M3 S255
G1 X48.5 Y28.5
M3 S255
G1 X48.0 Y28.5
M3 S0
G0 X47.5 Y28.5
M3 S255
G1 X47.5 Y28.5
M3 S255
G1 X46.5 Y28.5
M3 S0
G0 X46.0 Y28.5
M3 S255
G1 X46.0 Y28.5
M3 S255
G1 X42.0 Y28.5
M3 S0
G0 X37.5 Y28.5
M3 S255
G1 X37.5 Y28.5
M3 S255
G1 X37.0 Y28.5
M3 S0
G0 X36.5 Y28.5
M3 S255
G1 X36.5 Y28.5
M3 S255
G1 X36.0 Y28.5
M3 S0
G0 X35.5 Y28.5
M3 S255
G1 X35.5 Y28.5
M3 S255
G1 X34.0 Y28.5
M3 S0
G0 X33.5 Y28.5
M3 S255
G1 X33.5 Y28.5
M3 S255
G1 X31.0 Y28.5
M3 S0
G0 X30.5 Y28.5
M3 S255
G1 X30.5 Y28.5
M3 S255
G1 X26.5 Y28.5
M3 S0
G0 X14.5 Y28.5
M3 S255
G1 X14.5 Y28.5
M3 S255
G1 X11.5 Y28.5
M3 S0
G0 X11.0 Y28.5
M3 S255
G1 X11.0 Y28.5
M3 S255
G1 X9.0 Y28.5
M3 S0
G0 X8.5 Y28.5
M3 S255
G1 X8.5 Y28.5
M3 S255
G1 X8.0 Y28.5
M3 S0
G0 X2.0 Y28.5
M3 S255
G1 X2.0 Y28.5
M3 S255
G1 X1.5 Y28.5
M3 S0
G0 X1.0 Y28.5
M3 S255
G1 X1.0 Y28.5
M3 S255
G1 X0.5 Y28.5
M3 S0
M5 S0
G0 X1.5 Y29.0
M3 S255
G1 X1.5 Y29.0
M3 S255
G1 X2.0 Y29.0
M3 S0
G0 X2.5 Y29.0
M3 S255
G1 X2.5 Y29.0
M3 S255
G1 X3.0 Y29.0
M3 S0
G0 X26.5 Y29.0
M3 S255
G1 X26.5 Y29.0
M3 S255
G1 X31.5 Y29.0
M3 S0
G0 X32.0 Y29.0
M3 S255
G1 X32.0 Y29.0
M3 S255
G1 X33.5 Y29.0
M3 S0
G0 X34.0 Y29.0
M3 S255
G1 X34.0 Y29.0
M3 S255
G1 X35.5 Y29.0
M3 S0
G0 X42.0 Y29.0
M3 S255
G1 X42.0 Y29.0
M3 S255
G1 X44.5 Y29.0
M3 S0
G0 X46.0 Y29.0
M3 S255
G1 X46.0 Y29.0
M3 S255
G1 X47.0 Y29.0
M3 S0
G0 X48.0 Y29.0
M3 S255
G1 X48.0 Y29.0
M3 S255
G1 X48.5 Y29.0
M3 S0
G0 X50.0 Y29.0
M3 S255
G1 X50.0 Y29.0
M3 S255
G1 X51.0 Y29.0
M3 S0
G0 X52.0 Y29.0
M3 S255
G1 X52.0 Y29.0
M3 S255
G1 X53.0 Y29.0
M3 S0
G0 X53.5 Y29.0
M3 S255
G1 X53.5 Y29.0
M3 S255
G1 X56.5 Y29.0
M3 S0
G0 X62.0 Y29.0
M3 S255
G1 X62.0 Y29.0
M3 S255
G1 X65.0 Y29.0
M3 S0
G0 X72.5 Y29.0
M3 S255
G1 X72.5 Y29.0
M3 S255
G1 X73.0 Y29.0
M3 S0
G0 X73.5 Y29.0
M3 S255
G1 X73.5 Y29.0
M3 S255
G1 X74.5 Y29.0
M3 S0
G0 X75.0 Y29.0
M3 S255
G1 X75.0 Y29.0
M3 S255
G1 X77.0 Y29.0
M3 S0
G0 X78.5 Y29.0
M3 S255
G1 X78.5 Y29.0
M3 S255
G1 X79.5 Y29.0
M3 S0
G0 X90.5 Y29.0
M3 S255
G1 X90.5 Y29.0
M3 S255
G1 X91.0 Y29.0
M3 S0
G0 X91.5 Y29.0
M3 S255
G1 X91.5 Y29.0
M3 S255
G1 X92.0 Y29.0
M3 S0
G0 X96.5 Y29.0
M3 S255
G1 X96.5 Y29.0
M3 S255
G1 X98.0 Y29.0
M3 S0
M5 S0
G0 X98.5 Y29.5
M3 S255
G1 X98.5 Y29.5
M3 S255
G1 X96.0 Y29.5
M3 S0
G0 X94.0 Y29.5
M3 S255
G1 X94.0 Y29.5
M3 S255
G1 X93.5 Y29.5
M3 S0
G0 X86.5 Y29.5
M3 S255
G1 X86.5 Y29.5
M3 S255
G1 X86.0 Y29.5
M3 S0
G0 X83.0 Y29.5
M3 S255
G1 X83.0 Y29.5
M3 S255
G1 X82.0 Y29.5
M3 S0
G0 X80.5 Y29.5
M3 S255
G1 X80.5 Y29.5
M3 S255
G1 X80.0 Y29.5
M3 S0
G0 X79.5 Y29.5
M3 S255
G1 X79.5 Y29.5
M3 S255
G1 X79.0 Y29.5
M3 S0
G0 X77.5 Y29.5
M3 S255
G1 X77.5 Y29.5
M3 S255
G1 X75.0 Y29.5
M3 S0
G0 X74.5 Y29.5
M3 S255
G1 X74.5 Y29.5
M3 S255
G1 X73.5 Y29.5
M3 S0
G0 X73.0 Y29.5
M3 S255
G1 X73.0 Y29.5
M3 S255
G1 X72.5 Y29.5
M3 S0
G0 X65.0 Y29.5
M3 S255
G1 X65.0 Y29.5
M3 S255
G1 X62.0 Y29.5
M3 S0
G0 X56.5 Y29.5
M3 S255
G1 X56.5 Y29.5
M3 S255
G1 X55.5 Y29.5
M3 S0
G0 X52.0 Y29.5
M3 S255
G1 X52.0 Y29.5
M3 S255
G1 X50.5 Y29.5
M3 S0
G0 X49.0 Y29.5
M3 S255
G1 X49.0 Y29.5
M3 S255
G1 X48.0 Y29.5
M3 S0
G0 X44.0 Y29.5
M3 S255
G1 X44.0 Y29.5
M3 S255
G1 X42.0 Y29.5
M3 S0
G0 X35.5 Y29.5
M3 S255
G1 X35.5 Y29.5
M3 S255
G1 X34.0 Y29.5
M3 S0
G0 X33.0 Y29.5
M3 S255
G1 X33.0 Y29.5
M3 S255
G1 X31.5 Y29.5
M3 S0
G0 X30.5 Y29.5
M3 S255
G1 X30.5 Y29.5
M3 S255
G1 X30.0 Y29.5
M3 S0
G0 X29.5 Y29.5
M3 S255
G1 X29.5 Y29.5
M3 S255
G1 X29.0 Y29.5
M3 S0
G0 X24.5 Y29.5
M3 S255
G1 X24.5 Y29.5
M3 S255
G1 X24.0 Y29.5
M3 S0
M5 S0
G0 X1.0 Y30.0
M3 S255
G1 X1.0 Y30.0
M3 S255
G1 X2.0 Y30.0
M3 S0
G0 X3.5 Y30.0
M3 S255
G1 X3.5 Y30.0
M3 S255
G1 X4.5 Y30.0
M3 S0
G0 X5.0 Y30.0
M3 S255
G1 X5.0 Y30.0
M3 S255
G1 X6.0 Y30.0
M3 S0
G0 X7.0 Y30.0
M3 S255
G1 X7.0 Y30.0
M3 S255
G1 X8.0 Y30.0
M3 S0
G0 X13.0 Y30.0
M3 S255
G1 X13.0 Y30.0
M3 S255
G1 X13.5 Y30.0
M3 S0
G0 X14.0 Y30.0
M3 S255
G1 X14.0 Y30.0
M3 S255
G1 X15.0 Y30.0
M3 S0
G0 X16.0 Y30.0
M3 S255
G1 X16.0 Y30.0
M3 S255
G1 X16.5 Y30.0
M3 S0
G0 X24.0 Y30.0
M3 S255
G1 X24.0 Y30.0
M3 S255
G1 X24.5 Y30.0
M3 S0
G0 X29.0 Y30.0
M3 S255
G1 X29.0 Y30.0
M3 S255
G1 X31.0 Y30.0
M3 S0
G0 X31.5 Y30.0
M3 S255
G1 X31.5 Y30.0
M3 S255
G1 X32.5 Y30.0
M3 S0
G0 X34.0 Y30.0
M3 S255
G1 X34.0 Y30.0
M3 S255
G1 X35.5 Y30.0
M3 S0
G0 X42.0 Y30.0
M3 S255
G1 X42.0 Y30.0
M3 S255
G1 X43.0 Y30.0
M3 S0
G0 X43.5 Y30.0
M3 S255
G1 X43.5 Y30.0
M3 S255
G1 X44.5 Y30.0
M3 S0
G0 X46.0 Y30.0
M3 S255
G1 X46.0 Y30.0
M3 S255
G1 X46.5 Y30.0
M3 S0
G0 X48.0 Y30.0
M3 S255
G1 X48.0 Y30.0
M3 S255
G1 X50.5 Y30.0
M3 S0
G0 X55.5 Y30.0
M3 S255
G1 X55.5 Y30.0
M3 S255
G1 X56.5 Y30.0
M3 S0
G0 X62.0 Y30.0
M3 S255
G1 X62.0 Y30.0
M3 S255
G1 X65.0 Y30.0
M3 S0
G0 X68.0 Y30.0
M3 S255
G1 X68.0 Y30.0
M3 S255
G1 X69.5 Y30.0
M3 S0
G0 X70.0 Y30.0
M3 S255
G1 X70.0 Y30.0
M3 S255
G1 X71.0 Y30.0
M3 S0
G0 X73.5 Y30.0
M3 S255
G1 X73.5 Y30.0
M3 S255
G1 X74.5 Y30.0
M3 S0
G0 X79.5 Y30.0
M3 S255
G1 X79.5 Y30.0
M3 S255
G1 X80.5 Y30.0
M3 S0
G0 X82.0 Y30.0
M3 S255
G1 X82.0 Y30.0
M3 S255
G1 X83.0 Y30.0
M3 S0
G0 X95.0 Y30.0
M3 S255
G1 X95.0 Y30.0
M3 S255
G1 X96.0 Y30.0
M3 S0
G0 X96.5 Y30.0
M3 S255
G1 X96.5 Y30.0
M3 S255
G1 X98.0 Y30.0
M3 S0
M5 S0
G0 X95.5 Y30.5
M3 S255
G1 X95.5 Y30.5
M3 S255
G1 X95.0 Y30.5
M3 S0
G0 X89.5 Y30.5
M3 S255
G1 X89.5 Y30.5
M3 S255
G1 X89.0 Y30.5
M3 S0
G0 X82.0 Y30.5
M3 S255
G1 X82.0 Y30.5
M3 S255
G1 X81.5 Y30.5
M3 S0
G0 X81.0 Y30.5
M3 S255
G1 X81.0 Y30.5
M3 S255
G1 X80.5 Y30.5
M3 S0
G0 X80.0 Y30.5
M3 S255
G1 X80.0 Y30.5
M3 S255
G1 X79.0 Y30.5
M3 S0
G0 X77.0 Y30.5
M3 S255
G1 X77.0 Y30.5
M3 S255
G1 X75.0 Y30.5
M3 S0
G0 X74.5 Y30.5
M3 S255
G1 X74.5 Y30.5
M3 S255
G1 X73.5 Y30.5
M3 S0
G0 X73.0 Y30.5
M3 S255
G1 X73.0 Y30.5
M3 S255
G1 X72.5 Y30.5
M3 S0
G0 X71.0 Y30.5
M3 S255
G1 X71.0 Y30.5
M3 S255
G1 X70.5 Y30.5
M3 S0
G0 X70.0 Y30.5
M3 S255
G1 X70.0 Y30.5
M3 S255
G1 X68.0 Y30.5
M3 S0
G0 X65.0 Y30.5
M3 S255
G1 X65.0 Y30.5
M3 S255
G1 X62.0 Y30.5
M3 S0
G0 X56.5 Y30.5
M3 S255
G1 X56.5 Y30.5
M3 S255
G1 X55.5 Y30.5
M3 S0
G0 X50.0 Y30.5
M3 S255
G1 X50.0 Y30.5
M3 S255
G1 X49.5 Y30.5
M3 S0
G0 X48.5 Y30.5
M3 S255
G1 X48.5 Y30.5
M3 S255
G1 X41.5 Y30.5
M3 S0
G0 X35.5 Y30.5
M3 S255
G1 X35.5 Y30.5
M3 S255
G1 X34.0 Y30.5
M3 S0
G0 X32.5 Y30.5
M3 S255
G1 X32.5 Y30.5
M3 S255
G1 X31.5 Y30.5
M3 S0
G0 X30.5 Y30.5
M3 S255
G1 X30.5 Y30.5
M3 S255
G1 X29.0 Y30.5
M3 S0
G0 X24.5 Y30.5
M3 S255
G1 X24.5 Y30.5
M3 S255
G1 X24.0 Y30.5
M3 S0
G0 X17.0 Y30.5
M3 S255
G1 X17.0 Y30.5
M3 S255
G1 X16.5 Y30.5
M3 S0
G0 X16.0 Y30.5
M3 S255
G1 X16.0 Y30.5
M3 S255
G1 X14.0 Y30.5
M3 S0
G0 X13.5 Y30.5
M3 S255
G1 X13.5 Y30.5
M3 S255
G1 X11.0 Y30.5
M3 S0
M5 S0
G0 X2.5 Y31.0
M3 S255
G1 X2.5 Y31.0
M3 S255
G1 X3.5 Y31.0
M3 S0
G0 X4.5 Y31.0
M3 S255
G1 X4.5 Y31.0
M3 S255
G1 X5.0 Y31.0
M3 S0
G0 X5.5 Y31.0
M3 S255
G1 X5.5 Y31.0
M3 S255
G1 X6.0 Y31.0
M3 S0
G0 X7.5 Y31.0
M3 S255
G1 X7.5 Y31.0
M3 S255
G1 X9.5 Y31.0
M3 S0
G0 X10.0 Y31.0
M3 S255
G1 X10.0 Y31.0
M3 S255
G1 X11.0 Y31.0
M3 S0
G0 X11.5 Y31.0
M3 S255
G1 X11.5 Y31.0
M3 S255
G1 X12.0 Y31.0
M3 S0
G0 X14.5 Y31.0
M3 S255
G1 X14.5 Y31.0
M3 S255
G1 X15.0 Y31.0
M3 S0
G0 X16.0 Y31.0
M3 S255
G1 X16.0 Y31.0
M3 S255
G1 X17.0 Y31.0
M3 S0
G0 X17.5 Y31.0
M3 S255
G1 X17.5 Y31.0
M3 S255
G1 X18.5 Y31.0
M3 S0
G0 X24.0 Y31.0
M3 S255
G1 X24.0 Y31.0
M3 S255
G1 X24.5 Y31.0
M3 S0
G0 X26.5 Y31.0
M3 S255
G1 X26.5 Y31.0
M3 S255
G1 X32.0 Y31.0
M3 S0
G0 X34.0 Y31.0
M3 S255
G1 X34.0 Y31.0
M3 S255
G1 X35.5 Y31.0
M3 S0
G0 X41.0 Y31.0
M3 S255
G1 X41.0 Y31.0
M3 S255
G1 X49.0 Y31.0
M3 S0
G0 X55.0 Y31.0
M3 S255
G1 X55.0 Y31.0
M3 S255
G1 X56.5 Y31.0
M3 S0
G0 X62.0 Y31.0
M3 S255
G1 X62.0 Y31.0
M3 S255
G1 X65.0 Y31.0
M3 S0
G0 X68.5 Y31.0
M3 S255
G1 X68.5 Y31.0
M3 S255
G1 X69.0 Y31.0
M3 S0
G0 X70.5 Y31.0
M3 S255
G1 X70.5 Y31.0
M3 S255
G1 X71.0 Y31.0
M3 S0
G0 X72.5 Y31.0
M3 S255
G1 X72.5 Y31.0
M3 S255
G1 X74.0 Y31.0
M3 S0
G0 X78.0 Y31.0
M3 S255
G1 X78.0 Y31.0
M3 S255
G1 X79.5 Y31.0
M3 S0
G0 X80.5 Y31.0
M3 S255
G1 X80.5 Y31.0
M3 S255
G1 X81.0 Y31.0
M3 S0
G0 X81.5 Y31.0
M3 S255
G1 X81.5 Y31.0
M3 S255
G1 X82.0 Y31.0
M3 S0
G0 X86.5 Y31.0
M3 S255
G1 X86.5 Y31.0
M3 S255
G1 X87.5 Y31.0
M3 S0
G0 X88.5 Y31.0
M3 S255
G1 X88.5 Y31.0
M3 S255
G1 X89.5 Y31.0
M3 S0
M5 S0
G0 X92.0 Y31.5
M3 S255
G1 X92.0 Y31.5
M3 S255
G1 X91.5 Y31.5
M3 S0
G0 X89.5 Y31.5
M3 S255
G1 X89.5 Y31.5
M3 S255
G1 X88.5 Y31.5
M3 S0
G0 X87.0 Y31.5
M3 S255
G1 X87.0 Y31.5
M3 S255
G1 X86.5 Y31.5
M3 S0
G0 X82.0 Y31.5
M3 S255
G1 X82.0 Y31.5
M3 S255
G1 X81.5 Y31.5
M3 S0
G0 X81.0 Y31.5
M3 S255
G1 X81.0 Y31.5
M3 S255
G1 X80.5 Y31.5
M3 S0
G0 X80.0 Y31.5
M3 S255
G1 X80.0 Y31.5
M3 S255
G1 X79.5 Y31.5
M3 S0
G0 X78.5 Y31.5
M3 S255
G1 X78.5 Y31.5
M3 S255
G1 X77.0 Y31.5
M3 S0
G0 X76.0 Y31.5
M3 S255
G1 X76.0 Y31.5
M3 S255
G1 X74.5 Y31.5
M3 S0
G0 X74.0 Y31.5
M3 S255
G1 X74.0 Y31.5
M3 S255
G1 X72.5 Y31.5
M3 S0
G0 X71.0 Y31.5
M3 S255
G1 X71.0 Y31.5
M3 S255
G1 X70.0 Y31.5
M3 S0
G0 X69.5 Y31.5
M3 S255
G1 X69.5 Y31.5
M3 S255
G1 X68.5 Y31.5
M3 S0
G0 X65.0 Y31.5
M3 S255
G1 X65.0 Y31.5
M3 S255
G1 X62.0 Y31.5
M3 S0
G0 X56.5 Y31.5
M3 S255
G1 X56.5 Y31.5
M3 S255
G1 X55.0 Y31.5
M3 S0
G0 X54.0 Y31.5
M3 S255
G1 X54.0 Y31.5
M3 S255
G1 X53.5 Y31.5
M3 S0
G0 X49.0 Y31.5
M3 S255
G1 X49.0 Y31.5
M3 S255
G1 X48.5 Y31.5
M3 S0
G0 X43.5 Y31.5
M3 S255
G1 X43.5 Y31.5
M3 S255
G1 X42.5 Y31.5
M3 S0
G0 X35.5 Y31.5
M3 S255
G1 X35.5 Y31.5
M3 S255
G1 X34.0 Y31.5
M3 S0
G0 X32.0 Y31.5
M3 S255
G1 X32.0 Y31.5
M3 S255
G1 X29.0 Y31.5
M3 S0
G0 X28.0 Y31.5
M3 S255
G1 X28.0 Y31.5
M3 S255
G1 X26.5 Y31.5
M3 S0
G0 X24.5 Y31.5
M3 S255
G1 X24.5 Y31.5
M3 S255
G1 X24.0 Y31.5
M3 S0
G0 X19.0 Y31.5
M3 S255
G1 X19.0 Y31.5
M3 S255
G1 X18.0 Y31.5
M3 S0
G0 X17.0 Y31.5
M3 S255
G1 X17.0 Y31.5
M3 S255
G1 X16.5 Y31.5
M3 S0
G0 X16.0 Y31.5
M3 S255
G1 X16.0 Y31.5
M3 S255
G1 X15.5 Y31.5
M3 S0
G0 X11.0 Y31.5
M3 S255
G1 X11.0 Y31.5
M3 S255
G1 X10.5 Y31.5
M3 S0
M5 S0
G0 X0.0 Y32.0
M3 S255
G1 X6.5 Y32.0
M3 S0
G0 X7.0 Y32.0
M3 S255
G1 X7.0 Y32.0
M3 S255
G1 X19.0 Y32.0
M3 S0
G0 X24.0 Y32.0
M3 S255
G1 X24.0 Y32.0
M3 S255
G1 X24.5 Y32.0
M3 S0
G0 X26.5 Y32.0
M3 S255
G1 X26.5 Y32.0
M3 S255
G1 X30.0 Y32.0
M3 S0
G0 X31.5 Y32.0
M3 S255
G1 X31.5 Y32.0
M3 S255
G1 X32.0 Y32.0
M3 S0
G0 X34.0 Y32.0
M3 S255
G1 X34.0 Y32.0
M3 S255
G1 X35.5 Y32.0
M3 S0
G0 X43.0 Y32.0
M3 S255
G1 X43.0 Y32.0
M3 S255
G1 X44.5 Y32.0
M3 S0
G0 X48.5 Y32.0
M3 S255
G1 X48.5 Y32.0
M3 S255
G1 X49.0 Y32.0
M3 S0
G0 X53.5 Y32.0
M3 S255
G1 X53.5 Y32.0
M3 S255
G1 X54.0 Y32.0
M3 S0
G0 X55.0 Y32.0
M3 S255
G1 X55.0 Y32.0
M3 S255
G1 X56.5 Y32.0
M3 S0
G0 X61.5 Y32.0
M3 S255
G1 X61.5 Y32.0
M3 S255
G1 X62.5 Y32.0
M3 S0
G0 X63.0 Y32.0
M3 S255
G1 X63.0 Y32.0
M3 S255
G1 X65.0 Y32.0
M3 S0
G0 X68.5 Y32.0
M3 S255
G1 X68.5 Y32.0
M3 S255
G1 X69.0 Y32.0
M3 S0
G0 X72.5 Y32.0
M3 S255
G1 X72.5 Y32.0
M3 S255
G1 X74.5 Y32.0
M3 S0
G0 X76.5 Y32.0
M3 S255
G1 X76.5 Y32.0
M3 S255
G1 X77.0 Y32.0
M3 S0
G0 X78.0 Y32.0
M3 S255
G1 X78.0 Y32.0
M3 S255
G1 X78.5 Y32.0
M3 S0
G0 X79.5 Y32.0
M3 S255
G1 X79.5 Y32.0
M3 S255
G1 X80.0 Y32.0
M3 S0
G0 X86.5 Y32.0
M3 S255
G1 X86.5 Y32.0
M3 S255
G1 X87.0 Y32.0
M3 S0
G0 X97.5 Y32.0
M3 S255
G1 X97.5 Y32.0
M3 S255
G1 X98.5 Y32.0
M3 S0
M5 S0
G0 X98.0 Y32.5
M3 S255
G1 X98.0 Y32.5
M3 S255
G1 X97.0 Y32.5
M3 S0
G0 X93.5 Y32.5
M3 S255
G1 X93.5 Y32.5
M3 S255
G1 X93.0 Y32.5
M3 S0
G0 X91.0 Y32.5
M3 S255
G1 X91.0 Y32.5
M3 S255
G1 X90.0 Y32.5
M3 S0
G0 X87.0 Y32.5
M3 S255
G1 X87.0 Y32.5
M3 S255
G1 X86.5 Y32.5
M3 S0
G0 X83.0 Y32.5
M3 S255
G1 X83.0 Y32.5
M3 S255
G1 X82.0 Y32.5
M3 S0
G0 X78.0 Y32.5
M3 S255
G1 X78.0 Y32.5
M3 S255
G1 X77.0 Y32.5
M3 S0
G0 X74.0 Y32.5
M3 S255
G1 X74.0 Y32.5
M3 S255
G1 X72.5 Y32.5
M3 S0
G0 X71.0 Y32.5
M3 S255
G1 X71.0 Y32.5
M3 S255
G1 X70.5 Y32.5
M3 S0
G0 X69.0 Y32.5
M3 S255
G1 X69.0 Y32.5
M3 S255
G1 X68.5 Y32.5
M3 S0
G0 X65.0 Y32.5
M3 S255
G1 X65.0 Y32.5
M3 S255
G1 X63.5 Y32.5
M3 S0
G0 X63.0 Y32.5
M3 S255
G1 X63.0 Y32.5
M3 S255
G1 X61.5 Y32.5
M3 S0
G0 X57.5 Y32.5
M3 S255
G1 X57.5 Y32.5
M3 S255
G1 X54.5 Y32.5
M3 S0
G0 X49.0 Y32.5
M3 S255
G1 X49.0 Y32.5
M3 S255
G1 X48.5 Y32.5
M3 S0
G0 X44.0 Y32.5
M3 S255
G1 X44.0 Y32.5
M3 S255
G1 X43.5 Y32.5
M3 S0
G0 X35.5 Y32.5
M3 S255
G1 X35.5 Y32.5
M3 S255
G1 X35.0 Y32.5
M3 S0
G0 X34.5 Y32.5
M3 S255
G1 X34.5 Y32.5
M3 S255
G1 X34.0 Y32.5
M3 S0
G0 X32.0 Y32.5
M3 S255
G1 X32.0 Y32.5
M3 S255
G1 X31.5 Y32.5
M3 S0
G0 X30.0 Y32.5
M3 S255
G1 X30.0 Y32.5
M3 S255
G1 X29.5 Y32.5
M3 S0
G0 X27.0 Y32.5
M3 S255
G1 X27.0 Y32.5
M3 S255
G1 X26.5 Y32.5
M3 S0
G0 X24.5 Y32.5
M3 S255
G1 X24.5 Y32.5
M3 S255
G1 X24.0 Y32.5
M3 S0
G0 X20.5 Y32.5
M3 S255
G1 X20.5 Y32.5
M3 S255
G1 X19.0 Y32.5
M3 S0
G0 X9.5 Y32.5
M3 S255
G1 X9.5 Y32.5
M3 S255
G1 X9.0 Y32.5
M3 S0
G0 X8.5 Y32.5
M3 S255
G1 X8.5 Y32.5
M3 S255
G1 X3.5 Y32.5
M3 S0
G0 X3.0 Y32.5
M3 S255
G1 X3.0 Y32.5
M3 S255
G1 X2.5 Y32.5
M3 S0
G0 X1.5 Y32.5
M3 S255
G1 X1.5 Y32.5
M3 S255
G1 X1.0 Y32.5
M3 S0
M5 S0
G0 X0.5 Y33.0
M3 S255
G1 X0.5 Y33.0
M3 S255
G1 X1.0 Y33.0
M3 S0
G0 X2.5 Y33.0
M3 S255
G1 X2.5 Y33.0
M3 S255
G1 X3.0 Y33.0
M3 S0
G0 X6.5 Y33.0
M3 S255
G1 X6.5 Y33.0
M3 S255
G1 X8.0 Y33.0
M3 S0
G0 X8.5 Y33.0
M3 S255
G1 X8.5 Y33.0
M3 S255
G1 X11.5 Y33.0
M3 S0
G0 X20.5 Y33.0
M3 S255
G1 X20.5 Y33.0
M3 S255
G1 X21.0 Y33.0
M3 S0
G0 X24.0 Y33.0
M3 S255
G1 X24.0 Y33.0
M3 S255
G1 X24.5 Y33.0
M3 S0
G0 X26.0 Y33.0
M3 S255
G1 X26.0 Y33.0
M3 S255
G1 X26.5 Y33.0
M3 S0
G0 X29.5 Y33.0
M3 S255
G1 X29.5 Y33.0
M3 S255
G1 X30.0 Y33.0
M3 S0
G0 X31.5 Y33.0
M3 S255
G1 X31.5 Y33.0
M3 S255
G1 X32.0 Y33.0
M3 S0
G0 X34.0 Y33.0
M3 S255
G1 X34.0 Y33.0
M3 S255
G1 X34.5 Y33.0
M3 S0
G0 X35.0 Y33.0
M3 S255
G1 X35.0 Y33.0
M3 S255
G1 X35.5 Y33.0
M3 S0
G0 X48.5 Y33.0
M3 S255
G1 X48.5 Y33.0
M3 S255
G1 X49.5 Y33.0
M3 S0
G0 X50.0 Y33.0
M3 S255
G1 X50.0 Y33.0
M3 S255
G1 X50.5 Y33.0
M3 S0
G0 X52.5 Y33.0
M3 S255
G1 X52.5 Y33.0
M3 S255
G1 X53.5 Y33.0
M3 S0
G0 X55.0 Y33.0
M3 S255
G1 X55.0 Y33.0
M3 S255
G1 X57.5 Y33.0
M3 S0
G0 X59.5 Y33.0
M3 S255
G1 X59.5 Y33.0
M3 S255
G1 X62.5 Y33.0
M3 S0
G0 X65.5 Y33.0
M3 S255
G1 X65.5 Y33.0
M3 S255
G1 X66.0 Y33.0
M3 S0
G0 X67.0 Y33.0
M3 S255
G1 X67.0 Y33.0
M3 S255
G1 X67.5 Y33.0
M3 S0
G0 X68.5 Y33.0
M3 S255
G1 X68.5 Y33.0
M3 S255
G1 X71.0 Y33.0
M3 S0
G0 X72.5 Y33.0
M3 S255
G1 X72.5 Y33.0
M3 S255
G1 X75.5 Y33.0
M3 S0
G0 X76.0 Y33.0
M3 S255
G1 X76.0 Y33.0
M3 S255
G1 X77.0 Y33.0
M3 S0
G0 X78.5 Y33.0
M3 S255
G1 X78.5 Y33.0
M3 S255
G1 X79.0 Y33.0
M3 S0
G0 X82.0 Y33.0
M3 S255
G1 X82.0 Y33.0
M3 S255
G1 X82.5 Y33.0
M3 S0
G0 X86.5 Y33.0
M3 S255
G1 X86.5 Y33.0
M3 S255
G1 X87.0 Y33.0
M3 S0
G0 X90.5 Y33.0
M3 S255
G1 X90.5 Y33.0
M3 S255
G1 X91.0 Y33.0
M3 S0
G0 X93.0 Y33.0
M3 S255
G1 X93.0 Y33.0
M3 S255
G1 X94.0 Y33.0
M3 S0
G0 X95.0 Y33.0
M3 S255
G1 X95.0 Y33.0
M3 S255
G1 X95.5 Y33.0
M3 S0
M5 S0
G0 X95.5 Y33.5
M3 S255
G1 X95.5 Y33.5
M3 S255
G1 X95.0 Y33.5
M3 S0
G0 X94.5 Y33.5
M3 S255
G1 X94.5 Y33.5
M3 S255
G1 X92.5 Y33.5
M3 S0
G0 X91.5 Y33.5
M3 S255
G1 X91.5 Y33.5
M3 S255
G1 X90.0 Y33.5
M3 S0
G0 X89.5 Y33.5
M3 S255
G1 X89.5 Y33.5
M3 S255
G1 X89.0 Y33.5
M3 S0
G0 X87.0 Y33.5
M3 S255
G1 X87.0 Y33.5
M3 S255
G1 X86.5 Y33.5
M3 S0
G0 X82.5 Y33.5
M3 S255
G1 X82.5 Y33.5
M3 S255
G1 X80.0 Y33.5
M3 S0
G0 X79.5 Y33.5
M3 S255
G1 X79.5 Y33.5
M3 S255
G1 X76.0 Y33.5
M3 S0
G0 X75.5 Y33.5
M3 S255
G1 X75.5 Y33.5
M3 S255
G1 X72.5 Y33.5
M3 S0
G0 X71.5 Y33.5
M3 S255
G1 X71.5 Y33.5
M3 S255
G1 X69.5 Y33.5
M3 S0
G0 X68.5 Y33.5
M3 S255
G1 X68.5 Y33.5
M3 S255
G1 X68.0 Y33.5
M3 S0
G0 X67.5 Y33.5
M3 S255
G1 X67.5 Y33.5
M3 S255
G1 X67.0 Y33.5
M3 S0
G0 X66.0 Y33.5
M3 S255
G1 X66.0 Y33.5
M3 S255
G1 X65.0 Y33.5
M3 S0
G0 X61.0 Y33.5
M3 S255
G1 X61.0 Y33.5
M3 S255
G1 X59.5 Y33.5
M3 S0
G0 X57.5 Y33.5
M3 S255
G1 X57.5 Y33.5
M3 S255
G1 X57.0 Y33.5
M3 S0
G0 X56.0 Y33.5
M3 S255
G1 X56.0 Y33.5
M3 S255
G1 X55.0 Y33.5
M3 S0
G0 X54.0 Y33.5
M3 S255
G1 X54.0 Y33.5
M3 S255
G1 X52.5 Y33.5
M3 S0
G0 X50.5 Y33.5
M3 S255
G1 X50.5 Y33.5
M3 S255
G1 X49.5 Y33.5
M3 S0
G0 X49.0 Y33.5
M3 S255
G1 X49.0 Y33.5
M3 S255
G1 X48.5 Y33.5
M3 S0
G0 X35.5 Y33.5
M3 S255
G1 X35.5 Y33.5
M3 S255
G1 X35.0 Y33.5
M3 S0
G0 X34.5 Y33.5
M3 S255
G1 X34.5 Y33.5
M3 S255
G1 X34.0 Y33.5
M3 S0
G0 X32.0 Y33.5
M3 S255
G1 X32.0 Y33.5
M3 S255
G1 X31.5 Y33.5
M3 S0
G0 X30.0 Y33.5
M3 S255
G1 X30.0 Y33.5
M3 S255
G1 X29.5 Y33.5
M3 S0
G0 X27.0 Y33.5
M3 S255
G1 X27.0 Y33.5
M3 S255
G1 X26.0 Y33.5
M3 S0
G0 X24.5 Y33.5
M3 S255
G1 X24.5 Y33.5
M3 S255
G1 X24.0 Y33.5
M3 S0
G0 X21.5 Y33.5
M3 S255
G1 X21.5 Y33.5
M3 S255
G1 X21.0 Y33.5
M3 S0
M5 S0
G0 X21.5 Y34.0
M3 S255
G1 X21.5 Y34.0
M3 S255
G1 X22.5 Y34.0
M3 S0
G0 X24.0 Y34.0
M3 S255
G1 X24.0 Y34.0
M3 S255
G1 X24.5 Y34.0
M3 S0
G0 X26.5 Y34.0
M3 S255
G1 X26.5 Y34.0
M3 S255
G1 X27.0 Y34.0
M3 S0
G0 X29.5 Y34.0
M3 S255
G1 X29.5 Y34.0
M3 S255
G1 X30.0 Y34.0
M3 S0
G0 X31.5 Y34.0
M3 S255
G1 X31.5 Y34.0
M3 S255
G1 X32.0 Y34.0
M3 S0
G0 X33.0 Y34.0
M3 S255
G1 X33.0 Y34.0
M3 S255
G1 X33.5 Y34.0
M3 S0
G0 X34.0 Y34.0
M3 S255
G1 X34.0 Y34.0
M3 S255
G1 X34.5 Y34.0
M3 S0
G0 X35.0 Y34.0
M3 S255
G1 X35.0 Y34.0
M3 S255
G1 X37.0 Y34.0
M3 S0
G0 X48.5 Y34.0
M3 S255
G1 X48.5 Y34.0
M3 S255
G1 X49.0 Y34.0
M3 S0
G0 X50.0 Y34.0
M3 S255
G1 X50.0 Y34.0
M3 S255
G1 X50.5 Y34.0
M3 S0
G0 X52.5 Y34.0
M3 S255
G1 X52.5 Y34.0
M3 S255
G1 X54.0 Y34.0
M3 S0
G0 X55.0 Y34.0
M3 S255
G1 X55.0 Y34.0
M3 S255
G1 X56.0 Y34.0
M3 S0
G0 X59.5 Y34.0
M3 S255
G1 X59.5 Y34.0
M3 S255
G1 X61.5 Y34.0
M3 S0
G0 X63.0 Y34.0
M3 S255
G1 X63.0 Y34.0
M3 S255
G1 X64.0 Y34.0
M3 S0
G0 X65.0 Y34.0
M3 S255
G1 X65.0 Y34.0
M3 S255
G1 X65.5 Y34.0
M3 S0
G0 X66.0 Y34.0
M3 S255
G1 X66.0 Y34.0
M3 S255
G1 X66.5 Y34.0
M3 S0
G0 X67.5 Y34.0
M3 S255
G1 X67.5 Y34.0
M3 S255
G1 X69.0 Y34.0
M3 S0
G0 X71.0 Y34.0
M3 S255
G1 X71.0 Y34.0
M3 S255
G1 X71.5 Y34.0
M3 S0
G0 X72.5 Y34.0
M3 S255
G1 X72.5 Y34.0
M3 S255
G1 X74.0 Y34.0
M3 S0
G0 X74.5 Y34.0
M3 S255
G1 X74.5 Y34.0
M3 S255
G1 X75.0 Y34.0
M3 S0
G0 X75.5 Y34.0
M3 S255
G1 X75.5 Y34.0
M3 S255
G1 X76.5 Y34.0
M3 S0
G0 X81.5 Y34.0
M3 S255
G1 X81.5 Y34.0
M3 S255
G1 X82.0 Y34.0
M3 S0
G0 X86.5 Y34.0
M3 S255
G1 X86.5 Y34.0
M3 S255
G1 X87.5 Y34.0
M3 S0
G0 X89.0 Y34.0
M3 S255
G1 X89.0 Y34.0
M3 S255
G1 X91.5 Y34.0
M3 S0
G0 X92.5 Y34.0
M3 S255
G1 X92.5 Y34.0
M3 S255
G1 X95.5 Y34.0
M3 S0
M5 S0
G0 X99.5 Y34.5
M3 S255
G1 X99.0 Y34.5
M3 S0
G0 X98.5 Y34.5
M3 S255
G1 X98.5 Y34.5
M3 S255
G1 X98.0 Y34.5
M3 S0
G0 X96.5 Y34.5
M3 S255
G1 X96.5 Y34.5
M3 S255
G1 X95.5 Y34.5
M3 S0
G0 X92.0 Y34.5
M3 S255
G1 X92.0 Y34.5
M3 S255
G1 X91.5 Y34.5
M3 S0
G0 X89.5 Y34.5
M3 S255
G1 X89.5 Y34.5
M3 S255
G1 X89.0 Y34.5
M3 S0
G0 X87.5 Y34.5
M3 S255
G1 X87.5 Y34.5
M3 S255
G1 X87.0 Y34.5
M3 S0
G0 X86.5 Y34.5
M3 S255
G1 X86.5 Y34.5
M3 S255
G1 X83.0 Y34.5
M3 S0
G0 X82.0 Y34.5
M3 S255
G1 X82.0 Y34.5
M3 S255
G1 X81.5 Y34.5
M3 S0
G0 X75.0 Y34.5
M3 S255
G1 X75.0 Y34.5
M3 S255
G1 X72.5 Y34.5
M3 S0
G0 X71.5 Y34.5
M3 S255
G1 X71.5 Y34.5
M3 S255
G1 X71.0 Y34.5
M3 S0
G0 X69.0 Y34.5
M3 S255
G1 X69.0 Y34.5
M3 S255
G1 X67.5 Y34.5
M3 S0
G0 X66.5 Y34.5
M3 S255
G1 X66.5 Y34.5
M3 S255
G1 X66.0 Y34.5
M3 S0
G0 X64.0 Y34.5
M3 S255
G1 X64.0 Y34.5
M3 S255
G1 X63.0 Y34.5
M3 S0
G0 X55.5 Y34.5
M3 S255
G1 X55.5 Y34.5
M3 S255
G1 X55.0 Y34.5
M3 S0
G0 X54.0 Y34.5
M3 S255
G1 X54.0 Y34.5
M3 S255
G1 X52.5 Y34.5
M3 S0
G0 X51.5 Y34.5
M3 S255
G1 X51.5 Y34.5
M3 S255
G1 X51.0 Y34.5
M3 S0
G0 X50.5 Y34.5
M3 S255
G1 X50.5 Y34.5
M3 S255
G1 X50.0 Y34.5
M3 S0
G0 X48.0 Y34.5
M3 S255
G1 X48.0 Y34.5
M3 S255
G1 X43.5 Y34.5
M3 S0
G0 X37.0 Y34.5
M3 S255
G1 X37.0 Y34.5
M3 S255
G1 X36.5 Y34.5
M3 S0
G0 X34.5 Y34.5
M3 S255
G1 X34.5 Y34.5
M3 S255
G1 X33.0 Y34.5
M3 S0
G0 X32.0 Y34.5
M3 S255
G1 X32.0 Y34.5
M3 S255
G1 X31.5 Y34.5
M3 S0
G0 X30.0 Y34.5
M3 S255
G1 X30.0 Y34.5
M3 S255
G1 X29.5 Y34.5
M3 S0
G0 X25.0 Y34.5
M3 S255
G1 X25.0 Y34.5
M3 S255
G1 X24.0 Y34.5
M3 S0
G0 X23.5 Y34.5
M3 S255
G1 X23.5 Y34.5
M3 S255
G1 X22.5 Y34.5
M3 S0
G0 X14.0 Y34.5
M3 S255
G1 X14.0 Y34.5
M3 S255
G1 X13.5 Y34.5
M3 S0
M5 S0
G0 X23.5 Y35.0
M3 S255
G1 X23.5 Y35.0
M3 S255
G1 X24.0 Y35.0
M3 S0
G0 X29.5 Y35.0
M3 S255
G1 X29.5 Y35.0
M3 S255
G1 X30.0 Y35.0
M3 S0
G0 X31.5 Y35.0
M3 S255
G1 X31.5 Y35.0
M3 S255
G1 X32.0 Y35.0
M3 S0
G0 X32.5 Y35.0
M3 S255
G1 X32.5 Y35.0
M3 S255
G1 X34.0 Y35.0
M3 S0
G0 X36.5 Y35.0
M3 S255
G1 X36.5 Y35.0
M3 S255
G1 X37.0 Y35.0
M3 S0
G0 X43.5 Y35.0
M3 S255
G1 X43.5 Y35.0
M3 S255
G1 X44.0 Y35.0
M3 S0
G0 X50.0 Y35.0
M3 S255
G1 X50.0 Y35.0
M3 S255
G1 X51.5 Y35.0
M3 S0
G0 X53.0 Y35.0
M3 S255
G1 X53.0 Y35.0
M3 S255
G1 X54.0 Y35.0
M3 S0
G0 X55.0 Y35.0
M3 S255
G1 X55.0 Y35.0
M3 S255
G1 X55.5 Y35.0
M3 S0
G0 X61.5 Y35.0
M3 S255
G1 X61.5 Y35.0
M3 S255
G1 X62.0 Y35.0
M3 S0
G0 X62.5 Y35.0
M3 S255
G1 X62.5 Y35.0
M3 S255
G1 X63.5 Y35.0
M3 S0
G0 X71.0 Y35.0
M3 S255
G1 X71.0 Y35.0
M3 S255
G1 X71.5 Y35.0
M3 S0
G0 X72.5 Y35.0
M3 S255
G1 X72.5 Y35.0
M3 S255
G1 X74.0 Y35.0
M3 S0
G0 X82.0 Y35.0
M3 S255
G1 X82.0 Y35.0
M3 S255
G1 X83.5 Y35.0
M3 S0
G0 X87.0 Y35.0
M3 S255
G1 X87.0 Y35.0
M3 S255
G1 X87.5 Y35.0
M3 S0
G0 X88.5 Y35.0
M3 S255
G1 X88.5 Y35.0
M3 S255
G1 X89.5 Y35.0
M3 S0
G0 X92.0 Y35.0
M3 S255
G1 X92.0 Y35.0
M3 S255
G1 X92.5 Y35.0
M3 S0
G0 X96.0 Y35.0
M3 S255
G1 X96.0 Y35.0
M3 S255
G1 X98.0 Y35.0
M3 S0
M5 S0
G0 X99.5 Y35.5
M3 S255
G1 X99.0 Y35.5
M3 S0
G0 X88.5 Y35.5
M3 S255
G1 X88.5 Y35.5
M3 S255
G1 X87.5 Y35.5
M3 S0
G0 X74.0 Y35.5
M3 S255
G1 X74.0 Y35.5
M3 S255
G1 X72.5 Y35.5
M3 S0
G0 X71.5 Y35.5
M3 S255
G1 X71.5 Y35.5
M3 S255
G1 X71.0 Y35.5
M3 S0
G0 X67.5 Y35.5
M3 S255
G1 X67.5 Y35.5
M3 S255
G1 X66.5 Y35.5
M3 S0
G0 X63.0 Y35.5
M3 S255
G1 X63.0 Y35.5
M3 S255
G1 X61.5 Y35.5
M3 S0
G0 X61.0 Y35.5
M3 S255
G1 X61.0 Y35.5
M3 S255
G1 X59.0 Y35.5
M3 S0
G0 X56.5 Y35.5
M3 S255
G1 X56.5 Y35.5
M3 S255
G1 X55.5 Y35.5
M3 S0
G0 X55.0 Y35.5
M3 S255
G1 X55.0 Y35.5
M3 S255
G1 X53.0 Y35.5
M3 S0
G0 X52.0 Y35.5
M3 S255
G1 X52.0 Y35.5
M3 S255
G1 X51.0 Y35.5
M3 S0
G0 X44.0 Y35.5
M3 S255
G1 X44.0 Y35.5
M3 S255
G1 X43.5 Y35.5
M3 S0
G0 X37.0 Y35.5
M3 S255
G1 X37.0 Y35.5
M3 S255
G1 X36.5 Y35.5
M3 S0
G0 X34.0 Y35.5
M3 S255
G1 X34.0 Y35.5
M3 S255
G1 X33.0 Y35.5
M3 S0
G0 X32.0 Y35.5
M3 S255
G1 X32.0 Y35.5
M3 S255
G1 X31.5 Y35.5
M3 S0
G0 X30.0 Y35.5
M3 S255
G1 X30.0 Y35.5
M3 S255
G1 X29.5 Y35.5
M3 S0
M5 S0
G0 X29.5 Y36.0
M3 S255
G1 X29.5 Y36.0
M3 S255
G1 X30.0 Y36.0
M3 S0
G0 X31.5 Y36.0
M3 S255
G1 X31.5 Y36.0
M3 S255
G1 X32.0 Y36.0
M3 S0
G0 X33.0 Y36.0
M3 S255
G1 X33.0 Y36.0
M3 S255
G1 X34.0 Y36.0
M3 S0
G0 X36.5 Y36.0
M3 S255
G1 X36.5 Y36.0
M3 S255
G1 X37.0 Y36.0
M3 S0
G0 X43.5 Y36.0
M3 S255
G1 X43.5 Y36.0
M3 S255
G1 X44.0 Y36.0
M3 S0
G0 X50.5 Y36.0
M3 S255
G1 X50.5 Y36.0
M3 S255
G1 X52.0 Y36.0
M3 S0
G0 X53.0 Y36.0
M3 S255
G1 X53.0 Y36.0
M3 S255
G1 X54.0 Y36.0
M3 S0
G0 X54.5 Y36.0
M3 S255
G1 X54.5 Y36.0
M3 S255
G1 X55.5 Y36.0
M3 S0
G0 X56.5 Y36.0
M3 S255
G1 X56.5 Y36.0
M3 S255
G1 X57.0 Y36.0
M3 S0
G0 X58.5 Y36.0
M3 S255
G1 X58.5 Y36.0
M3 S255
G1 X59.5 Y36.0
M3 S0
G0 X66.5 Y36.0
M3 S255
G1 X66.5 Y36.0
M3 S255
G1 X67.5 Y36.0
M3 S0
G0 X71.0 Y36.0
M3 S255
G1 X71.0 Y36.0
M3 S255
G1 X71.5 Y36.0
M3 S0
G0 X72.5 Y36.0
M3 S255
G1 X72.5 Y36.0
M3 S255
G1 X74.0 Y36.0
M3 S0
M5 S0
G0 X99.5 Y36.5
M3 S255
G1 X99.0 Y36.5
M3 S0
G0 X73.5 Y36.5
M3 S255
G1 X73.5 Y36.5
M3 S255
G1 X71.0 Y36.5
M3 S0
G0 X59.5 Y36.5
M3 S255
G1 X59.5 Y36.5
M3 S255
G1 X59.0 Y36.5
M3 S0
G0 X57.0 Y36.5
M3 S255
G1 X57.0 Y36.5
M3 S255
G1 X56.5 Y36.5
M3 S0
G0 X55.0 Y36.5
M3 S255
G1 X55.0 Y36.5
M3 S255
G1 X54.5 Y36.5
M3 S0
G0 X54.0 Y36.5
M3 S255
G1 X54.0 Y36.5
M3 S255
G1 X53.0 Y36.5
M3 S0
G0 X52.0 Y36.5
M3 S255
G1 X52.0 Y36.5
M3 S255
G1 X51.0 Y36.5
M3 S0
G0 X37.0 Y36.5
M3 S255
G1 X37.0 Y36.5
M3 S255
G1 X36.5 Y36.5
M3 S0
G0 X34.0 Y36.5
M3 S255
G1 X34.0 Y36.5
M3 S255
G1 X33.5 Y36.5
M3 S0
G0 X32.5 Y36.5
M3 S255
G1 X32.5 Y36.5
M3 S255
G1 X32.0 Y36.5
M3 S0
G0 X30.5 Y36.5
M3 S255
G1 X30.5 Y36.5
M3 S255
G1 X29.5 Y36.5
M3 S0
M5 S0
G0 X29.5 Y37.0
M3 S255
G1 X29.5 Y37.0
M3 S255
G1 X30.5 Y37.0
M3 S0
G0 X31.5 Y37.0
M3 S255
G1 X31.5 Y37.0
M3 S255
G1 X32.5 Y37.0
M3 S0
G0 X33.5 Y37.0
M3 S255
G1 X33.5 Y37.0
M3 S255
G1 X34.0 Y37.0
M3 S0
G0 X36.5 Y37.0
M3 S255
G1 X36.5 Y37.0
M3 S255
G1 X37.0 Y37.0
M3 S0
G0 X51.5 Y37.0
M3 S255
G1 X51.5 Y37.0
M3 S255
G1 X52.0 Y37.0
M3 S0
G0 X53.0 Y37.0
M3 S255
G1 X53.0 Y37.0
M3 S255
G1 X53.5 Y37.0
M3 S0
G0 X54.5 Y37.0
M3 S255
G1 X54.5 Y37.0
M3 S255
G1 X55.0 Y37.0
M3 S0
G0 X56.5 Y37.0
M3 S255
G1 X56.5 Y37.0
M3 S255
G1 X57.0 Y37.0
M3 S0
G0 X59.0 Y37.0
M3 S255
G1 X59.0 Y37.0
M3 S255
G1 X59.5 Y37.0
M3 S0
M5 S0
G0 X99.5 Y37.5
M3 S255
G1 X99.0 Y37.5
M3 S0
G0 X59.0 Y37.5
M3 S255
G1 X59.0 Y37.5
M3 S255
G1 X58.5 Y37.5
M3 S0
G0 X57.5 Y37.5
M3 S255
G1 X57.5 Y37.5
M3 S255
G1 X56.5 Y37.5
M3 S0
G0 X53.5 Y37.5
M3 S255
G1 X53.5 Y37.5
M3 S255
G1 X53.0 Y37.5
M3 S0
G0 X52.5 Y37.5
M3 S255
G1 X52.5 Y37.5
M3 S255
G1 X51.5 Y37.5
M3 S0
G0 X37.0 Y37.5
M3 S255
G1 X37.0 Y37.5
M3 S255
G1 X36.5 Y37.5
M3 S0
G0 X34.0 Y37.5
M3 S255
G1 X34.0 Y37.5
M3 S255
G1 X33.5 Y37.5
M3 S0
G0 X32.0 Y37.5
M3 S255
G1 X32.0 Y37.5
M3 S255
G1 X31.5 Y37.5
M3 S0
G0 X30.5 Y37.5
M3 S255
G1 X30.5 Y37.5
M3 S255
G1 X29.5 Y37.5
M3 S0
M5 S0
G0 X29.5 Y38.0
M3 S255
G1 X29.5 Y38.0
M3 S255
G1 X30.5 Y38.0
M3 S0
G0 X33.5 Y38.0
M3 S255
G1 X33.5 Y38.0
M3 S255
G1 X34.0 Y38.0
M3 S0
G0 X36.5 Y38.0
M3 S255
G1 X36.5 Y38.0
M3 S255
G1 X37.0 Y38.0
M3 S0
G0 X43.5 Y38.0
M3 S255
G1 X43.5 Y38.0
M3 S255
G1 X44.0 Y38.0
M3 S0
G0 X57.0 Y38.0
M3 S255
G1 X57.0 Y38.0
M3 S255
G1 X59.0 Y38.0
M3 S0
M5 S0
G0 X99.5 Y38.5
M3 S255
G1 X99.0 Y38.5
M3 S0
G0 X58.0 Y38.5
M3 S255
G1 X58.0 Y38.5
M3 S255
G1 X57.5 Y38.5
M3 S0
G0 X44.0 Y38.5
M3 S255
G1 X44.0 Y38.5
M3 S255
G1 X43.5 Y38.5
M3 S0
G0 X39.0 Y38.5
M3 S255
G1 X39.0 Y38.5
M3 S255
G1 X38.0 Y38.5
M3 S0
G0 X37.5 Y38.5
M3 S255
G1 X37.5 Y38.5
M3 S255
G1 X36.5 Y38.5
M3 S0
G0 X34.0 Y38.5
M3 S255
G1 X34.0 Y38.5
M3 S255
G1 X33.5 Y38.5
M3 S0
G0 X30.5 Y38.5
M3 S255
G1 X30.5 Y38.5
M3 S255
G1 X29.5 Y38.5
M3 S0
M5 S0
G0 X29.5 Y39.0
M3 S255
G1 X29.5 Y39.0
M3 S255
G1 X30.5 Y39.0
M3 S0
G0 X31.5 Y39.0
M3 S255
G1 X31.5 Y39.0
M3 S255
G1 X32.0 Y39.0
M3 S0
G0 X33.0 Y39.0
M3 S255
G1 X33.0 Y39.0
M3 S255
G1 X34.0 Y39.0
M3 S0
G0 X37.5 Y39.0
M3 S255
G1 X37.5 Y39.0
M3 S255
G1 X38.0 Y39.0
M3 S0
G0 X43.5 Y39.0
M3 S255
G1 X43.5 Y39.0
M3 S255
G1 X44.0 Y39.0
M3 S0
M5 S0
G0 X99.5 Y39.5
M3 S255
G1 X99.0 Y39.5
M3 S0
G0 X44.0 Y39.5
M3 S255
G1 X44.0 Y39.5
M3 S255
G1 X43.5 Y39.5
M3 S0
G0 X34.0 Y39.5
M3 S255
G1 X34.0 Y39.5
M3 S255
G1 X33.0 Y39.5
M3 S0
G0 X31.5 Y39.5
M3 S255
G1 X31.5 Y39.5
M3 S255
G1 X31.0 Y39.5
M3 S0
G0 X30.5 Y39.5
M3 S255
G1 X30.5 Y39.5
M3 S255
G1 X29.5 Y39.5
M3 S0
M5 S0
G0 X29.5 Y40.0
M3 S255
G1 X29.5 Y40.0
M3 S255
G1 X30.5 Y40.0
M3 S0
G0 X31.0 Y40.0
M3 S255
G1 X31.0 Y40.0
M3 S255
G1 X31.5 Y40.0
M3 S0
G0 X33.0 Y40.0
M3 S255
G1 X33.0 Y40.0
M3 S255
G1 X34.0 Y40.0
M3 S0
G0 X43.5 Y40.0
M3 S255
G1 X43.5 Y40.0
M3 S255
G1 X44.0 Y40.0
M3 S0
M5 S0
G0 X99.5 Y40.5
M3 S255
G1 X99.0 Y40.5
M3 S0
G0 X44.0 Y40.5
M3 S255
G1 X44.0 Y40.5
M3 S255
G1 X39.5 Y40.5
M3 S0
G0 X33.5 Y40.5
M3 S255
G1 X33.5 Y40.5
M3 S255
G1 X33.0 Y40.5
M3 S0
G0 X31.5 Y40.5
M3 S255
G1 X31.5 Y40.5
M3 S255
G1 X31.0 Y40.5
M3 S0
G0 X30.5 Y40.5
M3 S255
G1 X30.5 Y40.5
M3 S255
G1 X29.5 Y40.5
M3 S0
M5 S0
G0 X29.5 Y41.0
M3 S255
G1 X29.5 Y41.0
M3 S255
G1 X30.5 Y41.0
M3 S0
G0 X31.0 Y41.0
M3 S255
G1 X31.0 Y41.0
M3 S255
G1 X31.5 Y41.0
M3 S0
G0 X33.0 Y41.0
M3 S255
G1 X33.0 Y41.0
M3 S255
G1 X33.5 Y41.0
M3 S0
G0 X41.0 Y41.0
M3 S255
G1 X41.0 Y41.0
M3 S255
G1 X41.5 Y41.0
M3 S0
G0 X43.0 Y41.0
M3 S255
G1 X43.0 Y41.0
M3 S255
G1 X43.5 Y41.0
M3 S0
M5 S0
G0 X99.5 Y41.5
M3 S255
G1 X99.0 Y41.5
M3 S0
G0 X33.5 Y41.5
M3 S255
G1 X33.5 Y41.5
M3 S255
G1 X33.0 Y41.5
M3 S0
G0 X31.5 Y41.5
M3 S255
G1 X31.5 Y41.5
M3 S255
G1 X31.0 Y41.5
M3 S0
G0 X30.5 Y41.5
M3 S255
G1 X30.5 Y41.5
M3 S255
G1 X29.5 Y41.5
M3 S0
M5 S0
G0 X29.5 Y42.0
M3 S255
G1 X29.5 Y42.0
M3 S255
G1 X30.0 Y42.0
M3 S0
G0 X31.0 Y42.0
M3 S255
G1 X31.0 Y42.0
M3 S255
G1 X31.5 Y42.0
M3 S0
G0 X33.5 Y42.0
M3 S255
G1 X33.5 Y42.0
M3 S255
G1 X34.0 Y42.0
M3 S0
M5 S0
G0 X99.5 Y42.5
M3 S255
G1 X99.0 Y42.5
M3 S0
G0 X33.5 Y42.5
M3 S255
G1 X33.5 Y42.5
M3 S255
G1 X33.0 Y42.5
M3 S0
G0 X31.5 Y42.5
M3 S255
G1 X31.5 Y42.5
M3 S255
G1 X30.5 Y42.5
M3 S0
G0 X30.0 Y42.5
M3 S255
G1 X30.0 Y42.5
M3 S255
G1 X29.5 Y42.5
M3 S0
M5 S0
G0 X29.5 Y43.0
M3 S255
G1 X29.5 Y43.0
M3 S255
G1 X30.0 Y43.0
M3 S0
G0 X30.5 Y43.0
M3 S255
G1 X30.5 Y43.0
M3 S255
G1 X31.5 Y43.0
M3 S0
M5 S0
G0 X99.5 Y43.5
M3 S255
G1 X99.0 Y43.5
M3 S0
G0 X31.5 Y43.5
M3 S255
G1 X31.5 Y43.5
M3 S255
G1 X29.5 Y43.5
M3 S0
M5 S0
G0 X30.0 Y44.0
M3 S255
G1 X30.0 Y44.0
M3 S255
G1 X30.5 Y44.0
M3 S0
G0 X31.0 Y44.0
M3 S255
G1 X31.0 Y44.0
M3 S255
G1 X31.5 Y44.0
M3 S0
M5 S0
G0 X99.5 Y44.5
M3 S255
G1 X99.0 Y44.5
M3 S0
G0 X34.0 Y44.5
M3 S255
G1 X34.0 Y44.5
M3 S255
G1 X33.5 Y44.5
M3 S0
M5 S0
G0 X31.0 Y45.0
M3 S255
G1 X31.0 Y45.0
M3 S255
G1 X31.5 Y45.0
M3 S0
G0 X33.5 Y45.0
M3 S255
G1 X33.5 Y45.0
M3 S255
G1 X34.0 Y45.0
M3 S0
M5 S0
G0 X99.5 Y45.5
M3 S255
G1 X99.0 Y45.5
M3 S0
G0 X34.0 Y45.5
M3 S255
G1 X34.0 Y45.5
M3 S255
G1 X33.5 Y45.5
M3 S0
M5 S0
G0 X30.0 Y46.0
M3 S255
G1 X30.0 Y46.0
M3 S255
G1 X33.5 Y46.0
M3 S0
M5 S0
G0 X99.5 Y46.5
M3 S255
G1 X99.0 Y46.5
M3 S0
G0 X33.5 Y46.5
M3 S255
G1 X33.5 Y46.5
M3 S255
G1 X32.0 Y46.5
M3 S0
G0 X31.5 Y46.5
M3 S255
G1 X31.5 Y46.5
M3 S255
G1 X30.5 Y46.5
M3 S0
M5 S0
G0 X31.5 Y47.0
M3 S255
G1 X31.5 Y47.0
M3 S255
G1 X32.0 Y47.0
M3 S0
M5 S0
G0 X99.5 Y47.5
M3 S255
G1 X99.0 Y47.5
M3 S0
G0 X32.0 Y47.5
M3 S255
G1 X32.0 Y47.5
M3 S255
G1 X31.5 Y47.5
M3 S0
M5 S0
G0 X31.5 Y48.0
M3 S255
G1 X31.5 Y48.0
M3 S255
G1 X32.0 Y48.0
M3 S0
M5 S0
G0 X99.5 Y48.5
M3 S255
G1 X99.0 Y48.5
M3 S0
G0 X32.5 Y48.5
M3 S255
G1 X32.5 Y48.5
M3 S255
G1 X31.5 Y48.5
M3 S0
M5 S0
G0 X31.5 Y49.0
M3 S255
G1 X31.5 Y49.0
M3 S255
G1 X32.0 Y49.0
M3 S0
M5 S0
G0 X99.5 Y49.5
M3 S255
G1 X99.0 Y49.5
M3 S0
G0 X32.0 Y49.5
M3 S255
G1 X32.0 Y49.5
M3 S255
G1 X31.5 Y49.5
M3 S0
M5 S0
G0 X31.5 Y50.0
M3 S255
G1 X31.5 Y50.0
M3 S255
G1 X32.0 Y50.0
M3 S0
M5 S0
G0 X99.5 Y50.5
M3 S255
G1 X99.0 Y50.5
M3 S0
G0 X32.0 Y50.5
M3 S255
G1 X32.0 Y50.5
M3 S255
G1 X31.5 Y50.5
M3 S0
M5 S0
G0 X31.5 Y51.0
M3 S255
G1 X31.5 Y51.0
M3 S255
G1 X32.0 Y51.0
M3 S0
M5 S0
G0 X99.5 Y51.5
M3 S255
G1 X99.0 Y51.5
M3 S0
G0 X32.0 Y51.5
M3 S255
G1 X32.0 Y51.5
M3 S255
G1 X31.5 Y51.5
M3 S0
M5 S0
G0 X31.5 Y52.0
M3 S255
G1 X31.5 Y52.0
M3 S255
G1 X32.0 Y52.0
M3 S0
M5 S0
G0 X99.5 Y52.5
M3 S255
G1 X99.0 Y52.5
M3 S0
G0 X32.0 Y52.5
M3 S255
G1 X32.0 Y52.5
M3 S255
G1 X31.5 Y52.5
M3 S0
M5 S0
G0 X31.5 Y53.0
M3 S255
G1 X31.5 Y53.0
M3 S255
G1 X32.0 Y53.0
M3 S0
M5 S0
G0 X99.5 Y53.5
M3 S255
G1 X99.0 Y53.5
M3 S0
M5 S0
G0 X65.5 Y54.0
M3 S255
G1 X65.5 Y54.0
M3 S255
G1 X67.5 Y54.0
M3 S0
M5 S0
G0 X99.5 Y54.5
M3 S255
G1 X99.0 Y54.5
M3 S0
G0 X67.5 Y54.5
M3 S255
G1 X67.5 Y54.5
M3 S255
G1 X66.5 Y54.5
M3 S0
G0 X66.0 Y54.5
M3 S255
G1 X66.0 Y54.5
M3 S255
G1 X65.5 Y54.5
M3 S0
M5 S0
G0 X66.5 Y55.0
M3 S255
G1 X66.5 Y55.0
M3 S255
G1 X67.0 Y55.0
M3 S0
M5 S0
G0 X99.5 Y55.5
M3 S255
G1 X99.0 Y55.5
M3 S0
M5 S0
M5 S0
G0 X99.5 Y56.5
M3 S255
G1 X99.0 Y56.5
M3 S0
M5 S0
M5 S0
G0 X99.5 Y57.5
M3 S255
G1 X99.0 Y57.5
M3 S0
M5 S0
M5 S0
G0 X99.5 Y58.5
M3 S255
G1 X99.0 Y58.5
M3 S0
M5 S0
M5 S0
G0 X99.5 Y59.5
M3 S255
G1 X99.0 Y59.5
M3 S0
M5 S0
M5 S0
G0 X99.5 Y60.5
M3 S255
G1 X99.0 Y60.5
M3 S0
M5 S0
M5 S0
G0 X99.5 Y61.5
M3 S255
G1 X99.0 Y61.5
M3 S0
M5 S0
M5 S0
G0 X99.5 Y62.5
M3 S255
G1 X99.0 Y62.5
M3 S0
M5 S0
M5 S0
G0 X99.5 Y63.5
M3 S255
G1 X99.0 Y63.5
M3 S0
M5 S0
M5 S0
G0 X99.5 Y64.5
M3 S255
G1 X99.0 Y64.5
M3 S0
M5 S0
M5 S0
G0 X99.5 Y65.5
M3 S255
G1 X99.0 Y65.5
M3 S0
M5 S0
M5 S0
